3DLUTS/GC_VENOM_LUTS/GC_Venom_V-LOG/GC_Venom_Ayla_V-Log.cube
TITLE "Generated by Resolve"
LUT_3D_SIZE 65
0 0 0
0 0 0
0 0 0
0 0 0
0 0 0
0 0 0
0 0 0
0 0 0
0 0 0
0 0 0
0 0 0
0 0 0
0 0 0
0 0 0
0 0 0
0 0 0
0 0 0
0 0 0
0 0 0
0 0 0
0 0 0
0 0 0
0 0 0
0 0 0
0 0 0
0 0 0
0 0 0
0 0 0
0 0 0
0 0 0
0 0 0
0 0 0
0 0 0
0 0 0
0 0 0
0 0 0
0 0 0
0 0 0
0 0 0
0 0 0
0 0 0
0 0 0
0 0 0
0 0 0
0 0 0
0 0 0
0 0 0
0 0 0
0 0 0
0 0 0
0 0 0
0 0 0
0.00479133 0 0
0.0247654 0 0
0.0471046 0 0
0.0687114 0 0
0.090837 0 0
0.116487 0 0
0.140352 0 0
0.166903 0 0
0.192203 0 0
0.218036 0 0
0.244205 0 0
0.271702 0 0
0.298726 0 0
0 0 0
0 0 0
0 0 0
0 0 0
0 0 0
0 0 0
0 0 0
0 0 0
0 0 0
0 0 0
0 0 0
0 0 0
0 0 0
0 0 0
0 0 0
0 0 0
0 0 0
0 0 0
0 0 0
0 0 0
0 0 0
0 0 0
0 0 0
0 0 0
0 0 0
0 0 0
0 0 0
0 0 0
0 0 0
0 0 0
0 0 0
0 0 0
0 0 0
0 0 0
0 0 0
0 0 0
0 0 0
0 0 0
0 0 0
0 0 0
0 0 0
0 0 0
0 0 0
0 0 0
0 0 0
0 0 0
0 0 0
0 0 0
0 0 0
0.0112764 0 0
0.0311894 0 0
0.0522316 0 0
0.0734417 0 0
0.0950484 0 0
0.119387 0 0
0.142702 0 0
0.16733 0 0
0.191943 0 0
0.217166 0 0
0.241474 0 0
0.269032 0 0
0.295064 0 0
0.323705 0 0
0.352972 0 0
0.383215 0 0
0 0 0
0 0 0
0 0 0
0 0 0
0 0 0
0 0 0
0 0 0
0 0 0
0 0 0
0 0 0
0 0 0
0 0 0
0 0 0
0 0 0
0 0 0
0 0 0
0 0 0
0 0 0
0 0 0
0 0 0
0 0 0
0 0 0
0 0 0
0 0 0
0 0 0
0 0 0
0 0 0
0 0 0
0 0 0
0 0 0
0 0 0
0 0 0
0 0 0
0 0 0
0 0 0
0 0 0
0 0 0
0 0 0
0 0 0
0 0 0
0 0 0
0 0 0
0 0 0
0 0 0
0 0 0
0.000366217 0.000366217 0.000366217
0.0178836 0 0
0.0374609 0 0
0.0566567 0 0
0.0779278 0 0
0.0985885 0 0
0.120836 0 0
0.144213 0 0
0.167727 0 0
0.190249 0 0
0.215503 0 0
0.238895 0 0
0.264561 0 0
0.290974 0 0
0.318593 0 0
0.345922 0 0
0.376272 0 0
0.404669 0 0
0.435615 0 0
0.468132 0 0
0 0 0
0 0 0
0 0 0
0 0 0
0 0 0
0 0 0
0 0 0
0 0 0
0 0 0
0 0 0
0 0 0
0 0 0
0 0 0
0 0 0
0 0 0
0 0 0
0 0 0
0 0 0
0 0 0
0 0 0
0 0 0
0 0 0
0 0 0
0 0 0
0 0 0
0 0 0
0 0 0
0 0 0
0 0 0
0 0 0
0 0 0
0 0 0
0 0 0
0 0 0
0 0 0
0 0 0
0 0 0
0 0 0
0 0 0
0 0 0
0 0 0
0 0 0
0.0059205 0 0
0.0225071 0 0
0.0411994 0 0
0.0601968 0 0
0.0796216 0 0
0.101823 0 0
0.122255 0 0
0.144427 0 0
0.165988 0 0
0.188785 0 0
0.210697 0 0
0.235569 0 0
0.259037 0 0
0.285756 0 0
0.311482 0 0
0.339101 0 0
0.366491 0 0
0.395972 0 0
0.424842 0 0
0.458076 0 0
0.490166 0 0
0.525292 0 0
0.561395 0 0
0 0 0
0 0 0
0 0 0
0 0 0
0 0 0
0 0 0
0 0 0
0 0 0
0 0 0
0 0 0
0 0 0
0 0 0
0 0 0
0 0 0
0 0 0
0 0 0
0 0 0
0 0 0
0 0 0
0 0 0
0 0 0
0 0 0
0 0 0
0 0 0
0 0 0
0 0 0
0 0 0
0 0 0
0 0 0
0 0 0
0 0 0
0 0 0
0 0 0
0 0 0
0 0 0
0 0 0
0 0 0
0 0 0
0 0 0
0.0104524 0 0
0.0267491 0 0
0.0437476 0 0
0.0621042 0 0
0.0807355 0 0
0.101534 0 0
0.12256 0 0
0.144244 0 0
0.165393 0 0
0.187213 0 0
0.207889 0 0
0.231006 0 0
0.254108 0 0
0.279133 0 0
0.304784 0 0
0.33135 0 0
0.357168 0 0
0.386435 0 0
0.414618 0 0
0.445686 0 0
0.478477 0 0
0.511101 0 0
0.546349 0 0
0.583398 0 0
0.623255 0 0
0.664622 0 0
0 0 0
0 0 0
0 0 0
0 0 0
0 0 0
0 0 0
0 0 0
0 0 0
0 0 0
0 0 0
0 0 0
0 0 0
0 0 0
0 0 0
0 0 0
0 0 0
0 0 0
0 0 0
0 0 0
0 0 0
0 0 0
0 0 0
0 0 0
0 0 0
0 0 0
0 0 0
0 0 0
0 0 0
0 0 0
0 0 0
0 0 0
0 0 0
0 0 0
0 0 0
0 0 0
0.000854505 0.000457771 0.000427253
0.0146487 0 0
0.0298009 0 0
0.0449531 0 0
0.062089 0 0
0.0800488 0 0
0.098558 0 0
0.119356 0 0
0.140047 0 0
0.160479 0 0
0.182849 0 0
0.204242 0 0
0.226337 0 0
0.249378 0 0
0.272297 0 0
0.296147 0 0
0.322469 0 0
0.347616 0 0
0.374105 0 0
0.40354 0 0
0.432639 0 0
0.464485 0 0
0.497398 0 0
0.531762 0 0
0.566751 0 0
0.606165 0 0
0.64831 0 0
0.692271 0 0
0.738582 0 0
0.786175 0 0
0 0 0
0 0 0
0 0 0
0 0 0
0 0 0
0 0 0
0 0 0
0 0 0
0 0 0
0 0 0
0 0 0
0 0 0
0 0 0
0 0 0
0 0 0
0 0 0
0 0 0
0 0 0
0 0 0
0 0 0
0 0 0
0 0 0
0 0 0
0 0 0
0 0 0
0 0 0
0 0 0
0 0 0
0 0 0
0 0 0
0 0 0
0 0 0
0.00526436 0.000274662 0
0.0171664 0 0
0.030808 0 0
0.0450446 0 0
0.06009 0 0
0.0778363 0 0
0.0948501 0 0
0.113558 0 0
0.132769 0 0
0.152911 0 0
0.172686 0 0
0.19527 0 0
0.217029 0 0
0.241184 0 0
0.264973 0 0
0.289189 0 0
0.312245 0 0
0.337896 0 0
0.362356 0 0
0.391302 0 0
0.419867 0 0
0.450004 0 0
0.482094 0 0
0.514824 0 0
0.550683 0 0
0.589517 0 0
0.629328 0 0
0.672724 0 0
0.719081 0 0
0.765682 0 0
0.814313 0 0
0.867735 0 0
0.920623 0 0
0 0 0
0 0 0
0 0 0
0 0 0
0 0 0
0 0 0
0 0 0
0 0 0
0 0 0
0 0 0
0 0 0
0 0 0
0 0 0
0 0 0
0 0 0
0 0 0
0 0 0
0 0 0
0 0 0
0 0 0
0 0 0
0 0 0
0 0 0
0 0 0
0 0 0
0 0 0
0 0 0
0 0 0
0 0 0
0.00794995 0.000396735 0
0.019089 0 0
0.030808 0 0
0.0442054 0 0
0.057908 0 0
0.0734112 0 0
0.0897078 0 0
0.106935 0 0
0.1243 0 0
0.143496 0 0
0.162173 0 0
0.182925 0 0
0.20441 0 0
0.227451 0 0
0.251225 0 0
0.276173 0 0
0.300572 0 0
0.327001 0 0
0.35227 0 0
0.378378 0 0
0.407034 0 0
0.434669 0 0
0.46566 0 0
0.498344 0 0
0.532708 0 0
0.570199 0 0
0.610697 0 0
0.651865 0 0
0.696544 0 0
0.743755 0 0
0.791028 0 0
0.839887 0 0
0.893187 0 0
0.949508 0 0
1 0 0
1 0 0
0 0 0
0 0 0
0 0 0
0 0 0
0 0 0
0 0 0
0 0 0
0 0 0
0 0 0
0 0 0
0 0 0
0 0 0
0 0 0
0 0 0
0 0 0
0 0 0
0 0 0
0 0 0
0 0 0
0 0 0
0 0 0
0 0 0
0 0 0
0 0 0
0 0 0
0.00138857 0.000549325 0.000274662
0.00988785 0.000823987 0
0.0197604 0.000640879 0
0.0298619 0.00015259 0
0.0412909 0 0
0.0543221 0 0
0.0675822 0 0
0.0829786 0 0
0.0983291 0 0
0.114443 0 0
0.131868 0 0
0.149889 0 0
0.168704 0 0
0.189776 0 0
0.210681 0 0
0.233539 0 0
0.25742 0 0
0.281727 0 0
0.3066 0 0
0.335027 0 0
0.362783 0 0
0.392157 0 0
0.421241 0 0
0.450706 0 0
0.480873 0 0
0.514275 0 0
0.550515 0 0
0.589258 0 0
0.630823 0 0
0.672923 0 0
0.718502 0 0
0.766171 0 0
0.813718 0 0
0.86511 0 0
0.919554 0 0
0.977218 0 0
1 0 0
1 0 0
1 0 0
1 0 0
0 0 0
0 0 0
0 0 0
0 0 0
0 0 0
0 0 0
0 0 0
0 0 0
0 0 0
0 0 0
0 0 0
0 0 0
0 0 0
0 0 0
0 0 0
0 0 0
0 0 0
0 0 0
0 0 0
0 0 0
0 0 0
0 0 0
0.00360113 0.000946059 0
0.0105898 0.0015259 0
0.0187991 0.00175479 0
0.0277409 0.00170901 0
0.0375372 0.0012665 0
0.0493172 0.000488289 0
0.0610971 0 0
0.0743267 0 0
0.0883192 0 0
0.103304 0 0
0.118425 0 0
0.135897 0 0
0.153246 0 0
0.172549 0 0
0.192889 0 0
0.21442 0 0
0.235966 0 0
0.260243 0 0
0.284245 0 0
0.311131 0 0
0.338888 0 0
0.367422 0 0
0.398291 0 0
0.430259 0 0
0.4636 0 0
0.497795 0 0
0.532357 0 0
0.568368 0 0
0.60795 0 0
0.649439 0 0
0.692271 0 0
0.738308 0 0
0.786084 0 0
0.835401 0 0
0.889708 0 0
0.943816 0 0
0.99884 0 0
1 0 0
1 0 0
1 0 0
1 0 0
1 0 0
1 0 0
0 0 0
0 0 0
0 0 0
0 0 0
0 0 0
0 0 0
0 0 0
0 0 0
0 0 0
0 0 0
0 0 0
0 0 0
0 0 0
0 0 0
0 0 0
0 0 0
0 0 0
0 0 0
0.000106813 0.000106813 0.000106813
0.00457771 0.0016022 0
0.0103761 0.00259403 0
0.0168154 0.00317388 0
0.0245975 0.00357061 0
0.032929 0.00354009 0
0.0426642 0.00321965 0
0.0532845 0.00257877 0
0.0648814 0.00163272 0
0.0768444 0.000396735 0
0.0906539 0 0
0.104448 0 0
0.119921 0 0
0.136446 0 0
0.15433 0 0
0.172854 0 0
0.193286 0 0
0.213565 0 0
0.235996 0 0
0.259556 0 0
0.284108 0 0
0.311864 0 0
0.339361 0 0
0.369085 0 0
0.400397 0 0
0.433722 0 0
0.470283 0 0
0.509026 0 0
0.547295 0 0
0.586419 0 0
0.627466 0 0
0.667643 0 0
0.708782 0 0
0.755673 0 0
0.805417 0 0
0.856199 0 0
0.910246 0 0
0.962905 0 0
1 0 0
1 0 0
1 0 0
1 0 0
1 0 0
1 0 0
1 0 0
1 0 0
1 0 0
0 0 0
0 0 0
0 0 0
0 0 0
0 0 0
0 0 0
0 0 0
0 0 0
0 0 0
0 0 0
0 0 0
0 0 0
0 0 0
0 0 0
0 0 0
0.00114443 0.000885023 0.00015259
0.00453193 0.00254826 0
0.00886549 0.00396735 0
0.0138399 0.00500496 0
0.0196689 0.00570687 0
0.0269932 0.00621042 0
0.0347601 0.00630198 0
0.0439765 0.00616464 0
0.0537118 0.00564584 0
0.0644541 0.00486763 0
0.0760204 0.00378424 0
0.0889296 0.00242618 0
0.102358 0.000793469 0
0.117891 0 0
0.133654 0 0
0.151125 0 0
0.169482 0 0
0.189029 0 0
0.209216 0 0
0.232334 0 0
0.255665 0 0
0.28127 0 0
0.308156 0 0
0.336095 0 0
0.366354 0 0
0.399481 0 0
0.433997 0 0
0.471763 0 0
0.511864 0 0
0.55285 0 0
0.595712 0 0
0.640894 0 0
0.683131 0 0
0.726635 0 0
0.7738 0 0
0.8215 0 0
0.872206 0 0
0.924895 0 0
0.978103 0 0
1 0 0
1 0 0
1 0 0
1 0 0
1 0 0
1 0 0
1 0 0
1 0 0
1 0 0
1 0 0
1 0 0
0 0 0
0 0 0
0 0 0
0 0 0
0 0 0
0 0 0
0 0 0
0 0 0
0 0 0
0 0 0
0 0 0
0 0 0
0.00167849 0.00170901 0
0.00410468 0.00370794 0
0.00695811 0.00543221 0
0.0103914 0.00700389 0
0.0143893 0.00822461 0
0.0197147 0.00926223 0
0.0259098 0.00982681 0
0.0333715 0.0100862 0
0.0416266 0.0100252 0
0.0508736 0.00968948 0
0.0607309 0.00901808 0
0.072221 0.00816358 0
0.084184 0.00695811 0
0.0977188 0.00549325 0
0.112306 0.00373846 0
0.128099 0.00169375 0
0.144411 0 0
0.16289 0 0
0.181781 0 0
0.202777 0 0
0.225238 0 0
0.248508 0 0
0.273899 0 0
0.300999 0 0
0.330343 0 0
0.361608 0 0
0.395422 0 0
0.430854 0 0
0.46952 0 0
0.510307 0 0
0.552087 0 0
0.596735 0 0
0.643381 0 0
0.691752 0 0
0.741833 0 0
0.790311 0 0
0.837293 0 0
0.887434 0 0
0.937713 0 0
0.992386 0 0
1 0 0
1 0 0
1 0 0
1 0 0
1 0 0
1 0 0
1 0 0
1 0 0
1 0 0
1 0 0
1 0 0
1 0 0
1 0 0
0 0 0
0 0 0
0 0 0
0 0 0
0 0 0
0 0 0
0 0 0
0 0 0
0.000366217 0.000366217 0.000366217
0.00151064 0.00283818 0
0.00292973 0.00509651 0
0.00480659 0.00700389 0
0.00732433 0.00892653 0
0.0101015 0.0104982 0
0.0134737 0.0119478 0
0.0175326 0.0132296 0
0.022446 0.0142061 0
0.0284123 0.0146944 0
0.0358892 0.0149844 0
0.0441444 0.014786 0
0.0536355 0.0144045 0
0.0642863 0.0137026 0
0.0762798 0.0126497 0
0.0890822 0.0113222 0
0.103487 0.00978103 0
0.118288 0.00788891 0
0.1346 0.00573739 0
0.152468 0.00331121 0
0.171328 0.000549325 0
0.192416 0 0
0.214405 0 0
0.238163 0 0
0.263188 0 0
0.290806 0 0
0.320958 0 0
0.35346 0 0
0.387304 0 0
0.423377 0 0
0.463157 0 0
0.503532 0 0
0.545464 0 0
0.591287 0 0
0.639643 0 0
0.689876 0 0
0.74284 0 0
0.794644 0 0
0.846342 0 0
0.900389 0 0
0.953033 0 0
1 0 0
1 0 0
1 0 0
1 0 0
1 0 0
1 0 0
