3DLUTS/GC_VENOM_LUTS/GC_Venom_V-LOG/GC_Venom_Vlasta_V-Log.cube
TITLE "Generated by Resolve"
LUT_3D_SIZE 9
0 0 0
0 0 0
0 0 0
0 0 0
0 0 0
0 0 0
0.0789807 0 0
0.390219 0 0
0.783749 0 0
0 0 0
0 0 0
0 0 0
0.0532845 0.00274662 0
0.225254 0 0
0.515419 0 0
0.92314 0 0
1 0 0
1 0 0
0 0.035584 0
0 0.055375 0
0.049134 0.0674907 0
0.249454 0.0468299 0
0.644755 0 0
1 0 0
1 0 0
1 0 0
1 0 0
0 0.243137 0
0 0.282582 0
0 0.315328 0
0.2112 0.290593 0
0.641032 0.239979 0
1 0.182681 0
1 0.140307 0
1 0.123507 0
1 0.10312 0
0 0.607538 0
0 0.609766 0
0 0.619058 0
0.0605173 0.607782 0
0.482567 0.566918 0
0.944335 0.516228 0
1 0.478431 0
1 0.464988 0
1 0.446159 0
0 0.929747 0
0 0.935973 0
0 0.945678 0
0 0.938354 0
0.337285 0.903243 0
0.790539 0.855283 0
1 0.817533 0
1 0.801953 0
1 0.783566 0
0 1 0
0 1 0
0 1 0
0 1 0
0.244633 1 0
0.70956 1 0
1 1 0
1 0.99913 0.558618
1 1 0.991745
0 1 0
0 1 0
0 1 0
0.490532 1 0.087953
0.927581 1 0.816831
1 1 1
1 1 1
1 1 1
1 1 1
0.443381 1 0.395941
0.989685 1 0.98703
1 1 1
1 1 1
1 1 1
1 1 1
1 1 1
1 1 1
1 1 1
0 0 0
0 0 0
0 0 0
0 0 0
0 0 0
0 0 0
0.131182 0 0
0.452003 0 0
0.853758 0 0
0 0 0
0 0 0
0 0 0
0.0679179 0.000671397 0
0.247242 0 0
0.552468 0 0
0.990631 0 0
1 0 0
1 0 0
0 0.0384833 0
0 0.0542611 0
0.0447395 0.0641184 0
0.259968 0.0394598 0
0.675029 0 0
1 0 0
1 0 0
1 0 0
1 0 0
0 0.250919 0
0 0.287465 0
0 0.312093 0
0.20763 0.28716 0
0.638636 0.237415 0
1 0.180911 0
1 0.139116 0
1 0.12282 0
1 0.102586 0
0 0.605051 0
0 0.608118 0
0 0.617853 0
0.0594797 0.607156 0
0.482536 0.566812 0
0.945357 0.516823 0
1 0.478828 0
1 0.465278 0
1 0.446204 0
0 0.92987 0
0 0.936309 0
0 0.946517 0
0 0.939147 0
0.337942 0.903944 0
0.791287 0.855787 0
1 0.818006 0
1 0.801862 0
1 0.788373 0
0 1 0
0 1 0
0 1 0
0 1 0
0.248585 1 0
0.727016 1 0
1 1 0.0703593
1 0.99707 0.761227
1 1 0.999176
0 1 0
0 1 0
0 1 0
0.615549 1 0.38584
0.979171 1 0.952956
1 1 1
1 1 1
1 1 1
1 1 1
0.63035 1 0.639445
0.995804 1 0.994583
1 1 1
1 1 1
1 1 1
1 1 1
1 1 1
1 1 1
1 1 1
0 0 0
0 0 0
0 0 0
0 0 0
0 0 0
0 0 0
0.177157 0 0.00865187
0.503822 0 0
0.92401 0 0
0 0 0
0 0 0
0.00314336 0.00134279 0.00447089
0.0773938 0 0.0397955
0.262882 0 0.0420996
0.588556 0 0
1 0 0
1 0 0
1 0 0
0 0.0380407 0.053315
0 0.0493324 0.0741894
0.035111 0.0553292 0.090074
0.262654 0.0247654 0.0644694
0.696849 0 0
1 0 0
1 0 0
1 0 0
1 0 0
0 0.253193 0
0 0.282765 0
0 0.300343 0
0.19884 0.278462 0
0.632227 0.230869 0
1 0.175662 0
1 0.134661 0
1 0.11873 0
1 0.0987869 0
0 0.599573 0
0 0.603296 0
0 0.613565 0
0.0556497 0.603616 0
0.479667 0.563882 0
0.943252 0.514443 0
1 0.476799 0
1 0.462913 0
1 0.443641 0
0 0.927657 0
0 0.93434 0
0 0.944533 0
0 0.937774 0
0.336233 0.902251 0
0.789715 0.854063 0
1 0.81593 0
1 0.799649 0
1 0.795544 0
0 1 0
0 1 0
0 1 0
0 1 0
0.2636 1 0
0.749294 1 0
1 1 0.366171
1 0.997543 0.907652
1 1 1
0 1 0
0 1 0
0.111162 1 0.0118868
0.722972 1 0.615427
0.99823 1 0.992447
1 1 1
1 1 1
1 1 1
1 1 1
0.780255 1 0.81207
1 1 1
1 1 1
1 1 1
1 1 1
1 1 1
1 1 1
1 1 1
1 1 1
0 0 0
0 0 0
0 0 0
0 0 0
0 0 0
0 0 0
0.197772 0 0.0615091
0.516136 0 0.120119
0.952422 0 0.163333
0 0 0
0 0 0
0.00640879 0.00161746 0.0209812
0.0809644 0 0.11104
0.267536 0 0.179797
0.601556 0 0.22501
1 0 0.260731
1 0 0.290059
1 0 0.284367
0 0.0339666 0.146838
0 0.0399634 0.2309
0.0217288 0.0411536 0.325521
0.256611 0.00231937 0.400183
0.699245 0 0.423636
1 0 0.37911
1 0 0.329458
1 0 0.308309
1 0 0.284443
0 0.237263 0.327214
0 0.260899 0.368566
0 0.273182 0.383474
0.172213 0.25098 0.360204
0.603494 0.20296 0.310216
1 0.147616 0.252247
1 0.106584 0.209506
1 0.0911574 0.194598
1 0.0715038 0.17525
0 0.569253 0.190036
0 0.57351 0.195514
0 0.584146 0.207156
0.0283513 0.574762 0.195315
0.450568 0.535103 0.151537
0.913329 0.485954 0.0973068
1 0.448646 0.0568551
1 0.434638 0.0436713
1 0.415213 0.0245365
0 0.899123 0.0214084
0 0.905455 0.0305333
0 0.915358 0.0426642
0 0.908522 0.030808
0.308171 0.874052 0
0.76054 0.826047 0
1 0.788174 0
1 0.772992 0
1 0.785443 0.0880293
0 1 0
0 1 0
0 1 0
0 1 0
0.262974 1 0
0.757336 1 0.212131
0.990829 0.999634 0.630823
1 0.998901 0.979278
1 1 1
0 1 0
0 1 0.0683604
0.228229 1 0.436561
0.786297 1 0.799786
1 1 0.999496
1 1 1
1 1 1
1 1 1
1 1 1
0.869657 1 0.92314
1 1 1
1 1 1
1 1 1
1 1 1
1 1 1
1 1 1
1 1 1
1 1 1
0 0 0
0 0 0
0 0 0
0 0 0
0 0 0
0.000396735 0.000396735 0.000396735
0.219135 0 0.120699
0.539849 0 0.23975
0.997467 0 0.357473
0 0 0
0 0 0
0.00823987 0.000762951 0.0468757
0.0827039 0 0.190631
0.272908 0 0.32343
0.628077 0 0.452476
1 0 0.587762
1 0 0.704448
1 0 0.732143
0 0.0289006 0.249363
0 0.030045 0.403021
0.00775158 0.0258335 0.586389
0.249912 0 0.756085
0.697459 0 0.852522
1 0 0.819455
1 0 0.773114
1 0 0.752331
1 0 0.728878
0 0.225742 0.722042
0 0.24097 0.809262
0 0.250919 0.821363
0.152804 0.230411 0.803418
0.582635 0.183093 0.759091
1 0.128161 0.706752
1 0.0877852 0.667582
1 0.0724651 0.651926
1 0.0530861 0.632349
0 0.548089 0.650507
0 0.552514 0.654017
0 0.563272 0.66389
0.010132 0.554391 0.656916
0.430137 0.515038 0.619898
0.891066 0.465507 0.572366
1 0.428031 0.535805
1 0.414206 0.521767
1 0.394537 0.502037
0 0.877455 0.506157
0 0.884215 0.51223
0 0.89366 0.52105
0 0.885954 0.514687
0.285801 0.851438 0.481712
0.735515 0.802457 0.433845
1 0.763424 0.39527
1 0.752285 0.40209
1 0.784192 0.530068
0 1 0.421256
0 1 0.425498
0 1 0.431235
0 1 0.418311
0.276799 1 0.447684
0.767208 1 0.606012
0.982116 0.989944 0.822812
1 1 0.996918
1 1 1
0 1 0.413993
0 1 0.521767
0.337011 1 0.725002
0.843153 1 0.913649
1 1 1
1 1 1
1 1 1
1 1 1
1 1 1
0.937194 1 0.977615
1 1 1
1 1 1
1 1 1
1 1 1
1 1 1
1 1 1
1 1 1
1 1 1
0 0 0
0 0 0
0 0 0
0 0 0
0 0 0
0.0163729 0 0.0169223
0.24097 0 0.18761
0.57145 0 0.367376
1 0 0.564538
0 0 0
0 0 0
0.00953689 0 0.0821698
0.0847944 0 0.278462
0.284733 0 0.481895
0.667659 0 0.702419
1 0 0.926802
1 0 1
1 0 1
0 0.0238041 0.362203
0 0.0198062 0.58883
0 0.00970474 0.869749
0.244053 0 1
0.692042 0 1
1 0 1
1 0 1
1 0 1
1 0 1
0 0.214252 1
0 0.222843 1
0 0.232151 1
0.137224 0.213611 1
0.565499 0.166903 1
1 0.112779 1
1 0.0726024 1
1 0.0579843 1
1 0.0386816 1
0 0.531258 1
0 0.536004 1
0 0.546441 1
0 0.537987 1
0.414099 0.499306 1
0.873549 0.449744 0.990799
1 0.412497 0.956039
1 0.398291 0.941268
1 0.378561 0.921386
0 0.861006 0.927947
0 0.867811 0.932799
0 0.877394 0.940749
0 0.868482 0.935546
0.268833 0.83418 0.906096
0.716869 0.785214 0.861845
1 0.745541 0.824826
1 0.742397 0.814206
1 0.793164 0.841535
0 1 0.848234
0 1 0.850858
0 1 0.854963
0 1 0.843732
0.310323 1 0.83035
0.787167 1 0.861936
0.980148 0.986603 0.935637
1 1 1
1 1 1
0 1 0.831662
0 1 0.857023
0.438819 1 0.912581
0.894957 1 0.974517
1 1 1
1 1 1
1 1 1
1 1 1
1 1 1
0.987289 1 0.999023
1 1 1
1 1 1
1 1 1
1 1 1
1 1 1
1 1 1
1 1 1
1 1 1
0 0 0
0 0 0
0 0 0
0 0 0
0 0 0
0.0402838 0 0.0509651
0.276387 0 0.266651
0.626795 0 0.503975
1 0 0.783612
0 0 0
0 0 0
0.0112612 0 0.134051
0.0909743 0 0.378668
0.30396 0 0.6448
0.71812 0 0.951202
1 0 1
1 0 1
1 0 1
0 0.0196994 0.482475
0 0.0110018 0.78468
0 0 1
0.243473 0 1
0.68748 0 1
1 0 1
1 0 1
1 0 1
1 0 1
0 0.207752 1
0 0.2121 1
0 0.221714 1
0.128649 0.204242 1
0.556558 0.158465 1
1 0.10457 1
1 0.0647746 1
1 0.0504158 1
1 0.0314794 1
0 0.521874 1
0 0.527352 1
0 0.537606 1
0 0.529458 1
0.405844 0.491203 1
0.864775 0.441978 1
1 0.404273 1
1 0.389868 1
1 0.369802 1
0 0.852537 1
0 0.859312 1
0 0.868803 1
0 0.859541 1
0.259754 0.824872 1
0.70634 0.77554 1
1 0.73611 1
1 0.746197 1
1 0.81091 1
0 1 1
0 1 1
0 1 1
0 1 1
0.368154 1 1
0.811856 0.997253 1
0.982574 0.98735 0.992065
1 1 1
1 1 1
0 1 1
0 1 1
0.538323 1 1
0.950851 1 0.99939
1 1 1
1 1 1
1 1 1
1 1 1
1 1 1
0.991531 1 1
1 1 1
1 1 1
1 1 1
1 1 1
1 1 1
1 1 1
1 1 1
1 1 1
0 0 0
0 0 0
0 0 0
0 0 0
0 0 0
0.073991 0 0.106111
0.326726 0 0.358404
0.704326 0 0.646204
1 0 0.994797
0 0 0
0 0 0
0.0137026 0 0.208209
0.101396 0 0.490654
0.336873 0 0.819333
0.784878 0 1
1 0 1
1 0 1
1 0 1
0 0.0171206 0.617166
0 0.00425727 0.992081
0 0 1
0.248234 0 1
0.685802 0 1
1 0 1
1 0 1
1 0 1
1 0 1
0 0.207919 1
0 0.210498 1
0 0.220447 1
0.128191 0.203738 1
0.556451 0.158404 1
1 0.105089 1
1 0.0652628 1
1 0.0510719 1
1 0.0322881 1
0 0.521263 1
0 0.527291 1
0 0.538293 1
0 0.529961 1
0.406531 0.491905 1
0.865156 0.442374 1
1 0.404791 1
1 0.3897 1
1 0.369192 1
0 0.853025 1
0 0.859724 1
0 0.869078 1
0 0.859525 1
0.259297 0.824384 1
0.705196 0.774502 1
1 0.737133 1
1 0.763027 1
1 0.836439 1
0 1 1
0 1 1
0 1 1
0 1 1
0.44123 1 1
0.842878 0.992203 1
0.989166 0.991791 1
1 1 1
1 1 1
0 1 1
0.0685283 1 1
0.652506 1 1
0.993301 1 1
1 1 1
1 1 1
1 1 1
1 1 1
1 1 1
0.997879 1 1
1 1 1
1 1 1
1 1 1
1 1 1
1 1 1
1 1 1
1 1 1
1 1 1
0 0 0
0 0 0
0 0 0
0 0 0
0 0 0
0.10779 0 0.173678
0.378668 0 0.467308
0.794141 0 0.821363
1 0 1
0 0 0
0.00062562 0.00030518 0.016083
0.0151675 0 0.292485
0.112978 0 0.630869
0.373556 0 1
0.851423 0 1
1 0 1
1 0 1
1 0 1
0 0.0133516 0.777905
0 0 1
0 0 1
0.250401 0 1
0.683665 0 1
1 0 1
1 0 1
1 0 1
1 0 1
0 0.20618 1
0 0.208499 1
0 0.218997 1
0.127611 0.203052 1
0.556161 0.158175 1
1 0.105257 1
1 0.0658885 1
1 0.0514839 1
1 0.0326848 1
0 0.520592 1
0 0.527062 1
0 0.538399 1
0 0.530587 1
0.406714 0.492103 1
0.865141 0.442512 1
1 0.404654 1
1 0.38967 1
1 0.368246 1
0 0.853391 1
0 0.859861 1
0 0.869032 1
0 0.859098 1
0.258824 0.823865 1
0.703532 0.773037 1
1 0.741299 1
1 0.781613 1
1 0.858228 1
0 1 1
0 1 1
0 1 1
0 1 1
0.515038 1 1
0.873045 0.989303 1
0.997116 0.997787 1
1 1 1
1 1 1
0 1 1
0.217487 1 1
0.749599 1 1
0.999191 1 1
1 1 1
1 1 1
1 1 1
1 1 1
1 1 1
1 1 1
1 1 1
1 1 1
1 1 1
1 1 1
1 1 1
1 1 1
1 1 1
1 1 1
