3DLUTS/GC_VENOM_LUTS/GC_Venom_V-LOG/GC_Venom_Vlasta_V-Log.cube
TITLE "Generated by Resolve"
LUT_3D_SIZE 65
0 0 0
0 0 0
0 0 0
0 0 0
0 0 0
0 0 0
0 0 0
0 0 0
0 0 0
0 0 0
0 0 0
0 0 0
0 0 0
0 0 0
0 0 0
0 0 0
0 0 0
0 0 0
0 0 0
0 0 0
0 0 0
0 0 0
0 0 0
0 0 0
0 0 0
0 0 0
0 0 0
0 0 0
0 0 0
0 0 0
0 0 0
0 0 0
0 0 0
0 0 0
0 0 0
0 0 0
0 0 0
0 0 0
0 0 0
0 0 0
0 0 0
0 0 0
0 0 0
0 0 0
0 0 0
0.00791943 0 0
0.0236667 0 0
0.050309 0 0
0.0789807 0 0
0.111299 0 0
0.144305 0 0
0.183642 0 0
0.223438 0 0
0.26186 0 0
0.305531 0 0
0.348852 0 0
0.390219 0 0
0.437919 0 0
0.484871 0 0
0.530816 0 0
0.58027 0 0
0.628 0 0
0.679103 0 0
0.732738 0 0
0.783749 0 0
0 0 0
0 0 0
0 0 0
0 0 0
0 0 0
0 0 0
0 0 0
0 0 0
0 0 0
0 0 0
0 0 0
0 0 0
0 0 0
0 0 0
0 0 0
0 0 0
0 0 0
0 0 0
0 0 0
0 0 0
0 0 0
0 0 0
0 0 0
0 0 0
0 0 0
0 0 0
0 0 0
0 0 0
0 0 0
0 0 0
0 0 0
0 0 0
0 0 0
0 0 0
0 0 0
0 0 0
0 0 0
0 0 0
0 0 0
0 0 0
0 0 0
1.5259e-05 1.5259e-05 1.5259e-05
0.0133974 0 0
0.0299077 0 0
0.0547494 0 0
0.0835279 0 0
0.117052 0 0
0.14905 0 0
0.185412 0 0
0.223819 0 0
0.2598 0 0
0.30135 0 0
0.339864 0 0
0.382391 0 0
0.4271 0 0
0.469718 0 0
0.515221 0 0
0.563821 0 0
0.608469 0 0
0.657618 0 0
0.710246 0 0
0.759503 0 0
0.814282 0 0
0.869581 0 0
0.927657 0 0
0 0 0
0 0 0
0 0 0
0 0 0
0 0 0
0 0 0
0 0 0
0 0 0
0 0 0
0 0 0
0 0 0
0 0 0
0 0 0
0 0 0
0 0 0
0 0 0
0 0 0
0 0 0
0 0 0
0 0 0
0 0 0
0 0 0
0 0 0
0 0 0
0 0 0
0 0 0
0 0 0
0 0 0
0 0 0
0 0 0
0 0 0
0 0 0
0 0 0
0 0 0
0 0 0
0 0 0
0 0 0
0 0 0
0.00146487 0.000366217 0.000259403
0.014725 0 0
0.0348821 0 0
0.0581064 0 0
0.0851606 0 0
0.117113 0 0
0.149142 0 0
0.185122 0 0
0.221118 0 0
0.258534 0 0
0.296361 0 0
0.333639 0 0
0.373053 0 0
0.414557 0 0
0.45594 0 0
0.499474 0 0
0.544228 0 0
0.588632 0 0
0.635752 0 0
0.681575 0 0
0.734096 0 0
0.786923 0 0
0.838087 0 0
0.895918 0 0
0.95259 0 0
1 0 0
1 0 0
0 0 0
0 0 0
0 0 0
0 0 0
0 0 0
0 0 0
0 0 0
0 0 0
0 0 0
0 0 0
0 0 0
0 0 0
0 0 0
0 0 0
0 0 0
0 0 0
0 0 0
0 0 0
0 0 0
0 0 0
0 0 0
0 0 0
0 0 0
0 0 0
0 0 0
0 0 0
0 0 0
0 0 0
0 0 0
0 0 0
0 0 0
0 0 0
0 0 0
0 0 0
0 0 0
0.00598154 0 0
0.0172427 0 0
0.0372625 0 0
0.059144 0 0
0.0849622 0 0
0.111818 0 0
0.144564 0 0
0.178271 0 0
0.211231 0 0
0.249653 0 0
0.287282 0 0
0.324361 0 0
0.364782 0 0
0.403418 0 0
0.441016 0 0
0.482277 0 0
0.521996 0 0
0.565698 0 0
0.612528 0 0
0.656519 0 0
0.706783 0 0
0.756222 0 0
0.807233 0 0
0.861784 0 0
0.914733 0 0
0.97232 0 0
1 0 0
1 0 0
1 0 0
1 0 0
0 0 0
0 0 0
0 0 0
0 0 0
0 0 0
0 0 0
0 0 0
0 0 0
0 0 0
0 0 0
0 0 0
0 0 0
0 0 0
0 0 0
0 0 0
0 0 0
0 0 0
0 0 0
0 0 0
0 0 0
0 0 0
0 0 0
0 0 0
0 0 0
0 0 0
0 0 0
0 0 0
0 0 0
0 0 0
0 0 0
0 0 0
6.10361e-05 6.10361e-05 6.10361e-05
0.00892653 0 0
0.0206302 0 0
0.0375067 0 0
0.057847 0 0
0.0826276 0 0
0.107317 0 0
0.136187 0 0
0.167178 0 0
0.198825 0 0
0.233661 0 0
0.268223 0 0
0.306004 0 0
0.34551 0 0
0.384787 0 0
0.425391 0 0
0.466697 0 0
0.504219 0 0
0.544808 0 0
0.586648 0 0
0.630182 0 0
0.677089 0 0
0.724681 0 0
0.774777 0 0
0.826017 0 0
0.878233 0 0
0.933974 0 0
0.989807 0 0
1 0 0
1 0 0
1 0 0
1 0 0
1 0 0
1 0 0
0 0 0
0 0 0
0 0 0
0 0 0
0 0 0
0 0 0
0 0 0
0 0 0
0 0 0
0 0 0
0 0 0
0 0 0
0 0 0
0 0 0
0 0 0
0 0 0
0 0 0
0 0 0
0 0 0
0 0 0
0 0 0
0 0 0
0 0 0
0 0 0
0 0 0
0 0 0
0 0 0
0 0 0
0.0012665 0.00047303 0.000244144
0.00955215 0.000137331 0
0.0222782 0 0
0.0376745 0 0
0.0559548 0 0
0.0771801 0 0
0.100572 0 0
0.126635 0 0
0.153857 0 0
0.183688 0 0
0.21529 0 0
0.24773 0 0
0.282902 0 0
0.319738 0 0
0.357168 0 0
0.397055 0 0
0.437736 0 0
0.479912 0 0
0.522423 0 0
0.561852 0 0
0.605844 0 0
0.649424 0 0
0.691341 0 0
0.740795 0 0
0.788373 0 0
0.838529 0 0
0.894377 0 0
0.94844 0 0
1 0 0
1 0 0
1 0 0
1 0 0
1 0 0
1 0 0
1 0 0
1 0 0
1 0 0
0 0 0
0 0 0
0 0 0
0 0 0
0 0 0
0 0 0
0 0 0
0 0 0
0 0 0
0 0 0
0 0 0
0 0 0
0 0 0
0 0 0
0 0 0
0 0 0
0 0 0
0 0 0
0 0 0
0 0 0
0 0 0
0 0 0
0 0 0
0 0 0
0 0 0
0.00375372 0.000610361 0
0.0104524 0.000610361 0
0.0221714 0.00015259 0
0.035874 0 0
0.0523079 0 0
0.0699168 0 0
0.0917983 0 0
0.114992 0 0
0.138399 0 0
0.166171 0 0
0.193851 0 0
0.22356 0 0
0.256947 0 0
0.290166 0 0
0.324773 0 0
0.363287 0 0
0.400137 0 0
0.440757 0 0
0.484443 0 0
0.526497 0 0
0.573037 0 0
0.617853 0 0
0.663005 0 0
0.707897 0 0
0.752438 0 0
0.799542 0 0
0.850553 0 0
0.905455 0 0
0.960281 0 0
1 0 0
1 0 0
1 0 0
1 0 0
1 0 0
1 0 0
1 0 0
1 0 0
1 0 0
1 0 0
1 0 0
0 0 0
0 0 0
0 0 0
0 0 0
0 0 0
0 0 0
0 0 0
0 0 0
0 0 0
0 0 0
0 0 0
0 0 0
0 0 0
0 0 0
0 0 0
0 0 0
0 0 0
0 0 0
0 0 0
0 0 0
0 0 0
0.000122072 0.000122072 0.000122072
0.00454719 0.000991836 0
0.011368 0.00140383 0
0.020737 0.00146487 0
0.0324102 0.00120546 0
0.0470893 0.000350958 0
0.0622873 0 0
0.0805676 0 0
0.100526 0 0
0.122164 0 0
0.145983 0 0
0.170901 0 0
0.198352 0 0
0.22771 0 0
0.258106 0 0
0.290974 0 0
0.325933 0 0
0.361059 0 0
0.399145 0 0
0.438315 0 0
0.480659 0 0
0.525124 0 0
0.570596 0 0
0.618769 0 0
0.667964 0 0
0.715663 0 0
0.76466 0 0
0.811521 0 0
0.863783 0 0
0.912764 0 0
0.968353 0 0
1 0 0
1 0 0
1 0 0
1 0 0
1 0 0
1 0 0
1 0 0
1 0 0
1 0 0
1 0 0
1 0 0
1 0 0
1 0 0
0 0 0
0 0 0
0 0 0
0 0 0
0 0 0
0 0 0
0 0 0
0 0 0
0 0 0
0 0 0
0 0 0
0 0 0
0 0 0
0 0 0
0 0 0
0 0 0
0 0 0
0 0 0
0.00105287 0.000671397 0.000183108
0.00485237 0.0016022 0
0.0108339 0.002533 0
0.018677 0.00318914 0
0.0283207 0.00352483 0
0.0396124 0.00335698 0
0.0532845 0.00274662 0
0.0687114 0.00161746 0
0.0852827 0 0
0.104387 0 0
0.125139 0 0
0.146792 0 0
0.171603 0 0
0.197833 0 0
0.225254 0 0
0.255039 0 0
0.285832 0 0
0.319448 0 0
0.354849 0 0
0.3906 0 0
0.431403 0 0
0.473228 0 0
0.515419 0 0
0.562448 0 0
0.607965 0 0
0.657786 0 0
0.711543 0 0
0.764416 0 0
0.818814 0 0
0.870817 0 0
0.92314 0 0
0.975128 0 0
1 0 0
1 0 0
1 0 0
1 0 0
1 0 0
1 0 0
1 0 0
1 0 0
1 0 0
1 0 0
1 0 0
1 0 0
1 0 0
1 0 0
1 0 0
0 0 0
0 0 0
0 0 0
0 0 0
0 0 0
0 0 0
0 0 0
0 0 0
0 0 0
0 0 0
0 0 0
0 0 0
0 0 0
0 0 0
0 0 0
0.00201419 0.00132753 0
0.00468452 0.00247196 0
0.00935378 0.00395209 0
0.0153964 0.00523384 0
0.0231479 0.00619516 0
0.0318761 0.00665293 0
0.0429847 0.00682078 0
0.055787 0.00648508 0
0.0692454 0.00561532 0
0.0856184 0.0043183 0
0.102556 0.00250248 0
0.121767 0.000213626 0
0.143557 0 0
0.165927 0 0
0.190387 0 0
0.217777 0 0
0.245029 0 0
0.27538 0 0
0.308522 0 0
0.34168 0 0
0.378592 0 0
0.417075 0 0
0.458213 0 0
0.501198 0 0
0.545647 0 0
0.593393 0 0
0.64242 0 0
0.69659 0 0
0.749844 0 0
0.806973 0 0
0.865217 0 0
0.92488 0 0
0.98436 0 0
1 0 0
1 0 0
1 0 0
1 0 0
1 0 0
1 0 0
1 0 0
1 0 0
1 0 0
1 0 0
1 0 0
1 0 0
1 0 0
1 0 0
1 0 0
1 0 0
1 0 0
0 0 0
0 0 0
0 0 0
0 0 0
0 0 0
0 0 0
0 0 0
0 0 0
0 0 0
0 0 0
0 0 0
0.000381476 0.000381476 0.000381476
0.00207523 0.00183108 0
0.00471504 0.00369268 0
0.00796521 0.00547799 0
0.0121309 0.00730907 0
0.0175631 0.00903334 0
0.0238956 0.0101778 0
0.0321508 0.0110475 0
0.0417945 0.011429 0
0.0530861 0.011429 0
0.0660105 0.0109407 0
0.0803082 0.00994888 0
0.0966049 0.00852979 0
0.114656 0.00662242 0
0.134127 0.00419623 0
0.155734 0.00129702 0
0.179141 0 0
0.203998 0 0
0.23122 0 0
0.259602 0 0
0.291539 0 0
0.325277 0 0
0.360128 0 0
0.398688 0 0
0.438636 0 0
0.479698 0 0
0.525628 0 0
0.571908 0 0
0.623545 0 0
0.67454 0 0
0.729229 0 0
0.786068 0 0
0.848081 0 0
0.912077 0 0
0.982895 0 0
1 0 0
1 0 0
1 0 0
1 0 0
1 0 0
1 0 0
1 0 0
1 0 0
1 0 0
1 0 0
1 0 0
1 0 0
1 0 0
1 0 0
1 0 0
1 0 0
1 0 0
1 0 0
1 0 0
0 0 0
0 0 0
0 0 0
0 0 0
0 0 0
0 0 0
0 0 0
0 0 0
0.000991836 0.00125124 0
0.00218204 0.00274662 0
0.00419623 0.00502022 0
0.00662242 0.00721752 0
0.0096437 0.00943008 0
0.0131075 0.011368 0
0.0175631 0.0133974 0
0.0227665 0.0150912 0
0.0288701 0.0162966 0
0.0370947 0.0172427 0
0.046952 0.0176242 0
0.0580758 0.0173953 0
0.071458 0.0169375 0
0.0863355 0.0159152 0
0.102525 0.014374 0
0.120928 0.0124208 0
0.140429 0.00991836 0
0.162387 0.00695811 0
0.186511 0.00350958 0
0.211521 0 0
0.240284 0 0
0.270314 0 0
0.302144 0 0
0.337469 0 0
0.3729 0 0
0.411994 0 0
0.454337 0 0
0.49836 0 0
0.545647 0 0
0.594781 0 0
0.646677 0 0
0.700328 0 0
0.761227 0 0
0.823178 0 0
0.888334 0 0
0.95906 0 0
1 0 0
1 0 0
1 0 0
1 0 0
1 0 0
1 0 0
1 0 0
1 0 0
1 0 0
1 0 0
1 0 0
1 0 0
1 0 0
1 0 0
1 0 0
1 0 0
1 0 0
1 0 0
1 0 0
1 0 0
1 0 0
0 0 0
0 0 0
0 0 0
0 0 0
0.000122072 0.000122072 0.000122072
0.000976577 0.00227359 0
0.00173953 0.00408942 0
0.00302129 0.00646983 0
0.00482185 0.00900282 0
0.00706493 0.0116121 0
0.00941482 0.0138705 0
0.0123293 0.0162509 0
0.0159609 0.0184939 0
0.0200351 0.0202792 0
0.0250858 0.0220798 0
0.0307927 0.023331 0
0.038117 0.0243839 0
0.0476387 0.024918 0
0.058854 0.0247349 0
0.0721599 0.0241245 0
0.0873579 0.0231632 0
0.103578 0.0215305 0
0.122072 0.0195468 0
0.14284 0.0171359 0
0.16463 0.0141146 0
0.189242 0.0106508 0
0.215686 0.00663767 0
0.244572 0.00210575 0
0.275517 0 0
0.308415 0 0
0.344228 0 0
0.381674 0 0
0.423713 0 0
0.466072 0 0
0.512047 0 0
0.56051 0 0
0.612909 0 0
0.668482 0 0
0.729931 0 0
0.791913 0 0
0.856779 0 0
0.925185 0 0
0.994217 0 0
1 0 0
1 0 0
1 0 0
1 0 0
1 0 0
1 0 0
1 0 0
1 0 0
1 0 0
1 0 0
1 0 0
1 0 0
1 0 0
1 0 0
1 0 0
1 0 0
1 0 0
1 0 0
1 0 0
1 0 0
1 0 0
1 0 0
0 0 0
0.000427253 0.000991836 4.57771e-05
0.000289921 0.0030518 0
0.000335698 0.00576791 0
0.000732433 0.00843824 0
0.00163272 0.0112764 0
0.00296025 0.0141756 0
0.00476081 0.0167086 0
0.00706493 0.0192874 0
0.00973526 0.021622 0
0.012665 0.0239414 0
0.0158236 0.0261692 0
0.0197452 0.0280461 0
0.0244755 0.0298161 0
0.030045 0.031342 0
0.0366217 0.0324559 0
0.0449226 0.0332189 0
0.0556649 0.033341 0
0.0685588 0.0327611 0
0.0836957 0.0317235 0
0.100114 0.0301366 0
0.119326 0.0282597 0
0.140307 0.0258335 0
0.162737 0.0228275 0
0.18819 0.0194095 0
0.215106 0.0154269 0
0.244007 0.0108797 0
0.2766 0.00582895 0
0.310491 0.000167849 0
0.34815 0 0
0.387335 0 0
0.429557 0 0
0.473777 0 0
0.5234 0 0
0.575204 0 0
0.6327 0 0
0.691371 0 0
0.75169 0 0
0.817105 0 0
0.883696 0 0
0.953429 0 0
1 0 0
1 0 0
1 0 0
1 0 0
1 0 0
1 0 0
1 0 0
1 0 0
1 0 0
1 0 0
1 0 0
1 0 0
1 0 0
1 0 0
