3DLUTS/GC_VENOM_LUTS/GC_Venom_V-LOG/GC_Venom_Adara_V-Log.cube
TITLE "Generated by Resolve"
LUT_3D_SIZE 5
0 0 0
0 0 0
0 0 0
0 0 0
1 0 0
0 0.0230411 0
0.106218 0.0750439 0
1 0 0
1 0 0
1 0 0
0 0.73669 0
0 0.705318 0
0.721828 0.552895 0
1 0.44361 0
1 0.411826 0
0 1 0
0 1 0
0.299611 1 0
1 1 0
1 1 0.999664
0.394263 1 0.467414
1 1 1
1 1 1
1 1 1
1 1 1
0 0 0
0 0 0
0 0 0
0.0418708 0 0.00178531
1 0 0
0 0.0495766 0.0416266
0.110216 0.0749676 0.0515145
1 0 0
1 0 0
1 0 0
0 0.732403 0
0 0.70222 0
0.719188 0.549569 0
1 0.439994 0
1 0.407538 0
0 1 0
0 1 0
0.321935 1 0
1 1 0.380301
1 1 1
0.849531 1 0.894057
1 1 1
1 1 1
1 1 1
1 1 1
0 0 0
0 0 0
0 0 0
0.178576 0 0.0690929
1 0 0.416495
0 0.0510109 0.281498
0.0709392 0.041886 0.734493
1 0 0.729809
1 0 0.617182
1 0 0.58468
0 0.70016 0.573571
0 0.671565 0.542657
0.686015 0.519249 0.396338
1 0.409445 0.292103
1 0.375998 0.257786
0 1 0.191119
0 1 0.158083
0.353155 1 0.14583
1 0.989334 0.787518
1 1 1
0.987518 1 0.997467
1 1 1
1 1 1
1 1 1
1 1 1
0 0 0
0 0 0
0 0 0
0.290715 0 0.267384
1 0 1
0 0.0344091 0.743328
0 0 1
0.986206 0 1
1 0 1
1 0 1
0 0.644984 1
0 0.616419 1
0.630274 0.46598 1
1 0.357412 1
1 0.322683 1
0 1 1
0 1 1
0.405829 1 0.95433
1 0.988602 0.975128
1 1 1
0.99556 1 1
1 1 1
1 1 1
1 1 1
1 1 1
0 0 0
0 0 0
0 0 0
0.490074 0 0.664561
1 0 1
0 0.0175021 1
0 0 1
0.947814 0 1
1 0 1
1 0 1
0 0.60885 1
0 0.580941 1
0.594461 0.430426 1
1 0.321721 1
1 0.285664 1
0 1 1
0 1 1
0.499046 1 1
1 1 1
1 1 1
1 1 1
1 1 1
1 1 1
1 1 1
1 1 1
