3DLUTS/GC_VENOM_LUTS/GC_Venom_V-LOG/GC_Venom_Adara_V-Log.cube
TITLE "Generated by Resolve"
LUT_3D_SIZE 65
0 0 0
0 0 0
0 0 0
0 0 0
0 0 0
0 0 0
0 0 0
0 0 0
0 0 0
0 0 0
0 0 0
0 0 0
0 0 0
0 0 0
0 0 0
0 0 0
0 0 0
0 0 0
0 0 0
0 0 0
0 0 0
0 0 0
0 0 0
0 0 0
0 0 0
0 0 0
0 0 0
0 0 0
0 0 0
0 0 0
0 0 0
0 0 0
0 0 0
0 0 0
0 0 0
0 0 0
0 0 0
0 0 0
0 0 0
0 0 0
0 0 0
0 0 0
0 0 0
0 0 0
0 0 0
0 0 0
0 0 0
0 0 0
0 0 0
0 0 0
0 0 0
0.000457771 0.000457771 0.000457771
0.0549172 0 0
0.117479 0 0
0.188785 0 0
0.262379 0 0
0.340139 0 0
0.425086 0 0
0.509514 0 0
0.599176 0 0
0.689143 0 0
0.77969 0 0
0.873655 0 0
0.969299 0 0
1 0 0
0 0 0
0 0 0
0 0 0
0 0 0
0 0 0
0 0 0
0 0 0
0 0 0
0 0 0
0 0 0
0 0 0
0 0 0
0 0 0
0 0 0
0 0 0
0 0 0
0 0 0
0 0 0
0 0 0
0 0 0
0 0 0
0 0 0
0 0 0
0 0 0
0 0 0
0 0 0
0 0 0
0 0 0
0 0 0
0 0 0
0 0 0
0 0 0
0 0 0
0 0 0
0 0 0
0 0 0
0 0 0
0 0 0
0 0 0
0 0 0
0 0 0
0 0 0
0 0 0
0 0 0
0 0 0
0 0 0
0 0 0
0 0 0
0.0178225 0 0
0.0759747 0 0
0.136172 0 0
0.205768 0 0
0.277623 0 0
0.352895 0 0
0.433555 0 0
0.51632 0 0
0.599924 0 0
0.689189 0 0
0.776242 0 0
0.864866 0 0
0.959014 0 0
1 0 0
1 0 0
1 0 0
1 0 0
0 0 0
0 0 0
0 0 0
0 0 0
0 0 0
0 0 0
0 0 0
0 0 0
0 0 0
0 0 0
0 0 0
0 0 0
0 0 0
0 0 0
0 0 0
0 0 0
0 0 0
0 0 0
0 0 0
0 0 0
0 0 0
0 0 0
0 0 0
0 0 0
0 0 0
0 0 0
0 0 0
0 0 0
0 0 0
0 0 0
0 0 0
0 0 0
0 0 0
0 0 0
0 0 0
0 0 0
0 0 0
0 0 0
0 0 0
0 0 0
0 0 0
0 0 0
0 0 0
0 0 0
0 0 0
0.0365759 0 0
0.0937972 0 0
0.154681 0 0
0.219623 0 0
0.291478 0 0
0.36318 0 0
0.438804 0 0
0.520302 0 0
0.600565 0 0
0.682673 0 0
0.769833 0 0
0.855039 0 0
0.942245 0 0
1 0 0
1 0 0
1 0 0
1 0 0
1 0 0
1 0 0
1 0 0
0 0 0
0 0 0
0 0 0
0 0 0
0 0 0
0 0 0
0 0 0
0 0 0
0 0 0
0 0 0
0 0 0
0 0 0
0 0 0
0 0 0
0 0 0
0 0 0
0 0 0
0 0 0
0 0 0
0 0 0
0 0 0
0 0 0
0 0 0
0 0 0
0 0 0
0 0 0
0 0 0
0 0 0
0 0 0
0 0 0
0 0 0
0 0 0
0 0 0
0 0 0
0 0 0
0 0 0
0 0 0
0 0 0
0 0 0
0 0 0
0 0 0
0.00576791 0 0
0.0521248 0 0
0.104936 0 0
0.167071 0 0
0.231449 0 0
0.299474 0 0
0.372885 0 0
0.445243 0 0
0.520104 0 0
0.598062 0 0
0.676631 0 0
0.756863 0 0
0.841993 0 0
0.926207 0 0
1 0 0
1 0 0
1 0 0
1 0 0
1 0 0
1 0 0
1 0 0
1 0 0
1 0 0
1 0 0
0 0 0
0 0 0
0 0 0
0 0 0
0 0 0
0 0 0
0 0 0
0 0 0
0 0 0
0 0 0
0 0 0
0 0 0
0 0 0
0 0 0
0 0 0
0 0 0
0 0 0
0 0 0
0 0 0
0 0 0
0 0 0
0 0 0
0 0 0
0 0 0
0 0 0
0 0 0
0 0 0
0 0 0
0 0 0
0 0 0
0 0 0
0 0 0
0 0 0
0 0 0
0 0 0
0 0 0
0 0 0
0 0 0
0.0178225 0 0
0.0645609 0 0
0.114488 0 0
0.171481 0 0
0.234241 0 0
0.299733 0 0
0.369375 0 0
0.444511 0 0
0.518517 0 0
0.595483 0 0
0.670573 0 0
0.745983 0 0
0.824781 0 0
0.906874 0 0
0.990173 0 0
1 0 0
1 0 0
1 0 0
1 0 0
1 0 0
1 0 0
1 0 0
1 0 0
1 0 0
1 0 0
1 0 0
1 0 0
0 0 0
0 0 0
0 0 0
0 0 0
0 0 0
0 0 0
0 0 0
0 0 0
0 0 0
0 0 0
0 0 0
0 0 0
0 0 0
0 0 0
0 0 0
0 0 0
0 0 0
0 0 0
0 0 0
0 0 0
0 0 0
0 0 0
0 0 0
0 0 0
0 0 0
0 0 0
0 0 0
0 0 0
0 0 0
0 0 0
0 0 0
0 0 0
0 0 0
0 0 0
0 0 0
0.0295262 0 0
0.0726482 0 0
0.120027 0 0
0.172427 0 0
0.231846 0 0
0.293431 0 0
0.358694 0 0
0.430137 0 0
0.501823 0 0
0.576226 0 0
0.65536 0 0
0.731991 0 0
0.808331 0 0
0.888594 0 0
0.966857 0 0
1 0 0
1 0 0
1 0 0
1 0 0
1 0 0
1 0 0
1 0 0
1 0 0
1 0 0
1 0 0
1 0 0
1 0 0
1 0 0
1 0 0
1 0 0
0 0 0
0 0 0
0 0 0
0 0 0
0 0 0
0 0 0
0 0 0
0 0 0
0 0 0
0 0 0
0 0 0
0 0 0
0 0 0
0 0 0
0 0 0
0 0 0
0 0 0
0 0 0
0 0 0
0 0 0
0 0 0
0 0 0
0 0 0
0 0 0
0 0 0
0 0 0
0 0 0
0 0 0
0 0 0
0 0 0
0 0 0
0.0059205 0 0
0.0384375 0 0
0.076173 0 0
0.121492 0 0
0.169802 0 0
0.222538 0 0
0.281804 0 0
0.34258 0 0
0.406775 0 0
0.476707 0 0
0.546838 0 0
0.619516 0 0
0.697536 0 0
0.775799 0 0
0.857343 0 0
0.940261 0 0
1 0 0
1 0 0
1 0 0
1 0 0
1 0 0
1 0 0
1 0 0
1 0 0
1 0 0
1 0 0
1 0 0
1 0 0
1 0 0
1 0 0
1 0 0
1 0 0
1 0 0
1 0 0
0 0 0
0 0 0
0 0 0
0 0 0
0 0 0
0 0 0
0 0 0
0 0 0
0 0 0
0 0 0
0 0 0
0 0 0
0 0 0
0 0 0
0 0 0
0 0 0
0 0 0
0 0 0
0 0 0
0 0 0
0 0 0
0 0 0
0 0 0
0 0 0
0 0 0
0 0 0
0 0 0
0 0 0
0.0131228 0 0
0.0438697 0 0
0.0779583 0 0
0.117189 0 0
0.162676 0 0
0.210758 0 0
0.262928 0 0
0.320958 0 0
0.380377 0 0
0.443854 0 0
0.510872 0 0
0.579248 0 0
0.65095 0 0
0.727825 0 0
0.805554 0 0
0.888289 0 0
0.970459 0 0
1 0 0
1 0 0
1 0 0
1 0 0
1 0 0
1 0 0
1 0 0
1 0 0
1 0 0
1 0 0
1 0 0
1 0 0
1 0 0
1 0 0
1 0 0
1 0 0
1 0 0
1 0 0
1 0 0
1 0 0
0 0 0
0 0 0
0 0 0
0 0 0
0 0 0
0 0 0
0 0 0
0 0 0
0 0 0
0 0 0
0 0 0
0 0 0
0 0 0
0 0 0
0 0 0
0 0 0
0 0 0
0 0 0
0 0 0
0 0 0
0 0 0
0 0 0
0 0 0
0 0 0
9.15541e-05 9.15541e-05 9.15541e-05
0.0189517 0 0
0.0451972 0 0
0.0759136 0 0
0.110582 0 0
0.150256 0 0
0.194324 0 0
0.241413 0 0
0.294072 0 0
0.348394 0 0
0.405982 0 0
0.468803 0 0
0.532601 0 0
0.599741 0 0
0.672541 0 0
0.746288 0 0
0.822553 0 0
0.903227 0 0
0.983368 0 0
1 0 0
1 0 0
1 0 0
1 0 0
1 0 0
1 0 0
1 0 0
1 0 0
1 0 0
1 0 0
1 0 0
1 0 0
1 0 0
1 0 0
1 0 0
1 0 0
1 0 0
1 0 0
1 0 0
1 0 0
1 0 0
1 0 0
0 0 0
0 0 0
0 0 0
0 0 0
0 0 0
0 0 0
0 0 0
0 0 0
0 0 0
0 0 0
0 0 0
0 0 0
0 0 0
0 0 0
0 0 0
0 0 0
0 0 0
0 0 0
0 0 0
0 0 0
0 0 0
0.00384527 0.000671397 0
0.0217746 0.000671397 0
0.0431525 0 0
0.0699931 0 0
0.0999008 0 0
0.133883 0 0
0.173236 0 0
0.215091 0 0
0.260609 0 0
0.31133 0 0
0.363745 0 0
0.419272 0 0
0.479988 0 0
0.542504 0 0
0.608499 0 0
0.679896 0 0
0.751797 0 0
0.825757 0 0
0.90454 0 0
0.984329 0 0
1 0 0
1 0 0
1 0 0
1 0 0
1 0 0
1 0 0
1 0 0
1 0 0
1 0 0
1 0 0
1 0 0
1 0 0
1 0 0
1 0 0
1 0 0
1 0 0
1 0 0
1 0 0
1 0 0
1 0 0
1 0 0
1 0 0
1 0 0
1 0 0
0 0 0
0 0 0
0 0 0
0 0 0
0 0 0
0 0 0
0 0 0
0 0 0
0 0 0
0 0 0
0 0 0
0 0 0
0 0 0
0 0 0
0 0 0
0 0 0
0 0 0
0 0 0
0.00666819 0.00158694 0
0.0210269 0.00273136 0
0.0383001 0.00280766 0
0.0594186 0.00183108 0
0.0852674 0 0
0.114122 0 0
0.146746 0 0
0.184344 0 0
0.224414 0 0
0.267979 0 0
0.316396 0 0
0.366751 0 0
0.420645 0 0
0.479896 0 0
0.540963 0 0
0.606012 0 0
0.674235 0 0
0.743816 0 0
0.816785 0 0
0.894713 0 0
0.97438 0 0
1 0 0
1 0 0
1 0 0
1 0 0
1 0 0
1 0 0
1 0 0
1 0 0
1 0 0
1 0 0
1 0 0
1 0 0
1 0 0
1 0 0
1 0 0
1 0 0
1 0 0
1 0 0
1 0 0
1 0 0
1 0 0
1 0 0
1 0 0
1 0 0
1 0 0
1 0 0
0 0 0
0 0 0
0 0 0
0 0 0
0 0 0
0 0 0
0 0 0
0 0 0
0 0 0
0 0 0
0 0 0
0 0 0
0 0 0
0 0 0
0.000396735 0.000396735 0.000396735
0.0074464 0.00329595 0
0.0169528 0.0055848 0
0.0299229 0.00708019 0
0.0460975 0.0075227 0
0.0659953 0.00698863 0
0.0901808 0.00550851 0
0.117418 0.00300603 0
0.148943 0 0
0.183673 0 0
0.221668 0 0
0.263645 0 0
0.309148 0 0
0.357733 0 0
0.411475 0 0
0.46746 0 0
0.526665 0 0
0.59028 0 0
0.6551 0 0
0.723247 0 0
0.797223 0 0
0.872847 0 0
0.951049 0 0
1 0 0
1 0 0
1 0 0
1 0 0
1 0 0
1 0 0
1 0 0
1 0 0
1 0 0
1 0 0
1 0 0
1 0 0
1 0 0
1 0 0
1 0 0
1 0 0
1 0 0
1 0 0
1 0 0
1 0 0
1 0 0
1 0 0
1 0 0
1 0 0
1 0 0
1 0 0
1 0 0
1 0 0
0 0 0
0 0 0
0 0 0
0 0 0
0 0 0
0 0 0
0 0 0
0 0 0
0 0 0
0 0 0
0 0 0
0.0016022 0.00180056 0
0.00633249 0.00564584 0
0.012604 0.00880446 0
0.0210575 0.0115663 0
0.031632 0.0135958 0
0.0450904 0.014847 0
0.0627909 0.0151217 0
0.0845502 0.0142824 0
0.109865 0.0124056 0
0.139315 0.00962844 0
0.17174 0.00581369 0
0.207584 0.00106813 0
0.247944 0 0
0.291081 0 0
0.337957 0 0
0.389639 0 0
0.443381 0 0
0.500114 0 0
0.561547 0 0
0.625315 0 0
0.692897 0 0
0.765438 0 0
0.838849 0 0
0.91426 0 0
0.99382 0 0
1 0 0
1 0 0
1 0 0
1 0 0
1 0 0
1 0 0
1 0 0
1 0 0
1 0 0
1 0 0
1 0 0
1 0 0
1 0 0
1 0 0
1 0 0
1 0 0
1 0 0
1 0 0
1 0 0
1 0 0
1 0 0
1 0 0
1 0 0
1 0 0
1 0 0
1 0 0
1 0 0
1 0 0
1 0 0
0 0 0
0 0 0
0 0 0
0 0 0
0 0 0
0 0 0
0 0 0
0 0 0
0.000717174 0.00404364 0
0.00205997 0.00886549 0
0.00492866 0.0130312 0
0.0101167 0.0165713 0
0.0178683 0.0196536 0
0.027039 0.0221408 0
0.0382391 0.024094 0
0.0523537 0.0255131 0
0.0695659 0.025864 0
0.0914931 0.0249638 0
0.118486 0.0229191 0
0.148943 0.0197147 0
0.182712 0.0156863 0
0.221118 0.0107424 0
0.262257 0.00492866 0
0.307027 0 0
0.35613 0 0
0.407492 0 0
0.462348 0 0
0.522347 0 0
0.584955 0 0
0.651576 0 0
0.720974 0 0
0.791836 0 0
0.865797 0 0
0.944137 0 0
1 0 0
1 0 0
1 0 0
1 0 0
1 0 0
1 0 0
1 0 0
1 0 0
1 0 0
1 0 0
1 0 0
1 0 0
1 0 0
1 0 0
1 0 0
1 0 0
1 0 0
1 0 0
1 0 0
1 0 0
1 0 0
