3DLUTS/GC_VENOM_LUTS/GC_Venom_V-LOG/GC_Venom_Sakata_V-Log.cube
TITLE "Generated by Resolve"
LUT_3D_SIZE 5
0 0 0
0 0 0
0 0 0
0.0775616 0 0
0.9561 0 0
0 0.0392462 0
0.0651102 0.0651102 0
0.663371 0 0
1 0 0
1 0 0
0 0.473915 0
0 0.558236 0
0.573037 0.573022 0
1 0.565682 0
1 0.596826 0
0 1 0
0 1 0
0.490425 1 0
1 1 0
1 1 0.874388
0.261646 1 0.261646
1 1 1
1 1 1
1 1 1
1 1 1
0 0 0
0 0 0
0 0 0
0.27219 0 0.00517281
1 0 0
0 0.052491 0.052491
0.0588693 0.0588693 0.0588693
0.655299 0 0
1 0 0
1 0 0
0 0.487739 0
0 0.587182 0
0.59057 0.59057 0
1 0.580316 0
1 0.606378 0
0 1 0
0 1 0
0.501518 1 0
1 1 0.341024
1 1 1
0.568338 1 0.672084
1 1 1
1 1 1
1 1 1
1 1 1
0 0 0
0 0 0
0 0 0
0.425208 0 0.20885
1 0 0.443076
0 0.0442664 0.385702
0.0248875 0.0248875 0.664286
0.617853 0 0.617853
1 0 0.542977
1 0 0.621027
0 0.487053 0.487053
0 0.583627 0.583627
0.583017 0.583017 0.583017
1 0.570245 0.570245
1 0.587243 0.587243
0 1 0.497032
0 1 0.519005
0.517433 1 0.517433
1 1 0.792691
1 1 1
0.811139 1 0.945327
1 1 1
1 1 1
1 1 1
1 1 1
0 0 0
0 0 0
0 0 0
0.565103 0 0.565118
1 0 1
0 0.0256809 0.870024
0 0 1
0.579263 0 1
1 0 1
1 0 1
0 0.492454 1
0 0.576532 1
0.57348 0.573495 1
1 0.55787 1
1 0.564675 1
0 1 1
0 1 1
0.563943 1 1
1 1 1
1 1 1
1 1 1
1 1 1
1 1 1
1 1 1
1 1 1
0 0 0
0 0 0
0.0625162 0 0.160052
0.723888 0 0.988312
1 0 1
0 0.00874342 1
0 0 1
0.564324 0 1
1 0 1
1 0 1
0 0.515938 1
0 0.587472 1
0.58117 0.58117 1
1 0.561852 1
1 0.558923 1
0 1 1
0 1 1
0.649531 1 1
1 1 1
1 1 1
1 1 1
1 1 1
1 1 1
1 1 1
1 1 1
