3DLUTS/GC_VENOM_LUTS/GC_Venom_V-LOG/GC_Venom_Sarkan_V-Log.cube
TITLE "Generated by Resolve"
LUT_3D_SIZE 9
0 0 0
0 0 0
0 0 0
0 0 0
0 0 0
0 0 0
0.0525978 0 0
0.294209 0 0
0.595529 0 0
0 0 0
0 0 0
0 0 0
0.0488289 0 0
0.221546 0 0
0.473091 0 0
0.807309 0 0
1 0 0
1 0 0
0 0.0256657 0.00201419
0 0.0427253 0
0.0582132 0.0457313 0
0.316152 0.00389105 0
0.759594 0 0
1 0 0
1 0 0
1 0 0
1 0 0
0 0.202808 0
0 0.245899 0
0 0.269413 0
0.347936 0.20824 0
0.855314 0.138796 0
1 0.100069 0
1 0.0932326 0
1 0.108705 0
1 0.122332 0
0 0.566018 0
0 0.58854 0
0 0.609293 0
0.110765 0.570214 0
0.646799 0.500771 0
1 0.449836 0
1 0.443336 0
1 0.457786 0
1 0.470787 0
0 0.912886 0
0 0.940993 0
0 0.9635 0
0 0.936248 0
0.43064 0.863706 0
0.914321 0.807034 0
1 0.794675 0
1 0.804639 0
1 0.819684 0
0 1 0
0 1 0
0 1 0
0 1 0
0.336965 1 0
0.830594 1 0
1 1 0.247761
1 0.997681 0.888228
1 1 1
0 1 0
0 1 0
0 1 0
0.683879 1 0.559731
0.997635 1 0.99086
1 1 1
1 1 1
1 1 1
1 1 1
0.762036 1 0.784741
0.998871 1 0.999115
1 1 1
1 1 1
1 1 1
1 1 1
1 1 1
1 1 1
1 1 1
0 0 0
0 0 0
0 0 0
0 0 0
0 0 0
0 0 0
0.100816 0 0
0.352407 0 0
0.661753 0 0
0 0 0
0 0 0
0 0 0
0.0695811 0 0.000854505
0.252583 0 0
0.518654 0 0
0.880186 0 0
1 0 0
1 0 0
0 0.0312505 0.0167544
0 0.0458839 0.0197452
0.0602274 0.0472572 0.00868238
0.344106 0 0
0.813535 0 0
1 0 0
1 0 0
1 0 0
1 0 0
0 0.215763 0
0 0.257557 0
0 0.275563 0
0.354253 0.214206 0
0.862211 0.1458 0
1 0.107637 0
1 0.10103 0
1 0.116594 0
1 0.129473 0
0 0.571847 0
0 0.595758 0
0 0.616922 0
0.118486 0.577554 0
0.65333 0.507424 0
1 0.457038 0
1 0.450126 0
1 0.464469 0
1 0.477256 0
0 0.919768 0
0 0.947417 0
0 0.970428 0
0 0.942596 0
0.436774 0.869566 0
0.919341 0.812528 0
1 0.799756 0
1 0.809308 0
1 0.83093 0
0 1 0
0 1 0
0 1 0
0 1 0
0.359838 1 0
0.847364 1 0
1 1 0.521035
1 0.999771 0.984939
1 1 1
0 1 0
0 1 0
0.125795 1 0.142824
0.804242 1 0.753292
1 1 0.997086
1 1 1
1 1 1
1 1 1
1 1 1
0.901122 1 0.918349
1 1 1
1 1 1
1 1 1
1 1 1
1 1 1
1 1 1
1 1 1
1 1 1
0 0 0
0 0 0
0 0 0
0 0 0
0 0 0
0 0 0
0.153445 0 0
0.412436 0 0
0.736187 0 0
0 0 0
0 0 0
0.00407416 0.00178531 0.00323491
0.0895247 0 0.0110933
0.286229 0 0
0.574823 0 0
0.972656 0 0
1 0 0
1 0 0
0 0.0364538 0.0350195
0 0.0496223 0.047715
0.0628977 0.0496071 0.0473487
0.374731 0 0
0.868406 0 0
1 0 0
1 0 0
1 0 0
1 0 0
0 0.232532 0
0 0.272145 0
0 0.284184 0
0.364263 0.223941 0
0.87248 0.155917 0
1 0.117845 0
1 0.110994 0
1 0.126253 0
1 0.139406 0
0 0.57995 0
0 0.605188 0
0 0.6271 0
0.127733 0.586877 0
0.66183 0.515785 0
1 0.465354 0
1 0.458351 0
1 0.472557 0
1 0.485023 0
0 0.927687 0
0 0.955276 0
0 0.978393 0
0 0.950561 0
0.443885 0.876692 0
0.925505 0.819028 0
1 0.805798 0
1 0.816129 0
1 0.846311 0
0 1 0
0 1 0
0 1 0
0 1 0
0.395682 1 0
0.868605 1 0.127504
1 0.998978 0.715389
1 1 0.995163
1 1 1
0 1 0
0 1 0
0.327123 1 0.401114
0.896132 1 0.881376
1 1 1
1 1 1
1 1 1
1 1 1
1 1 1
0.9879 1 0.991119
1 1 1
1 1 1
1 1 1
1 1 1
1 1 1
1 1 1
1 1 1
1 1 1
0 0 0
0 0 0
0 0 0
0 0 0
0 0 0
0 0 0
0.182544 0 0.0229191
0.447578 0 0.0356603
0.792432 0 0.0358892
0 0 0
0 0 0
0.00643931 0.00222782 0.0146944
0.094255 0 0.061265
0.299336 0 0.075761
0.609842 0 0.0685435
1 0 0.0528115
1 0 0.0407416
1 0 0.0296635
0 0.0341497 0.105562
0 0.0443122 0.164263
0.0518959 0.0411688 0.220081
0.381445 0 0.222827
0.89044 0 0.174228
1 0 0.119585
1 0 0.0982528
1 0 0.11075
1 0 0.125322
0 0.233188 0.192477
0 0.267414 0.217624
0 0.276432 0.223865
0.357641 0.219898 0.17261
0.870893 0.154803 0.114229
1 0.118563 0.0842756
1 0.112322 0.0808881
1 0.126818 0.0948043
1 0.139879 0.107301
0 0.580026 0
0 0.605997 0.0114595
0 0.628107 0.0294499
0.129686 0.58999 0.00161746
0.665232 0.518975 0
1 0.467918 0
1 0.461585 0
1 0.475288 0
1 0.487404 0
0 0.930739 0
0 0.957824 0
0 0.981521 0
0 0.954406 0
0.447959 0.880781 0
0.930236 0.821378 0
1 0.806577 0
1 0.819471 0
1 0.86125 0.219654
0 1 0
0 1 0
0 1 0
0 1 0
0.433524 1 0
0.888411 1 0.382391
1 0.99707 0.843748
1 1 1
1 1 1
0 1 0
0 1 0.115663
0.498604 1 0.606012
0.95787 1 0.957595
1 1 1
1 1 1
1 1 1
1 1 1
1 1 1
0.992599 1 0.996902
1 1 1
1 1 1
1 1 1
1 1 1
1 1 1
1 1 1
1 1 1
1 1 1
0 0 0
0 0 0
0 0 0
0 0 0
0 0 0
0.000381476 0.000381476 0.000381476
0.187884 0 0.0819715
0.455406 0 0.162737
0.817411 0 0.240818
0 0 0
0 0 0
0.00531014 0.00120546 0.0309148
0.0880598 0 0.150027
0.294606 0 0.240635
0.62565 0 0.320333
1 0 0.411139
1 0 0.505211
1 0 0.543694
0 0.0260166 0.223148
0 0.030869 0.373251
0.0280613 0.020676 0.549371
0.364248 0 0.673548
0.877699 0 0.705409
1 0 0.654078
1 0 0.625162
1 0 0.640665
1 0 0.656474
0 0.21146 0.660136
0 0.237598 0.757259
0 0.246464 0.771847
0.327718 0.193668 0.710277
0.845624 0.1299 0.636027
1 0.094377 0.590723
1 0.0892348 0.580255
1 0.102541 0.594736
1 0.115663 0.609171
0 0.555138 0.478798
0 0.581598 0.506081
0 0.604273 0.529168
0.105928 0.568353 0.491646
0.645029 0.498329 0.419989
1 0.447501 0.368093
1 0.441978 0.362539
1 0.45539 0.37586
1 0.46688 0.387335
0 0.912352 0.251987
0 0.93904 0.278477
0 0.96202 0.301686
0 0.937118 0.276768
0.433295 0.865766 0.20708
0.91902 0.807462 0.152193
1 0.791974 0.13962
1 0.811566 0.245167
1 0.869795 0.52784
0 1 0.15938
0 1 0.187091
0 1 0.20943
0 1 0.194705
0.466911 1 0.302571
0.90251 1 0.623865
0.999542 0.996368 0.925277
1 1 1
1 1 1
0 1 0.214267
0 1 0.464637
0.62092 1 0.793179
0.99205 1 0.994339
1 1 1
1 1 1
1 1 1
1 1 1
1 1 1
0.995361 1 1
1 1 1
1 1 1
1 1 1
1 1 1
1 1 1
1 1 1
1 1 1
1 1 1
0 0 0
0 0 0
0 0 0
0 0 0
0 0 0
0.00260929 0 0.00262455
0.187381 0 0.151553
0.455238 0 0.318318
0.842359 0 0.513054
0 0 0
0 0 0
0.00459297 7.62951e-05 0.0523079
0.0815137 0 0.240314
0.291752 0 0.431571
0.64509 0 0.644755
1 0 0.881086
1 0 1
1 0 1
0 0.0185092 0.343313
0 0.0173342 0.59527
0.00196841 0 0.912978
0.342535 0 1
0.853117 0 1
1 0 1
1 0 1
1 0 1
1 0 1
0 0.182269 1
0 0.201862 1
0 0.212711 1
0.292515 0.162051 1
0.811963 0.0977646 1
1 0.060441 1
1 0.0542763 1
1 0.0678111 1
1 0.0808576 1
0 0.518257 1
0 0.545312 1
0 0.568444 1
0.069276 0.533349 1
0.610162 0.463172 1
1 0.411856 1
1 0.406256 0.99443
1 0.419196 1
1 0.430259 1
0 0.876799 0.875013
0 0.903441 0.906233
0 0.926696 0.93315
0 0.902647 0.900618
0.400244 0.832837 0.818708
0.889097 0.77467 0.748608
1 0.759335 0.726497
1 0.791775 0.765118
1 0.869841 0.854734
0 1 0.757504
0 1 0.789776
0 1 0.815229
0 1 0.779293
0.493874 1 0.76054
0.909453 0.998093 0.858152
0.997894 0.996002 0.974975
1 1 1
1 1 1
0 1 0.772457
0.0290532 1 0.854276
0.687205 1 0.941604
0.993561 1 0.999741
1 1 1
1 1 1
1 1 1
1 1 1
1 1 1
0.99678 1 1
1 1 1
1 1 1
1 1 1
1 1 1
1 1 1
1 1 1
1 1 1
1 1 1
0 0 0
0 0 0
0 0 0
0 0 0
0 0 0
0.0132143 0 0.0177157
0.201862 0 0.221729
0.485771 0 0.466361
0.911086 0 0.770413
0 0 0
0 0 0
0.00410468 0 0.0845808
0.0807965 0 0.337423
0.302037 0 0.61709
0.685267 0 0.949615
1 0 1
1 0 1
1 0 1
0 0.0122072 0.469795
0 0.00512703 0.832822
0 0 1
0.331548 0 1
0.835233 0 1
1 0 1
1 0 1
1 0 1
1 0 1
0 0.163394 1
0 0.179187 1
0 0.191638 1
0.271336 0.143465 1
0.793545 0.0799573 1
1 0.0423896 1
1 0.0365301 1
1 0.0498207 1
1 0.063035 1
0 0.500191 1
0 0.527886 1
0 0.550454 1
0.0513313 0.516396 1
0.593042 0.446021 1
1 0.393912 1
1 0.387045 1
1 0.399603 1
1 0.410193 1
0 0.856748 1
0 0.883955 1
0 0.907652 1
0 0.883375 1
0.379797 0.812284 1
0.868421 0.752255 1
1 0.738613 1
1 0.787991 1
1 0.879973 1
0 1 1
0 1 1
0 1 1
0 1 1
0.543542 1 1
0.918456 0.989441 0.998901
0.998154 0.997208 0.997742
1 1 1
1 1 1
0 1 1
0.184848 1 1
0.753658 1 1
0.995743 1 1
1 1 1
1 1 1
1 1 1
1 1 1
1 1 1
0.998688 1 1
1 1 1
1 1 1
1 1 1
1 1 1
1 1 1
1 1 1
1 1 1
1 1 1
0 0 0
0 0 0
0 0 0
0 0 0
0 0 0
0.0328527 0 0.053254
0.232822 0 0.309194
0.537957 0 0.627329
1 0 1
0 0 0
0 0 0
0.00373846 0 0.139361
0.0857099 0 0.451148
0.328496 0 0.821912
0.740749 0 1
1 0 1
1 0 1
1 0 1
0 0.00688182 0.620935
0 0 1
0 0 1
0.331334 0 1
0.823636 0 1
1 0 1
1 0 1
1 0 1
1 0 1
0 0.151659 1
0 0.167498 1
0 0.181018 1
0.261692 0.133989 1
0.78468 0.0711376 1
1 0.0338598 1
1 0.0272374 1
1 0.0406653 1
1 0.0540627 1
0 0.4916 1
0 0.519341 1
0 0.541833 1
0.0422065 0.507286 1
0.584268 0.437247 1
1 0.385275 1
1 0.378653 1
1 0.390341 1
1 0.400305 1
0 0.848264 1
0 0.875486 1
0 0.899016 1
0 0.874617 1
0.370794 0.803265 1
0.85919 0.742763 1
1 0.735943 1
1 0.803464 1
1 0.898573 1
0 1 1
0 1 1
0 1 1
0 1 1
0.608789 1 1
0.932799 0.987396 1
1 1 1
1 1 1
1 1 1
0 1 1
0.348409 1 1
0.8327 1 1
0.99913 1 1
1 1 1
1 1 1
1 1 1
1 1 1
1 1 1
1 1 1
1 1 1
1 1 1
1 1 1
1 1 1
1 1 1
1 1 1
1 1 1
1 1 1
0 0 0
0 0 0
0 0 0
0 0 0
0 0 0
0.0512245 0 0.0990311
0.263859 0 0.418372
0.598733 0 0.836225
1 0 1
0 0 0
0 0 0
0.00207523 0 0.206958
0.0908064 0 0.601709
0.358175 0 1
0.796429 0 1
1 0 1
1 0 1
1 0 1
0 0 0.810788
0 0 1
0 0 1
0.323201 0 1
0.808988 0 1
1 0 1
1 0 1
1 0 1
1 0 1
0 0.13669 1
0 0.153704 1
0 0.168383 1
0.24976 0.122438 1
0.773266 0.0600748 1
1 0.0224765 1
1 0.0158999 1
1 0.0291752 1
1 0.0426032 1
0 0.480507 1
0 0.508217 1
0 0.530297 1
0.0311284 0.496269 1
0.573266 0.426108 1
1 0.374136 1
1 0.367224 1
1 0.378912 1
1 0.387854 1
0 0.83772 1
0 0.86453 1
0 0.887831 1
0 0.863233 1
0.359808 0.791913 1
0.847547 0.730785 1
1 0.735943 1
1 0.819806 1
1 0.911345 1
0 1 1
0 1 1
0 1 1
0.023331 1 1
0.672663 1 1
0.946639 0.987106 1
1 1 1
1 1 1
1 1 1
0 1 1
0.472404 1 1
0.890608 1 1
1 1 1
1 1 1
1 1 1
1 1 1
1 1 1
1 1 1
1 1 1
1 1 1
1 1 1
1 1 1
1 1 1
1 1 1
1 1 1
1 1 1
1 1 1
