3DLUTS/GC_VENOM_LUTS/GC_Venom_V-LOG/GC_Venom_Sakata_V-Log.cube
TITLE "Generated by Resolve"
LUT_3D_SIZE 9
0 0 0
0 0 0
0 0 0
0 0 0
0 0 0
0 0 0
0.0775616 0 0
0.478813 0 0
0.9561 0 0
0 0 0
0 0 0
0 0 0
0.0678569 0 0
0.295842 0 0
0.64976 0 0
1 0 0
1 0 0
1 0 0
0 0.0392462 0
0 0.0610056 0
0.0651102 0.0651102 0
0.316518 0.0285954 0
0.663371 0 0
0.986618 0 0
1 0 0
1 0 0
1 0 0
0 0.259342 0
0 0.255634 0
0 0.243214 0
0.203769 0.203769 0
0.555093 0.183505 0
0.939513 0.190936 0
1 0.214984 0
1 0.242466 0
1 0.263172 0
0 0.473915 0
0 0.504997 0
0 0.558236 0
0.208713 0.577935 0
0.573037 0.573022 0
0.940291 0.564187 0
1 0.565682 0
1 0.58352 0
1 0.596826 0
0 0.859525 0
0 0.892271 0
0 0.921675 0
0.182879 0.92343 0
0.537011 0.911727 0
0.894392 0.894392 0
1 0.878798 0
1 0.876265 0
1 0.876707 0
0 1 0
0 1 0
0 1 0
0.156909 1 0
0.490425 1 0
0.84242 1 0
1 1 0
1 1 0.367041
1 1 0.874388
0 1 0
0 1 0
0 1 0
0.480995 1 0.0723278
0.861936 1 0.576059
1 1 1
1 1 1
1 1 1
1 1 1
0.261646 1 0.261646
0.800122 1 0.772213
1 1 1
1 1 1
1 1 1
1 1 1
1 1 1
1 1 1
1 1 1
0 0 0
0 0 0
0 0 0
0 0 0
0 0 0
0 0 0
0.173892 0 0
0.588129 0 0
1 0 0
0 0 0
0 0 0
0 0 0
0.0990463 0 0
0.341009 0 0
0.707332 0 0
1 0 0
1 0 0
1 0 0
0 0.0468605 0
0 0.0627451 0
0.062623 0.062623 0
0.325292 0.0212253 0
0.660029 0 0
0.981414 0 0
1 0 0
1 0 0
1 0 0
0 0.260426 0
0 0.250385 0
0 0.237873 0
0.205188 0.205188 0
0.566842 0.195193 0
0.956054 0.20737 0
1 0.226902 0
1 0.252079 0
1 0.272007 0
0 0.478706 0
0 0.519905 0
0 0.573953 0
0.218585 0.5879 0
0.582055 0.582055 0
0.949035 0.572869 0
1 0.573297 0
1 0.590341 0
1 0.602213 0
0 0.868894 0
0 0.900969 0
0 0.930007 0
0.190021 0.930755 0
0.543389 0.918151 0
0.898283 0.898283 0
1 0.87982 0
1 0.877943 0
1 0.881544 0
0 1 0
0 1 0
0 1 0
0.157733 1 0
0.492927 1 0
0.848981 1 0
1 1 0.105486
1 1 0.576089
1 1 0.997452
0 1 0
0 1 0
0.0696117 1 0
0.569802 1 0.312871
0.914336 1 0.758389
1 1 1
1 1 1
1 1 1
1 1 1
0.421088 1 0.488411
0.914992 1 0.914992
1 1 1
1 1 1
1 1 1
1 1 1
1 1 1
1 1 1
1 1 1
0 0 0
0 0 0
0 0 0
0 0 0
0 0 0
0 0 0
0.27219 0 0.00517281
0.689998 0 0
1 0 0
0 0 0
0 0 0
0.00863661 0.00117494 0.00863661
0.127077 0 0.0348669
0.383352 0 0.0224308
0.765682 0 0
1 0 0
1 0 0
1 0 0
0 0.052491 0.052491
0 0.0631113 0.0631113
0.0588693 0.0588693 0.0588693
0.330312 0.0139315 0.0139315
0.655299 0 0
0.976165 0 0
1 0 0
1 0 0
1 0 0
0 0.258473 0
0 0.245624 0
0 0.233677 0
0.209689 0.209689 0
0.581216 0.209522 0
0.972091 0.223316 0
1 0.236988 0
1 0.261051 0
1 0.28043 0
0 0.487739 0
0 0.535866 0
0 0.587182 0
0.227848 0.597238 0
0.59057 0.59057 0
0.956847 0.580636 0
1 0.580316 0
1 0.596567 0
1 0.606378 0
0 0.877699 0
0 0.909148 0
0 0.937438 0
0.196948 0.93785 0
0.549065 0.923858 0
0.900298 0.900298 0
1 0.880156 0
1 0.879896 0
1 0.885817 0
0 1 0
0 1 0
0 1 0
0.158053 1 0
0.501518 1 0
0.858244 1 0.000991836
1 1 0.341024
1 1 0.751278
1 1 1
0 1 0
0 1 0
0.16524 1 0.16524
0.657496 1 0.526696
0.962295 1 0.896437
1 1 1
1 1 1
1 1 1
1 1 1
0.568338 1 0.672084
1 1 1
1 1 1
1 1 1
1 1 1
1 1 1
1 1 1
1 1 1
1 1 1
0 0 0
0 0 0
0 0 0
0 0 0
0 0 0
0.0239872 0 0.00854505
0.351308 0 0.082414
0.769726 0 0.135851
1 0 0.164858
0 0 0
0 0 0
0.0179904 0 0.0504311
0.145602 0 0.145602
0.41236 0 0.198459
0.805188 0 0.212848
1 0 0.20444
1 0 0.185092
1 0 0.159731
0 0.0505989 0.192081
0 0.0540017 0.268772
0.0444495 0.0444495 0.326757
0.319142 0 0.319142
0.638682 0 0.264988
0.959213 0 0.207279
1 0 0.180117
1 0 0.207187
1 0 0.250599
0 0.243153 0.243153
0 0.229984 0.229969
0 0.219181 0.219165
0.206516 0.206516 0.206516
0.585641 0.214252 0.214267
0.975113 0.226825 0.226825
1 0.236179 0.236194
1 0.259541 0.259541
1 0.27866 0.27866
0 0.488655 0.119585
0 0.541405 0.171939
0 0.58851 0.218692
0.227161 0.596201 0.227161
0.58909 0.589075 0.221149
0.954269 0.578256 0.211521
1 0.577768 0.211688
1 0.592874 0.226612
1 0.599145 0.232792
0 0.876677 0.136553
0 0.907057 0.166094
0 0.934905 0.193225
0.19408 0.934295 0.19408
0.544778 0.919371 0.181369
0.891951 0.891951 0.156466
1 0.870817 0.136889
1 0.87274 0.14493
1 0.883299 0.261067
0 1 0.142489
0 1 0.161227
0 1 0.1682
0.1505 1 0.1505
0.50837 1 0.162829
0.862028 1 0.315328
1 1 0.593164
1 1 0.889387
1 1 1
0 1 0.15201
0 1 0.240726
0.256138 1 0.46247
0.728481 1 0.728481
1 1 0.988571
1 1 1
1 1 1
1 1 1
1 1 1
0.698497 1 0.83624
1 1 1
1 1 1
1 1 1
1 1 1
1 1 1
1 1 1
1 1 1
1 1 1
0 0 0
0 0 0
0 0 0
0 0 0
0 0 0
0.0801099 0 0.0532998
0.425208 0 0.20885
0.844343 0 0.339879
1 0 0.443076
0 0 0
0 0 0
0.0233768 0 0.133043
0.15874 0 0.307454
0.434852 0 0.434867
0.839872 0 0.520638
1 0 0.554726
1 0 0.537285
1 0 0.511849
0 0.0442664 0.385702
0 0.0403754 0.539956
0.0248875 0.0248875 0.664286
0.300038 0 0.674235
0.617853 0 0.617853
0.939666 0 0.560739
1 0 0.542977
1 0 0.578698
1 0 0.621027
0 0.223667 0.595819
0 0.210071 0.582467
0 0.203845 0.576455
0.202213 0.202213 0.574136
0.585733 0.214755 0.585733
0.971542 0.223926 0.593927
1 0.231327 0.600809
1 0.253529 0.623178
1 0.271916 0.641672
0 0.487053 0.487053
0 0.541863 0.541863
0 0.583627 0.583627
0.221942 0.590509 0.590509
0.583017 0.583017 0.583017
0.947097 0.571344 0.571344
1 0.570245 0.570245
1 0.584329 0.584344
1 0.587243 0.587243
0 0.871107 0.496178
0 0.900862 0.525658
0 0.927581 0.552163
0.186938 0.926223 0.551263
0.535409 0.909712 0.535409
0.879484 0.879484 0.505882
1 0.858427 0.485237
1 0.863752 0.502953
1 0.879805 0.593133
0 1 0.497032
0 1 0.512947
0 1 0.519005
0.139803 1 0.500847
0.517433 1 0.517433
0.864912 1 0.620462
1 1 0.792691
1 1 0.977783
1 1 1
0 1 0.508904
0 1 0.584787
0.350179 1 0.729091
0.79675 1 0.882277
1 1 1
1 1 1
1 1 1
1 1 1
1 1 1
0.811139 1 0.945327
1 1 1
1 1 1
1 1 1
1 1 1
1 1 1
1 1 1
1 1 1
1 1 1
0 0 0
0 0 0
0 0 0
0 0 0
0 0 0
0.138872 0 0.138872
0.493294 0 0.376181
0.916289 0 0.586572
1 0 0.766384
0 0 0
0 0 0
0.0250553 0 0.255634
0.168521 0 0.510369
0.457862 0 0.718105
0.870573 0 0.870573
1 0 0.917525
1 0 0.895232
1 0 0.870985
0 0.0350347 0.622065
0 0.0238193 0.853498
0.00341802 0.00341802 1
0.279103 0 1
0.595758 0 0.97499
0.921584 0 0.921584
1 0 0.915526
1 0 0.956374
1 0 0.9953
0 0.203891 0.954177
0 0.190509 0.941192
0 0.192233 0.943297
0.199954 0.199954 0.94992
0.585519 0.214954 0.963424
0.966308 0.219364 0.966323
1 0.225422 0.971572
1 0.247166 0.993591
1 0.264515 1
0 0.487388 0.864027
0 0.539986 0.916838
0 0.577859 0.95491
0.215747 0.583841 0.960494
0.576074 0.576074 0.952163
0.939101 0.563607 0.939101
1 0.561822 0.937011
1 0.574411 0.949676
1 0.573922 0.949218
0 0.864561 0.864561
0 0.893507 0.893507
0 0.919707 0.919707
0.178897 0.91722 0.91722
0.523613 0.897627 0.897627
0.865858 0.865858 0.865858
1 0.846235 0.846235
1 0.855512 0.855528
1 0.878691 0.878691
0 1 0.861448
0 1 0.874464
0 1 0.879332
0.133883 1 0.862837
0.533349 1 0.851606
0.871824 1 0.871824
1 1 0.93576
1 1 1
1 1 1
0 1 0.868742
0 1 0.892088
0.44448 1 0.933913
0.861219 1 0.979736
1 1 1
1 1 1
1 1 1
1 1 1
1 1 1
0.917891 1 1
1 1 1
1 1 1
1 1 1
1 1 1
1 1 1
1 1 1
1 1 1
1 1 1
0 0 0
0 0 0
0 0 0
0 0 0
0 0 0
0.200244 0 0.25977
0.565103 0 0.565118
0.99881 0 0.845975
1 0 1
0 0 0
0 0 0.0671855
0.0254673 0 0.410544
0.17969 0 0.732769
0.481895 0 1
0.896681 0 1
1 0 1
1 0 1
1 0 1
0 0.0256809 0.870024
0 0.00851453 1
0 0 1
0.263127 0 1
0.579263 0 1
0.913191 0 1
1 0 1
1 0 1
1 0 1
0 0.188846 1
0 0.176349 1
0 0.187335 1
0.204517 0.204517 1
0.589975 0.219654 1
0.965042 0.218494 1
1 0.223865 1
1 0.244999 1
1 0.26186 1
0 0.492454 1
0 0.541939 1
0 0.576532 1
0.214115 0.581933 1
0.57348 0.573495 1
0.936141 0.560784 1
1 0.55787 1
1 0.567773 1
1 0.564675 1
0 0.862425 1
0 0.890669 1
0 0.916167 1
0.175067 0.912825 1
0.515663 0.889494 1
0.856504 0.856504 1
1 0.838788 1
1 0.853056 1
1 0.884825 1
0 1 1
0 1 1
0 1 1
0.144961 1 1
0.563943 1 1
0.884871 1 1
1 1 1
1 1 1
1 1 1
0 1 1
0.0558938 1 1
0.53933 1 1
0.929458 1 1
1 1 1
1 1 1
1 1 1
1 1 1
1 1 1
1 1 1
1 1 1
1 1 1
1 1 1
1 1 1
1 1 1
1 1 1
1 1 1
1 1 1
0 0 0
0 0 0
0 0 0
0 0 0
0.0209964 0 0.046067
0.268482 0 0.408331
0.64654 0 0.760662
1 0 1
1 0 1
0 0 0
0 0 0.182712
0.0256809 0 0.58555
0.193378 0 0.951537
0.512963 0 1
0.918227 0 1
1 0 1
1 0 1
1 0 1
0 0.0184024 1
0 0 1
0 0 1
0.254612 0 1
0.571527 0 1
0.914687 0 1
1 0 1
1 0 1
1 0 1
0 0.179843 1
0 0.170855 1
0 0.194049 1
0.216983 0.216983 1
0.599054 0.228748 1
0.971435 0.224872 1
1 0.229206 1
1 0.249577 1
1 0.265873 1
0 0.50515 1
0 0.549538 1
0 0.582742 1
0.21915 0.586954 1
0.577859 0.577859 1
0.939742 0.564385 1
1 0.560754 1
1 0.566705 1
1 0.562142 1
0 0.867308 1
0 0.894759 1
0 0.919463 1
0.176822 0.914549 1
0.513649 0.887449 1
0.854215 0.854215 1
1 0.840101 1
1 0.860014 1
1 0.898756 1
0 1 1
0 1 1
0 1 1
0.176318 1 1
0.604562 1 1
0.903655 1 1
1 1 1
1 1 1
1 1 1
0 1 1
0.172198 1 1
0.647532 1 1
0.996399 1 1
1 1 1
1 1 1
1 1 1
1 1 1
1 1 1
1 1 1
1 1 1
1 1 1
1 1 1
1 1 1
1 1 1
1 1 1
1 1 1
1 1 1
0 0 0
0 0 0
0 0 0
0 0 0
0.0625162 0 0.160052
0.33344 0 0.587503
0.723888 0 0.988312
1 0 1
1 0 1
0 0 0
0 0 0.331411
0.0233921 0 0.790967
0.206088 0 1
0.539773 0 1
0.924224 0 1
1 0 1
1 0 1
1 0 1
0 0.00874342 1
0 0 1
0 0 1
0.244755 0 1
0.564324 0 1
0.919631 0 1
1 0 1
1 0 1
1 0 1
0 0.170382 1
0 0.169375 1
0 0.20174 1
0.228809 0.228824 1
0.606516 0.23624 1
0.976486 0.229953 1
1 0.233875 1
1 0.253208 1
1 0.268696 1
0 0.515938 1
0 0.555001 1
0 0.587472 1
0.223667 0.59147 1
0.58117 0.58117 1
0.942306 0.566979 1
1 0.561852 1
1 0.564355 1
1 0.558923 1
0 0.871504 1
0 0.897841 1
0 0.921721 1
0.176349 0.913985 1
0.51075 0.884535 1
0.852064 0.852079 1
1 0.842588 1
1 0.867231 1
1 0.912413 1
0 1 1
0 1 1
0 1 1
0.218875 1 1
0.649531 1 1
0.923934 1 1
1 1 1
1 1 1
1 1 1
0 1 1
0.292241 1 1
0.74789 1 1
1 1 1
1 1 1
1 1 1
1 1 1
1 1 1
1 1 1
1 1 1
1 1 1
1 1 1
1 1 1
1 1 1
1 1 1
1 1 1
1 1 1
1 1 1
