3DLUTS/GC_VENOM_LUTS/GC_Venom_V-LOG/GC_Venom_Ayla_V-Log.cube
TITLE "Generated by Resolve"
LUT_3D_SIZE 9
0 0 0
0 0 0
0 0 0
0 0 0
0 0 0
0 0 0
0 0 0
0.090837 0 0
0.298726 0 0
0 0 0
0 0 0
0 0 0
0 0 0
0.0829786 0 0
0.233539 0 0
0.450706 0 0
0.766171 0 0
1 0 0
0 0.00749218 0
0 0.0268711 0
0.0332799 0.0356298 0
0.155261 0.025803 0
0.400229 0 0
0.795438 0 0
1 0 0
1 0 0
1 0 0
0 0.146868 0
0 0.189899 0
0 0.227039 0
0.20177 0.216587 0
0.558007 0.201282 0
0.921141 0.202564 0
1 0.224613 0
1 0.269657 0
1 0.315236 0
0 0.505272 0
0 0.5346 0
0 0.572961 0
0.197345 0.583307 0
0.582315 0.594736 0
0.958938 0.609461 0
1 0.63595 0
1 0.676631 0
1 0.710735 0
0 0.879072 0
0 0.930983 0
0 0.979355 0
0.244938 0.990677 0
0.624872 0.993301 0
0.977996 0.982986 0
1 0.966201 0.126375
1 0.972351 0.579095
1 0.993072 0.931243
0 1 0
0 1 0
0.146014 1 0
0.655116 1 0.32723
0.914824 1 0.721431
1 1 0.991882
1 1 1
1 1 1
1 1 1
0.502342 1 0.498939
0.875288 1 0.857633
1 1 0.998276
1 1 1
1 1 1
1 1 1
1 1 1
1 1 1
1 1 1
1 1 1
1 1 1
1 1 1
1 1 1
1 1 1
1 1 1
1 1 1
1 1 1
1 1 1
0 0 0
0 0 0
0 0 0
0 0 0
0 0 0
0 0 0
0 0 0
0.145663 0 0
0.358419 0 0
0 0 0
0 0 0
0 0 0
0.0115969 0.000976577 0.000961318
0.108965 0 0
0.270283 0 0
0.510033 0 0
0.856825 0 0
1 0 0
0 0.0141604 0.000656138
0 0.0303349 0
0.0341802 0.0368353 0
0.171206 0.0231937 0
0.440436 0 0
0.855009 0 0
1 0 0
1 0 0
1 0 0
0 0.159747 0
0 0.202777 0
0 0.235294 0
0.206714 0.221561 0
0.56762 0.210986 0
0.933669 0.215244 0
1 0.239017 0
1 0.285435 0
1 0.330694 0
0 0.511879 0
0 0.546242 0
0 0.586328 0
0.212284 0.598077 0
0.597894 0.610269 0
0.974716 0.625238 0
1 0.650111 0
1 0.688792 0
1 0.730037 0
0 0.894469 0
0 0.946563 0
0 0.994614 0
0.258625 1 0
0.636545 1 0
0.978546 0.98291 0
1 0.967376 0.369238
1 0.977569 0.734417
1 1 0.992233
0 1 0
0 1 0
0.268299 1 0.12697
0.724559 1 0.528847
0.948577 1 0.854002
1 1 0.998047
1 1 1
1 1 1
1 1 1
0.623652 1 0.665599
0.956741 1 0.956298
1 1 1
1 1 1
1 1 1
1 1 1
1 1 1
1 1 1
1 1 1
1 1 1
1 1 1
1 1 1
1 1 1
1 1 1
1 1 1
1 1 1
1 1 1
1 1 1
0 0 0
0 0 0
0 0 0
0 0 0
0 0 0
0 0 0
0.018616 0 0.00227359
0.197726 0 0.00874342
0.419928 0 0.00291447
0 0 0
0 0 0
0 0 0
0.028687 0.000320439 0.0120546
0.133837 0 0.02121
0.30901 0 0.00955215
0.576959 0 0
0.953109 0 0
1 0 0
0 0.0198062 0.0198367
0 0.032639 0.0327153
0.0333562 0.0363012 0.036408
0.186694 0.0180972 0.0182193
0.479088 0 0
0.905028 0 0
1 0 0
1 0 0
1 0 0
0 0.171939 0
0 0.213184 0
0 0.240528 0
0.21062 0.225483 0
0.577203 0.220645 0
0.945464 0.227161 0
1 0.252308 0
1 0.299397 0
1 0.344839 0
0 0.518959 0
0 0.557198 0
0 0.599008 0
0.226169 0.611856 0
0.612146 0.624475 0
0.988479 0.639017 0
1 0.662654 0
1 0.699245 0
1 0.755322 0.111391
0 0.908858 0
0 0.960891 0
0 1 0
0.271122 1 0
0.648905 1 0
0.976501 0.980194 0.199634
1 0.968978 0.562799
1 0.984222 0.858442
1 1 0.998566
0 1 0
0 1 0
0.386664 1 0.378317
0.788159 1 0.690822
0.979248 1 0.94995
1 1 1
1 1 1
1 1 1
1 1 1
0.738628 1 0.800366
0.993957 1 0.995087
1 1 1
1 1 1
1 1 1
1 1 1
1 1 1
1 1 1
1 1 1
1 1 1
1 1 1
1 1 1
1 1 1
1 1 1
1 1 1
1 1 1
1 1 1
1 1 1
0 0 0
0 0 0
0 0 0
0 0 0
0 0 0
0 0 0
0.0594186 0 0.0196536
0.242405 0 0.0625315
0.477241 0 0.0973678
0 0 0
0 0 0
0 0 0
0.0430915 0 0.0442817
0.155062 0 0.0882734
0.343572 0 0.120409
0.640299 0 0.15433
1 0 0.193866
1 0 0.225849
0 0.0225681 0.0643473
0 0.0315251 0.112856
0.0285344 0.0315557 0.161578
0.196231 0.00608835 0.204669
0.510689 0 0.237125
0.933059 0 0.248676
1 0 0.249088
1 0 0.276905
1 0 0.313313
0 0.175189 0.175509
0 0.211475 0.211917
0 0.231876 0.232395
0.203494 0.218326 0.218845
0.57377 0.21677 0.217288
0.943954 0.224979 0.225498
1 0.250843 0.251347
1 0.298283 0.298787
1 0.343221 0.343725
0 0.512932 0.140963
0 0.55378 0.182681
0 0.597543 0.227207
0.224887 0.61117 0.239063
0.610895 0.623423 0.248707
0.986542 0.637034 0.25948
1 0.65951 0.280324
1 0.694636 0.317845
1 0.773632 0.500328
0 0.908553 0.173236
0 0.959777 0.226352
0 1 0.273884
0.266026 1 0.277073
0.656703 1 0.310033
0.96585 0.969162 0.533165
1 0.96817 0.760571
1 0.990951 0.952544
1 1 1
0 1 0.253773
0 1 0.404822
0.485008 1 0.654414
0.842817 1 0.844205
0.998199 1 0.995819
1 1 1
1 1 1
1 1 1
1 1 1
0.840162 1 0.915953
0.998734 1 1
1 1 1
1 1 1
1 1 1
1 1 1
1 1 1
1 1 1
1 1 1
1 1 1
1 1 1
1 1 1
1 1 1
1 1 1
1 1 1
1 1 1
1 1 1
1 1 1
0 0 0
0 0 0
0 0 0
0 0 0
0 0 0
0 0 0
0.0998093 0 0.0560159
0.286885 0 0.135164
0.535851 0 0.213413
0 0 0
0 0 0
0.000823987 0.000534066 0.00170901
0.0554513 0 0.0959793
0.174716 0 0.176684
0.382406 0 0.257908
0.703792 0 0.356725
1 0 0.473701
1 0 0.568536
0 0.0234836 0.128908
0 0.0288396 0.219226
0.0216983 0.0246128 0.323186
0.204837 0 0.436606
0.538323 0 0.545754
0.949401 0 0.603708
1 0 0.609689
1 0 0.640925
1 0 0.679271
0 0.176196 0.432258
0 0.20679 0.539132
0 0.223209 0.588174
0.198169 0.212924 0.579446
0.572 0.21442 0.583032
0.943648 0.223758 0.594583
1 0.250996 0.623026
1 0.298024 0.669703
1 0.342199 0.71368
0 0.509102 0.509514
0 0.551858 0.55227
0 0.597162 0.597559
0.224414 0.611521 0.611933
0.610529 0.623285 0.623728
0.984833 0.635264 0.635737
1 0.655802 0.656275
1 0.697002 0.697459
1 0.792584 0.792874
0 0.908034 0.554574
0 0.959228 0.606271
0 1 0.650935
0.260365 1 0.654826
0.674296 0.986053 0.686702
0.959319 0.962234 0.792416
1 0.970474 0.89839
1 0.999222 0.996994
1 1 1
0 1 0.639475
0.0728161 1 0.743069
0.57467 1 0.852796
0.896544 1 0.943008
1 1 1
1 1 1
1 1 1
1 1 1
1 1 1
0.931624 1 0.97966
1 1 1
1 1 1
1 1 1
1 1 1
1 1 1
1 1 1
1 1 1
1 1 1
1 1 1
1 1 1
1 1 1
1 1 1
1 1 1
1 1 1
1 1 1
1 1 1
1 1 1
0 0 0
0 0 0
0 0 0
0 0 0
0 0 0
0 0 0
0.138994 0 0.110185
0.332235 0 0.22623
0.601724 0 0.35375
0 0 0
0 0 0
0.00674449 0.000518807 0.0357519
0.0663005 0 0.164797
0.195789 0 0.286259
0.425055 0 0.423926
0.772183 0 0.593423
1 0 0.781369
1 0 0.916579
0 0.0231479 0.212253
0 0.0247196 0.347616
0.0132601 0.0159304 0.51783
0.212238 0 0.701778
0.561044 0 0.877867
0.951598 0 0.948028
1 0 0.954009
1 0 0.98819
1 0 1
0 0.176242 0.722881
0 0.200702 0.880293
0 0.216052 0.927565
0.196109 0.210803 0.924636
0.571969 0.213764 0.930846
0.945296 0.224445 0.944854
1 0.252445 0.97467
1 0.299718 1
1 0.342367 1
0 0.507866 0.858335
0 0.552041 0.902098
0 0.599054 0.94873
0.22533 0.61326 0.963775
0.611566 0.624552 0.976257
0.984512 0.634882 0.987823
1 0.653895 1
1 0.709514 1
1 0.817227 0.996475
0 0.909392 0.909545
0 0.959915 0.960037
0 1 1
0.257832 1 1
0.703807 0.974685 0.974823
0.956878 0.959411 0.959503
1 0.976791 0.976822
1 1 1
1 1 1
0 1 0.982315
0.201053 1 0.98027
0.6645 1 0.979141
0.949584 1 0.990906
1 1 1
1 1 1
1 1 1
1 1 1
1 1 1
0.991073 1 1
1 1 1
1 1 1
1 1 1
1 1 1
1 1 1
1 1 1
1 1 1
1 1 1
1 1 1
1 1 1
1 1 1
1 1 1
1 1 1
1 1 1
1 1 1
1 1 1
1 1 1
0 0 0
0 0 0
0 0 0
0 0 0
0 0 0
0.0216068 0 0.0264591
0.17937 0 0.177234
0.384787 0 0.329381
0.682979 0 0.509056
0 0 0
0 0 0
0.0116884 0 0.0869612
0.0777447 0 0.246265
0.219059 0 0.405432
0.473716 0 0.601648
0.843076 0 0.832197
1 0 1
1 0 1
0 0.0224308 0.306294
0 0.020737 0.489982
0.00483711 0.00730907 0.721675
0.223026 0 0.970626
0.581048 0 1
0.950408 0 1
1 0 1
1 0 1
1 0 1
0 0.178058 1
0 0.198199 1
0 0.215717 1
0.199924 0.214557 1
0.578271 0.219699 1
0.952438 0.231006 1
1 0.259419 1
1 0.306264 1
1 0.34844 1
0 0.512352 1
0 0.558618 1
0 0.606119 1
0.232044 0.620462 1
0.618128 0.631235 1
0.989792 0.640101 1
1 0.656611 1
1 0.737209 1
1 0.843 1
0 0.916564 1
0 0.965728 1
0 1 1
0.28336 1 1
0.737514 0.968353 1
0.959945 0.96199 1
1 0.986068 1
1 1 1
1 1 1
0 1 1
0.33698 1 1
0.749279 1 1
0.993881 1 1
1 1 1
1 1 1
1 1 1
1 1 1
1 1 1
0.996078 1 1
1 1 1
1 1 1
1 1 1
1 1 1
1 1 1
1 1 1
1 1 1
1 1 1
1 1 1
1 1 1
1 1 1
1 1 1
1 1 1
1 1 1
1 1 1
1 1 1
1 1 1
0 0 0
0 0 0
0 0 0
0 0 0
0 0 0
0.0574655 0 0.080415
0.223865 0 0.252964
0.441825 0 0.433951
0.773693 0 0.664103
0 0 0
0 0 0
0.0163424 0 0.153597
0.0899825 0 0.332372
0.248585 0 0.531518
0.529213 0 0.776913
0.924605 0 1
1 0 1
1 0 1
0 0.0223087 0.407858
0 0.0178073 0.63679
0 0.000396735 0.919341
0.23595 0 1
0.60087 0 1
0.956207 0 1
1 0 1
1 0 1
1 0 1
0 0.184039 1
0 0.201801 1
0 0.223636 1
0.211292 0.22591 1
0.591287 0.232715 1
0.966934 0.245518 1
1 0.273762 1
1 0.319783 1
1 0.360403 1
0 0.524208 1
0 0.572106 1
0 0.620859 1
0.246067 0.634501 1
0.630823 0.643931 1
1 0.651255 1
1 0.671946 1
1 0.77171 1
1 0.872755 1
0 0.929931 1
0 0.977996 1
0 1 1
0.342229 1 1
0.77937 0.968048 1
0.966781 0.968307 1
1 0.996796 1
1 1 1
1 1 1
0 1 1
0.462715 1 1
0.83566 1 1
0.999588 1 1
1 1 1
1 1 1
1 1 1
1 1 1
1 1 1
1 1 1
1 1 1
1 1 1
1 1 1
1 1 1
1 1 1
1 1 1
1 1 1
1 1 1
1 1 1
1 1 1
1 1 1
1 1 1
1 1 1
1 1 1
1 1 1
1 1 1
1 1 1
0 0 0
0 0 0
0 0 0
0 0 0
0 0 0
0.0936751 0 0.148318
0.268498 0 0.343465
0.50753 0 0.565469
0.870481 0 0.849683
0 0 0
0.000732433 0.000579843 0.0239567
0.0197299 0 0.232197
0.103319 0 0.441505
0.281056 0 0.687068
0.585794 0 0.981903
1 0 1
1 0 1
1 0 1
0 0.0210575 0.528038
0 0.0134432 0.810895
0 0 1
0.247089 0 1
0.611765 0 1
0.963668 0 1
1 0 1
1 0 1
1 0 1
0 0.187991 1
0 0.205722 1
0 0.232517 1
0.222644 0.237263 1
0.604364 0.245747 1
0.980819 0.259342 1
1 0.287617 1
1 0.332341 1
1 0.371481 1
0 0.536324 1
0 0.585412 1
0 0.634409 1
0.259907 0.648371 1
0.643153 0.656275 1
1 0.661326 1
1 0.695277 1
1 0.806195 1
1 0.90164 1
0 0.94345 1
0 0.989334 1
0 1 1
0.42359 0.996185 1
0.816693 0.968536 1
0.975067 0.976089 1
1 1 1
1 1 1
1 1 1
0.0417639 1 1
0.581247 1 1
0.91545 1 1
1 1 1
1 1 1
1 1 1
1 1 1
1 1 1
1 1 1
1 1 1
1 1 1
1 1 1
1 1 1
1 1 1
1 1 1
1 1 1
1 1 1
1 1 1
1 1 1
1 1 1
1 1 1
1 1 1
1 1 1
1 1 1
1 1 1
1 1 1
1 1 1
