3DLUTS/GC_VENOM_LUTS/GC_Venom_V-LOG/GC_Venom_Vlasta_V-Log.cube
TITLE "Generated by Resolve"
LUT_3D_SIZE 5
0 0 0
0 0 0
0 0 0
0.0789807 0 0
0.783749 0 0
0 0.035584 0
0.049134 0.0674907 0
0.644755 0 0
1 0 0
1 0 0
0 0.607538 0
0 0.619058 0
0.482567 0.566918 0
1 0.478431 0
1 0.446159 0
0 1 0
0 1 0
0.244633 1 0
1 1 0
1 1 0.991745
0.443381 1 0.395941
1 1 1
1 1 1
1 1 1
1 1 1
0 0 0
0 0 0
0 0 0
0.177157 0 0.00865187
0.92401 0 0
0 0.0380407 0.053315
0.035111 0.0553292 0.090074
0.696849 0 0
1 0 0
1 0 0
0 0.599573 0
0 0.613565 0
0.479667 0.563882 0
1 0.476799 0
1 0.443641 0
0 1 0
0 1 0
0.2636 1 0
1 1 0.366171
1 1 1
0.780255 1 0.81207
1 1 1
1 1 1
1 1 1
1 1 1
0 0 0
0 0 0
0 0 0
0.219135 0 0.120699
0.997467 0 0.357473
0 0.0289006 0.249363
0.00775158 0.0258335 0.586389
0.697459 0 0.852522
1 0 0.773114
1 0 0.728878
0 0.548089 0.650507
0 0.563272 0.66389
0.430137 0.515038 0.619898
1 0.428031 0.535805
1 0.394537 0.502037
0 1 0.421256
0 1 0.431235
0.276799 1 0.447684
0.982116 0.989944 0.822812
1 1 1
0.937194 1 0.977615
1 1 1
1 1 1
1 1 1
1 1 1
0 0 0
0 0 0
0 0 0
0.276387 0 0.266651
1 0 0.783612
0 0.0196994 0.482475
0 0 1
0.68748 0 1
1 0 1
1 0 1
0 0.521874 1
0 0.537606 1
0.405844 0.491203 1
1 0.404273 1
1 0.369802 1
0 1 1
0 1 1
0.368154 1 1
0.982574 0.98735 0.992065
1 1 1
0.991531 1 1
1 1 1
1 1 1
1 1 1
1 1 1
0 0 0
0 0 0
0 0 0
0.378668 0 0.467308
1 0 1
0 0.0133516 0.777905
0 0 1
0.683665 0 1
1 0 1
1 0 1
0 0.520592 1
0 0.538399 1
0.406714 0.492103 1
1 0.404654 1
1 0.368246 1
0 1 1
0 1 1
0.515038 1 1
0.997116 0.997787 1
1 1 1
1 1 1
1 1 1
1 1 1
1 1 1
1 1 1
