3DLUTS/GC_VENOM_LUTS/GC_Venom_V-LOG/GC_Venom_Sarkan_V-Log.cube
TITLE "Generated by Resolve"
LUT_3D_SIZE 65
0 0 0
0 0 0
0 0 0
0 0 0
0 0 0
0 0 0
0 0 0
0 0 0
0 0 0
0 0 0
0 0 0
0 0 0
0 0 0
0 0 0
0 0 0
0 0 0
0 0 0
0 0 0
0 0 0
0 0 0
0 0 0
0 0 0
0 0 0
0 0 0
0 0 0
0 0 0
0 0 0
0 0 0
0 0 0
0 0 0
0 0 0
0 0 0
0 0 0
0 0 0
0 0 0
0 0 0
0 0 0
0 0 0
0 0 0
0 0 0
0 0 0
0 0 0
0 0 0
0 0 0
0 0 0
0.000564584 0.00047303 0.00047303
0.0109865 0 0
0.0306554 0 0
0.0525978 0 0
0.0768444 0 0
0.104097 0 0
0.132219 0 0
0.162921 0 0
0.194949 0 0
0.225971 0 0
0.259602 0 0
0.294209 0 0
0.328283 0 0
0.364675 0 0
0.40296 0 0
0.438178 0 0
0.476646 0 0
0.516548 0 0
0.554284 0 0
0.595529 0 0
0 0 0
0 0 0
0 0 0
0 0 0
0 0 0
0 0 0
0 0 0
0 0 0
0 0 0
0 0 0
0 0 0
0 0 0
0 0 0
0 0 0
0 0 0
0 0 0
0 0 0
0 0 0
0 0 0
0 0 0
0 0 0
0 0 0
0 0 0
0 0 0
0 0 0
0 0 0
0 0 0
0 0 0
0 0 0
0 0 0
0 0 0
0 0 0
0 0 0
0 0 0
0 0 0
0 0 0
0 0 0
0 0 0
0 0 0
0 0 0
0 0 0
0 0 0
0.00537118 0 0
0.0166781 0 0
0.0369116 0 0
0.0584726 0 0
0.0835431 0 0
0.110369 0 0
0.136812 0 0
0.167575 0 0
0.196994 0 0
0.228031 0 0
0.260777 0 0
0.293126 0 0
0.326848 0 0
0.362707 0 0
0.398688 0 0
0.433936 0 0
0.471183 0 0
0.509255 0 0
0.546853 0 0
0.587198 0 0
0.626917 0 0
0.671 0 0
0.715221 0 0
0 0 0
0 0 0
0 0 0
0 0 0
0 0 0
0 0 0
0 0 0
0 0 0
0 0 0
0 0 0
0 0 0
0 0 0
0 0 0
0 0 0
0 0 0
0 0 0
0 0 0
0 0 0
0 0 0
0 0 0
0 0 0
0 0 0
0 0 0
0 0 0
0 0 0
0 0 0
0 0 0
0 0 0
0 0 0
0 0 0
0 0 0
0 0 0
0 0 0
0 0 0
0 0 0
0 0 0
0 0 0
0 0 0
4.57771e-05 4.57771e-05 4.57771e-05
0.00633249 0 0
0.021912 0 0
0.0399786 0 0
0.0619821 0 0
0.0872969 0 0
0.112047 0 0
0.140581 0 0
0.171344 0 0
0.198672 0 0
0.229114 0 0
0.261646 0 0
0.290806 0 0
0.324178 0 0
0.359686 0 0
0.392493 0 0
0.427192 0 0
0.464729 0 0
0.498894 0 0
0.536904 0 0
0.577935 0 0
0.6159 0 0
0.658061 0 0
0.702495 0 0
0.743786 0 0
0.789502 0 0
0.836942 0 0
0 0 0
0 0 0
0 0 0
0 0 0
0 0 0
0 0 0
0 0 0
0 0 0
0 0 0
0 0 0
0 0 0
0 0 0
0 0 0
0 0 0
0 0 0
0 0 0
0 0 0
0 0 0
0 0 0
0 0 0
0 0 0
0 0 0
0 0 0
0 0 0
0 0 0
0 0 0
0 0 0
0 0 0
0 0 0
0 0 0
0 0 0
0 0 0
0 0 0
0 0 0
0 0 0
0.0010071 0.000427253 0.000427253
0.00927749 0 0
0.0254673 0 0
0.0438849 0 0
0.0646067 0 0
0.0883345 0 0
0.113085 0 0
0.140429 0 0
0.16907 0 0
0.197711 0 0
0.228534 0 0
0.260044 0 0
0.290486 0 0
0.322469 0 0
0.355245 0 0
0.386435 0 0
0.420722 0 0
0.455711 0 0
0.490349 0 0
0.527428 0 0
0.567025 0 0
0.604608 0 0
0.645609 0 0
0.685542 0 0
0.729274 0 0
0.774166 0 0
0.820462 0 0
0.869978 0 0
0.918181 0 0
0.971908 0 0
0 0 0
0 0 0
0 0 0
0 0 0
0 0 0
0 0 0
0 0 0
0 0 0
0 0 0
0 0 0
0 0 0
0 0 0
0 0 0
0 0 0
0 0 0
0 0 0
0 0 0
0 0 0
0 0 0
0 0 0
0 0 0
0 0 0
0 0 0
0 0 0
0 0 0
0 0 0
0 0 0
0 0 0
0 0 0
0 0 0
0 0 0
0 0 0
0.00399786 0.000137331 0.000106813
0.0132906 0 0
0.0289158 0 0
0.0461738 0 0
0.0664378 0 0
0.0881361 0 0
0.11133 0 0
0.138247 0 0
0.164065 0 0
0.192035 0 0
0.222477 0 0
0.251545 0 0
0.283192 0 0
0.317281 0 0
0.350332 0 0
0.381826 0 0
0.414786 0 0
0.447044 0 0
0.480171 0 0
0.516808 0 0
0.551781 0 0
0.592096 0 0
0.631922 0 0
0.669886 0 0
0.713573 0 0
0.757794 0 0
0.801572 0 0
0.851881 0 0
0.898802 0 0
0.949126 0 0
1 0 0
1 0 0
1 0 0
0 0 0
0 0 0
0 0 0
0 0 0
0 0 0
0 0 0
0 0 0
0 0 0
0 0 0
0 0 0
0 0 0
0 0 0
0 0 0
0 0 0
0 0 0
0 0 0
0 0 0
0 0 0
0 0 0
0 0 0
0 0 0
0 0 0
0 0 0
0 0 0
0 0 0
0 0 0
0 0 0
0 0 0
1.5259e-05 1.5259e-05 1.5259e-05
0.00442512 0.000198367 9.15541e-05
0.0156252 0 0
0.0293736 0 0
0.0463874 0 0
0.0660716 0 0
0.0866255 0 0
0.109789 0 0
0.1346 0 0
0.157763 0 0
0.184649 0 0
0.213901 0 0
0.241276 0 0
0.271992 0 0
0.304967 0 0
0.335393 0 0
0.369009 0 0
0.404639 0 0
0.436606 0 0
0.470863 0 0
0.507042 0 0
0.540307 0 0
0.576852 0 0
0.615671 0 0
0.653941 0 0
0.695186 0 0
0.737667 0 0
0.783246 0 0
0.829541 0 0
0.877913 0 0
0.927016 0 0
0.975875 0 0
1 0 0
1 0 0
1 0 0
1 0 0
1 0 0
0 0 0
0 0 0
0 0 0
0 0 0
0 0 0
0 0 0
0 0 0
0 0 0
0 0 0
0 0 0
0 0 0
0 0 0
0 0 0
0 0 0
0 0 0
0 0 0
0 0 0
0 0 0
0 0 0
0 0 0
0 0 0
0 0 0
0 0 0
0 0 0
0 0 0
0.000457771 0.000457771 0.000457771
0.00575265 0.000320439 3.0518e-05
0.0166018 0 0
0.0294804 0 0
0.0446174 0 0
0.0625162 0 0
0.0818189 0 0
0.10367 0 0
0.127184 0 0
0.151217 0 0
0.177066 0 0
0.203067 0 0
0.229236 0 0
0.258381 0 0
0.288685 0 0
0.31899 0 0
0.351354 0 0
0.384726 0 0
0.418173 0 0
0.454063 0 0
0.490715 0 0
0.527657 0 0
0.56466 0 0
0.599222 0 0
0.638193 0 0
0.677256 0 0
0.7187 0 0
0.763607 0 0
0.807111 0 0
0.854856 0 0
0.901228 0 0
0.952056 0 0
1 0 0
1 0 0
1 0 0
1 0 0
1 0 0
1 0 0
1 0 0
1 0 0
0 0 0
0 0 0
0 0 0
0 0 0
0 0 0
0 0 0
0 0 0
0 0 0
0 0 0
0 0 0
0 0 0
0 0 0
0 0 0
0 0 0
0 0 0
0 0 0
0 0 0
0 0 0
0 0 0
0 0 0
0 0 0
0 0 0
0.00143435 0.000534066 0.000442512
0.00723278 0.00062562 1.5259e-05
0.0162814 0.000335698 0
0.0273899 0 0
0.0412299 0 0
0.0563973 0 0
0.0737621 0 0
0.0942092 0 0
0.114351 0 0
0.137209 0 0
0.162737 0 0
0.187289 0 0
0.215076 0 0
0.244556 0 0
0.272053 0 0
0.299367 0 0
0.330922 0 0
0.361547 0 0
0.394324 0 0
0.430213 0 0
0.464485 0 0
0.503456 0 0
0.542535 0 0
0.579934 0 0
0.620813 0 0
0.660548 0 0
0.700175 0 0
0.744152 0 0
0.784802 0 0
0.830152 0 0
0.876738 0 0
0.927047 0 0
0.978744 0 0
1 0 0
1 0 0
1 0 0
1 0 0
1 0 0
1 0 0
1 0 0
1 0 0
1 0 0
1 0 0
0 0 0
0 0 0
0 0 0
0 0 0
0 0 0
0 0 0
0 0 0
0 0 0
0 0 0
0 0 0
0 0 0
0 0 0
0 0 0
0 0 0
0 0 0
0 0 0
0 0 0
0 0 0
0 0 0
0.0018616 0.000732433 0.000488289
0.00712596 0.00129702 0.000259403
0.0145113 0.00146487 0
0.0241245 0.00123598 0
0.0356451 0.000534066 0
0.0488289 0 0
0.0643015 0 0
0.0820783 0 0
0.100145 0 0
0.120974 0 0
0.143938 0 0
0.167224 0 0
0.193179 0 0
0.221546 0 0
0.248646 0 0
0.278721 0 0
0.310536 0 0
0.338582 0 0
0.368566 0 0
0.403265 0 0
0.436515 0 0
0.473091 0 0
0.510307 0 0
0.54902 0 0
0.589807 0 0
0.631983 0 0
0.676814 0 0
0.719753 0 0
0.764782 0 0
0.807309 0 0
0.851118 0 0
0.899092 0 0
0.952102 0 0
1 0 0
1 0 0
1 0 0
1 0 0
1 0 0
1 0 0
1 0 0
1 0 0
1 0 0
1 0 0
1 0 0
1 0 0
1 0 0
0 0 0
0 0 0
0 0 0
0 0 0
0 0 0
0 0 0
0 0 0
0 0 0
0 0 0
0 0 0
0 0 0
0 0 0
0 0 0
0 0 0
0 0 0
0.000320439 0.000320439 0.000320439
0.00210575 0.00115969 0.000671397
0.00619516 0.00227359 0.000686656
0.0116579 0.00300603 0.000228885
0.019089 0.00343328 0
0.0284886 0.00334173 0
0.0393835 0.00271611 0
0.0528267 0.00158694 0
0.0677501 0 0
0.0839399 0 0
0.102266 0 0
0.122255 0 0
0.143908 0 0
0.167666 0 0
0.193088 0 0
0.219425 0 0
0.247898 0 0
0.27776 0 0
0.308354 0 0
0.34136 0 0
0.374517 0 0
0.408225 0 0
0.441016 0 0
0.475105 0 0
0.514168 0 0
0.554131 0 0
0.594705 0 0
0.639887 0 0
0.683436 0 0
0.73022 0 0
0.777234 0 0
0.826017 0 0
0.875303 0 0
0.92752 0 0
0.979004 0 0
1 0 0
1 0 0
1 0 0
1 0 0
1 0 0
1 0 0
1 0 0
1 0 0
1 0 0
1 0 0
1 0 0
1 0 0
1 0 0
1 0 0
1 0 0
0 0 0
0 0 0
0 0 0
0 0 0
0 0 0
0 0 0
0 0 0
0 0 0
0 0 0
0 0 0
0 0 0
0 0 0
0.000534066 0.000518807 0.000503548
0.00247196 0.00187686 0.000900282
0.00509651 0.00326543 0.00109865
0.00862135 0.00457771 0.00102235
0.0135042 0.00578317 0.000671397
0.0197299 0.00637827 0
0.0281071 0.00657664 0
0.03888 0.0062562 0
0.0505684 0.0053254 0
0.0647898 0.00390631 0
0.0813458 0.00198367 0
0.0983597 0 0
0.117815 0 0
0.139513 0 0
0.161883 0 0
0.185885 0 0
0.212848 0 0
0.239719 0 0
0.269322 0 0
0.301762 0 0
0.333623 0 0
0.369024 0 0
0.406241 0 0
0.441917 0 0
0.478706 0 0
0.514549 0 0
0.554162 0 0
0.598337 0 0
0.640848 0 0
0.68632 0 0
0.732952 0 0
0.783963 0 0
0.836118 0 0
0.894972 0 0
0.950057 0 0
1 0 0
1 0 0
1 0 0
1 0 0
1 0 0
1 0 0
1 0 0
1 0 0
1 0 0
1 0 0
1 0 0
1 0 0
1 0 0
1 0 0
1 0 0
1 0 0
1 0 0
1 0 0
0 0 0
0 0 0
0 0 0
0 0 0
0 0 0
0 0 0
0 0 0
0 0 0
0 0 0
0.000747692 0.000961318 0.000656138
0.00205997 0.00276188 0.00117494
0.00401312 0.00444038 0.00138857
0.00674449 0.00607309 0.00138857
0.0099794 0.00762951 0.00120546
0.0137636 0.00894179 0.000747692
0.018555 0.0101015 0
0.0248722 0.0108492 0
0.0333104 0.0108644 0
0.0442359 0.0103609 0
0.0573587 0.00926223 0
0.0720836 0.00766003 0
0.0891737 0.00550851 0
0.108492 0.00283818 0
0.128481 0 0
0.150652 0 0
0.174609 0 0
0.199344 0 0
0.226856 0 0
0.257176 0 0
0.28751 0 0
0.320958 0 0
0.355535 0 0
0.392218 0 0
0.430823 0 0
0.471275 0 0
0.514092 0 0
0.554238 0 0
0.595178 0 0
0.636606 0 0
0.682872 0 0
0.732525 0 0
0.786068 0 0
0.84062 0 0
0.900618 0 0
0.957809 0 0
1 0 0
1 0 0
1 0 0
1 0 0
1 0 0
1 0 0
1 0 0
1 0 0
1 0 0
1 0 0
1 0 0
1 0 0
1 0 0
1 0 0
1 0 0
1 0 0
1 0 0
1 0 0
1 0 0
1 0 0
0 0 0
0 0 0
0 0 0
0 0 0
0 0 0
0.00047303 0.00047303 0.00047303
0.000686656 0.00181582 0.0009308
0.00120546 0.00392157 0.00148013
0.00205997 0.00584421 0.00177005
0.00355535 0.00793469 0.00195315
0.0055848 0.00981155 0.00181582
0.00848402 0.0113222 0.00135805
0.0126497 0.0127718 0.000534066
0.0167849 0.0140078 0
0.0215152 0.0150912 0
0.0273442 0.0159457 0
0.0348058 0.0162509 0
0.0454108 0.0157778 0
0.0589303 0.0146181 0
0.0748455 0.0127718 0
0.0924544 0.0103761 0
0.112459 0.00743114 0
0.134249 0.00401312 0
0.157366 0.000213626 0
0.182528 0 0
0.208698 0 0
0.238178 0 0
0.2692 0 0
0.300969 0 0
0.336706 0 0
0.374044 0 0
0.412451 0 0
0.455436 0 0
0.497673 0 0
0.542901 0 0
0.589075 0 0
0.635462 0 0
0.680018 0 0
0.731609 0 0
0.784894 0 0
0.841093 0 0
0.898939 0 0
0.956039 0 0
1 0 0
1 0 0
1 0 0
1 0 0
1 0 0
1 0 0
1 0 0
1 0 0
1 0 0
1 0 0
1 0 0
1 0 0
1 0 0
1 0 0
1 0 0
1 0 0
1 0 0
1 0 0
1 0 0
1 0 0
1 0 0
1 0 0
0 0 0
0 0 0
0.000427253 0.000747692 0.000579843
3.0518e-05 0.00289921 0.00123598
0 0.00503548 0.00173953
0 0.00743114 0.00209049
0.000274662 0.00984207 0.00233463
0.00117494 0.0118715 0.00227359
0.00260929 0.0139773 0.00198367
0.00471504 0.0159915 0.00146487
0.00747692 0.0174716 0.000717174
0.0113832 0.0188449 0
0.0168917 0.019913 0
0.022034 0.0207218 0
0.0277562 0.0216068 0
0.0347295 0.0222629 0
0.0433814 0.0222019 0
0.055848 0.0212253 0
0.071931 0.0194553 0
0.0899825 0.0168307 0
0.110643 0.0137789 0
0.134218 0.0101167 0
0.158923 0.00587472 0
0.18616 0.00123598 0
0.215366 0 0
0.244831 0 0
0.276982 0 0
0.31162 0 0
0.349187 0 0
0.389456 0 0
0.430961 0 0
0.474784 0 0
0.519829 0 0
0.569833 0 0
0.621027 0 0
0.677165 0 0
0.730297 0 0
0.779309 0 0
0.83447 0 0
0.89073 0 0
0.948806 0 0
1 0 0
1 0 0
1 0 0
1 0 0
1 0 0
1 0 0
1 0 0
1 0 0
1 0 0
1 0 0
1 0 0
1 0 0
1 0 0
1 0 0
