3DLUTS/GC_VENOM_LUTS/GC_Venom_V-LOG/GC_Venom_Sarkan_V-Log.cube
TITLE "Generated by Resolve"
LUT_3D_SIZE 5
0 0 0
0 0 0
0 0 0
0.0525978 0 0
0.595529 0 0
0 0.0256657 0.00201419
0.0582132 0.0457313 0
0.759594 0 0
1 0 0
1 0 0
0 0.566018 0
0 0.609293 0
0.646799 0.500771 0
1 0.443336 0
1 0.470787 0
0 1 0
0 1 0
0.336965 1 0
1 1 0.247761
1 1 1
0.762036 1 0.784741
1 1 1
1 1 1
1 1 1
1 1 1
0 0 0
0 0 0
0 0 0
0.153445 0 0
0.736187 0 0
0 0.0364538 0.0350195
0.0628977 0.0496071 0.0473487
0.868406 0 0
1 0 0
1 0 0
0 0.57995 0
0 0.6271 0
0.66183 0.515785 0
1 0.458351 0
1 0.485023 0
0 1 0
0 1 0
0.395682 1 0
1 0.998978 0.715389
1 1 1
0.9879 1 0.991119
1 1 1
1 1 1
1 1 1
1 1 1
0 0 0
0 0 0
0 0 0
0.187884 0 0.0819715
0.817411 0 0.240818
0 0.0260166 0.223148
0.0280613 0.020676 0.549371
0.877699 0 0.705409
1 0 0.625162
1 0 0.656474
0 0.555138 0.478798
0 0.604273 0.529168
0.645029 0.498329 0.419989
1 0.441978 0.362539
1 0.46688 0.387335
0 1 0.15938
0 1 0.20943
0.466911 1 0.302571
0.999542 0.996368 0.925277
1 1 1
0.995361 1 1
1 1 1
1 1 1
1 1 1
1 1 1
0 0 0
0 0 0
0 0 0
0.201862 0 0.221729
0.911086 0 0.770413
0 0.0122072 0.469795
0 0 1
0.835233 0 1
1 0 1
1 0 1
0 0.500191 1
0 0.550454 1
0.593042 0.446021 1
1 0.387045 1
1 0.410193 1
0 1 1
0 1 1
0.543542 1 1
0.998154 0.997208 0.997742
1 1 1
0.998688 1 1
1 1 1
1 1 1
1 1 1
1 1 1
0 0 0
0 0 0
0 0 0
0.263859 0 0.418372
1 0 1
0 0 0.810788
0 0 1
0.808988 0 1
1 0 1
1 0 1
0 0.480507 1
0 0.530297 1
0.573266 0.426108 1
1 0.367224 1
1 0.387854 1
0 1 1
0 1 1
0.672663 1 1
1 1 1
1 1 1
1 1 1
1 1 1
1 1 1
1 1 1
1 1 1
