3DLUTS/GC_VENOM_LUTS/GC_Venom_V-LOG/GC_Venom_Sakata_V-Log.cube
TITLE "Generated by Resolve"
LUT_3D_SIZE 65
0 0 0
0 0 0
0 0 0
0 0 0
0 0 0
0 0 0
0 0 0
0 0 0
0 0 0
0 0 0
0 0 0
0 0 0
0 0 0
0 0 0
0 0 0
0 0 0
0 0 0
0 0 0
0 0 0
0 0 0
0 0 0
0 0 0
0 0 0
0 0 0
0 0 0
0 0 0
0 0 0
0 0 0
0 0 0
0 0 0
0 0 0
0 0 0
0 0 0
0 0 0
0 0 0
0 0 0
0 0 0
0 0 0
0 0 0
0 0 0
0 0 0
0 0 0
0 0 0
0 0 0
0 0 0
0 0 0
0.00851453 0 0
0.0396582 0 0
0.0775616 0 0
0.119249 0 0
0.16437 0 0
0.214801 0 0
0.265049 0 0
0.316732 0 0
0.370916 0 0
0.424338 0 0
0.478813 0 0
0.537011 0 0
0.593927 0 0
0.653346 0 0
0.712581 0 0
0.771832 0 0
0.83267 0 0
0.894469 0 0
0.9561 0 0
0 0 0
0 0 0
0 0 0
0 0 0
0 0 0
0 0 0
0 0 0
0 0 0
0 0 0
0 0 0
0 0 0
0 0 0
0 0 0
0 0 0
0 0 0
0 0 0
0 0 0
0 0 0
0 0 0
0 0 0
0 0 0
0 0 0
0 0 0
0 0 0
0 0 0
0 0 0
0 0 0
0 0 0
0 0 0
0 0 0
0 0 0
0 0 0
0 0 0
0 0 0
0 0 0
0 0 0
0 0 0
0 0 0
0 0 0
0 0 0
0 0 0
0 0 0
0 0 0
0.0175174 0 0
0.0485695 0 0
0.0857099 0 0
0.128283 0 0
0.172381 0 0
0.218753 0 0
0.268132 0 0
0.316121 0 0
0.367758 0 0
0.419059 0 0
0.471183 0 0
0.525948 0 0
0.581308 0 0
0.636439 0 0
0.694804 0 0
0.751415 0 0
0.808759 0 0
0.869276 0 0
0.928664 0 0
0.989441 0 0
1 0 0
1 0 0
0 0 0
0 0 0
0 0 0
0 0 0
0 0 0
0 0 0
0 0 0
0 0 0
0 0 0
0 0 0
0 0 0
0 0 0
0 0 0
0 0 0
0 0 0
0 0 0
0 0 0
0 0 0
0 0 0
0 0 0
0 0 0
0 0 0
0 0 0
0 0 0
0 0 0
0 0 0
0 0 0
0 0 0
0 0 0
0 0 0
0 0 0
0 0 0
0 0 0
0 0 0
0 0 0
0 0 0
0 0 0
0 0 0
0 0 0
0.00282292 0 0
0.025864 0 0
0.0556191 0 0
0.0909133 0 0
0.132082 0 0
0.175189 0 0
0.220691 0 0
0.2692 0 0
0.315953 0 0
0.363134 0 0
0.413001 0 0
0.461723 0 0
0.512718 0 0
0.566567 0 0
0.619425 0 0
0.67303 0 0
0.729229 0 0
0.784237 0 0
0.840269 0 0
0.899641 0 0
0.958206 0 0
1 0 0
1 0 0
1 0 0
1 0 0
1 0 0
0 0 0
0 0 0
0 0 0
0 0 0
0 0 0
0 0 0
0 0 0
0 0 0
0 0 0
0 0 0
0 0 0
0 0 0
0 0 0
0 0 0
0 0 0
0 0 0
0 0 0
0 0 0
0 0 0
0 0 0
0 0 0
0 0 0
0 0 0
0 0 0
0 0 0
0 0 0
0 0 0
0 0 0
0 0 0
0 0 0
0 0 0
0 0 0
0 0 0
0 0 0
0 0 0
0 0 0
0.00761425 0 0
0.0313878 0 0
0.0607004 0 0
0.0939345 0 0
0.130846 0 0
0.172732 0 0
0.215366 0 0
0.259693 0 0
0.307622 0 0
0.355154 0 0
0.403128 0 0
0.453071 0 0
0.501259 0 0
0.550103 0 0
0.600458 0 0
0.651576 0 0
0.703288 0 0
0.7579 0 0
0.811673 0 0
0.868437 0 0
0.925124 0 0
0.981811 0 0
1 0 0
1 0 0
1 0 0
1 0 0
1 0 0
1 0 0
1 0 0
0 0 0
0 0 0
0 0 0
0 0 0
0 0 0
0 0 0
0 0 0
0 0 0
0 0 0
0 0 0
0 0 0
0 0 0
0 0 0
0 0 0
0 0 0
0 0 0
0 0 0
0 0 0
0 0 0
0 0 0
0 0 0
0 0 0
0 0 0
0 0 0
0 0 0
0 0 0
0 0 0
0 0 0
0 0 0
0 0 0
0 0 0
0 0 0
0 0 0
0.0136416 0 0
0.0354925 0 0
0.0621805 0 0
0.0941939 0 0
0.128267 0 0
0.165362 0 0
0.206271 0 0
0.247303 0 0
0.290883 0 0
0.336797 0 0
0.383459 0 0
0.432059 0 0
0.483299 0 0
0.532753 0 0
0.582956 0 0
0.631189 0 0
0.679377 0 0
0.729152 0 0
0.781384 0 0
0.834348 0 0
0.890089 0 0
0.944411 0 0
0.999084 0 0
1 0 0
1 0 0
1 0 0
1 0 0
1 0 0
1 0 0
1 0 0
1 0 0
1 0 0
0 0 0
0 0 0
0 0 0
0 0 0
0 0 0
0 0 0
0 0 0
0 0 0
0 0 0
0 0 0
0 0 0
0 0 0
0 0 0
0 0 0
0 0 0
0 0 0
0 0 0
0 0 0
0 0 0
0 0 0
0 0 0
0 0 0
0 0 0
0 0 0
0 0 0
0 0 0
0 0 0
0 0 0
0 0 0
0.00277714 0 0
0.0179446 0 0
0.0382544 0 0
0.062623 0 0
0.0910048 0 0
0.122683 0 0
0.156374 0 0
0.193469 0 0
0.231327 0 0
0.271077 0 0
0.314153 0 0
0.357992 0 0
0.403586 0 0
0.452338 0 0
0.501076 0 0
0.55108 0 0
0.603403 0 0
0.65362 0 0
0.702571 0 0
0.753079 0 0
0.802228 0 0
0.851423 0 0
0.905165 0 0
0.957565 0 0
1 0 0
1 0 0
1 0 0
1 0 0
1 0 0
1 0 0
1 0 0
1 0 0
1 0 0
1 0 0
1 0 0
1 0 0
0 0 0
0 0 0
0 0 0
0 0 0
0 0 0
0 0 0
0 0 0
0 0 0
0 0 0
0 0 0
0 0 0
0 0 0
0 0 0
0 0 0
0 0 0
0 0 0
0 0 0
0 0 0
0 0 0
0 0 0
0 0 0
0 0 0
0 0 0
0 0 0
0 0 0
0 0 0
0.00552377 0 0
0.020325 0 0
0.0389105 0 0
0.0606088 0 0
0.0853437 0 0
0.114168 0 0
0.14432 0 0
0.17641 0 0
0.211978 0 0
0.248356 0 0
0.286717 0 0
0.328695 0 0
0.371176 0 0
0.415274 0 0
0.462654 0 0
0.509957 0 0
0.558556 0 0
0.610224 0 0
0.661768 0 0
0.715053 0 0
0.768322 0 0
0.818173 0 0
0.866926 0 0
0.916884 0 0
0.965789 0 0
1 0 0
1 0 0
1 0 0
1 0 0
1 0 0
1 0 0
1 0 0
1 0 0
1 0 0
1 0 0
1 0 0
1 0 0
1 0 0
1 0 0
0 0 0
0 0 0
0 0 0
0 0 0
0 0 0
0 0 0
0 0 0
0 0 0
0 0 0
0 0 0
0 0 0
0 0 0
0 0 0
0 0 0
0 0 0
0 0 0
0 0 0
0 0 0
0 0 0
0 0 0
0 0 0
0 0 0
0 0 0
0.00831617 0 0
0.0208286 0 0
0.0366827 0 0
0.0562905 0 0
0.0777295 0 0
0.101946 0 0
0.129427 0 0
0.157916 0 0
0.188663 0 0
0.222492 0 0
0.257511 0 0
0.294697 0 0
0.335012 0 0
0.376013 0 0
0.419333 0 0
0.464393 0 0
0.510353 0 0
0.558221 0 0
0.608759 0 0
0.659953 0 0
0.713695 0 0
0.767239 0 0
0.820768 0 0
0.874006 0 0
0.925032 0 0
0.97496 0 0
1 0 0
1 0 0
1 0 0
1 0 0
1 0 0
1 0 0
1 0 0
1 0 0
1 0 0
1 0 0
1 0 0
1 0 0
1 0 0
1 0 0
1 0 0
1 0 0
0 0 0
0 0 0
0 0 0
0 0 0
0 0 0
0 0 0
0 0 0
0 0 0
0 0 0
0 0 0
0 0 0
0 0 0
0 0 0
0 0 0
0 0 0
0 0 0
0 0 0
0 0 0
0 0 0
0.00175479 0.000183108 0
0.00915541 0.000686656 0
0.0198367 0.000579843 0
0.0330816 0 0
0.0489357 0 0
0.0678569 0 0
0.0886091 0 0
0.111757 0 0
0.136934 0 0
0.163989 0 0
0.193561 0 0
0.22562 0 0
0.259281 0 0
0.295842 0 0
0.333455 0 0
0.372961 0 0
0.415229 0 0
0.458305 0 0
0.50312 0 0
0.551186 0 0
0.599847 0 0
0.64976 0 0
0.702281 0 0
0.754482 0 0
0.807904 0 0
0.864698 0 0
0.920745 0 0
0.975128 0 0
1 0 0
1 0 0
1 0 0
1 0 0
1 0 0
1 0 0
1 0 0
1 0 0
1 0 0
1 0 0
1 0 0
1 0 0
1 0 0
1 0 0
1 0 0
1 0 0
1 0 0
1 0 0
0 0 0
0 0 0
0 0 0
0 0 0
0 0 0
0 0 0
0 0 0
0 0 0
0 0 0
0 0 0
0 0 0
0 0 0
0 0 0
0 0 0
0 0 0
0 0 0
0.00254826 0.000762951 0
0.00857557 0.00190738 0
0.0168154 0.00259403 0
0.0274052 0.00282292 0
0.0400092 0.00230411 0
0.0553597 0.00135805 0
0.0728618 0 0
0.0920119 0 0
0.114061 0 0
0.13756 0 0
0.162936 0 0
0.191485 0 0
0.221439 0 0
0.253361 0 0
0.288411 0 0
0.324361 0 0
0.362142 0 0
0.40293 0 0
0.444694 0 0
0.488624 0 0
0.535607 0 0
0.582757 0 0
0.631266 0 0
0.682292 0 0
0.734035 0 0
0.788067 0 0
0.843946 0 0
0.899718 0 0
0.955612 0 0
1 0 0
1 0 0
1 0 0
1 0 0
1 0 0
1 0 0
1 0 0
1 0 0
1 0 0
1 0 0
1 0 0
1 0 0
1 0 0
1 0 0
1 0 0
1 0 0
1 0 0
1 0 0
1 0 0
1 0 0
0 0 0
0 0 0
0 0 0
0 0 0
0 0 0
0 0 0
0 0 0
0 0 0
0 0 0
0 0 0
0 0 0
0 0 0
4.57771e-05 1.5259e-05 0
0.00306706 0.00175479 0
0.00720226 0.00335698 0
0.0128023 0.00488289 0
0.0202792 0.00613413 0
0.0294499 0.0065919 0
0.0410315 0.00662242 0
0.0551614 0.00601205 0
0.0707866 0.00474556 0
0.0886397 0.00299077 0
0.108965 0.000503548 0
0.131075 0 0
0.155337 0 0
0.182223 0 0
0.210559 0 0
0.240787 0 0
0.273732 0 0
0.30811 0 0
0.344579 0 0
0.383948 0 0
0.424628 0 0
0.467414 0 0
0.512261 0 0
0.557931 0 0
0.605386 0 0
0.655741 0 0
0.706966 0 0
0.760967 0 0
0.814542 0 0
0.868666 0 0
0.924483 0 0
0.981094 0 0
1 0 0
1 0 0
1 0 0
1 0 0
1 0 0
1 0 0
1 0 0
1 0 0
1 0 0
1 0 0
1 0 0
1 0 0
1 0 0
1 0 0
1 0 0
1 0 0
1 0 0
1 0 0
1 0 0
1 0 0
1 0 0
0 0 0
0 0 0
0 0 0
0 0 0
0 0 0
0 0 0
0 0 0
0 0 0
0 0 0
0.000427253 0.000701915 0
0.00238041 0.00302129 0
0.00521859 0.00520333 0
0.00906386 0.00729381 0
0.0138857 0.00909438 0
0.0200351 0.0106813 0
0.0274357 0.0118715 0
0.0364385 0.0124208 0
0.0482338 0.0124819 0
0.0622873 0.0118105 0
0.0785077 0.0103456 0
0.0972915 0.00854505 0
0.117922 0.00611887 0
0.140826 0.00296025 0
0.165759 0 0
0.192584 0 0
0.22153 0 0
0.252689 0 0
0.285389 0 0
0.320958 0 0
0.358144 0 0
0.397116 0 0
0.438819 0 0
0.481315 0 0
0.525567 0 0
0.573281 0 0
0.62182 0 0
0.672007 0 0
0.724025 0 0
0.775998 0 0
0.829129 0 0
0.8851 0 0
0.940871 0 0
0.996933 0 0
1 0 0
1 0 0
1 0 0
1 0 0
1 0 0
1 0 0
1 0 0
1 0 0
1 0 0
1 0 0
1 0 0
1 0 0
1 0 0
1 0 0
1 0 0
1 0 0
1 0 0
1 0 0
1 0 0
1 0 0
1 0 0
1 0 0
0 0 0
0 0 0
0 0 0
0 0 0
0 0 0
0 0 0
6.10361e-05 0.00192264 0
0.000564584 0.00462348 0
0.00178531 0.00738537 0
0.00396735 0.0101167 0
0.00689708 0.0123751 0
0.0111849 0.0144961 0
0.0164645 0.0164645 0
0.0224765 0.0178378 0
0.0299229 0.0191043 0
0.0386969 0.0198672 0
0.0493782 0.0199893 0
0.0633249 0.0194858 0
0.0800183 0.0182345 0
0.0988937 0.0161135 0
0.120241 0.0137026 0
0.143282 0.0104982 0
0.168444 0.00686656 0
0.196231 0.00274662 0
0.225513 0 0
0.257145 0 0
0.291432 0 0
0.326863 0 0
0.36405 0 0
0.403571 0 0
0.444907 0 0
0.488487 0 0
0.534707 0 0
0.581689 0 0
0.629786 0 0
0.680278 0 0
0.731334 0 0
0.784558 0 0
0.838972 0 0
0.892851 0 0
0.946349 0 0
0.999313 0 0
1 0 0
1 0 0
1 0 0
1 0 0
1 0 0
1 0 0
1 0 0
1 0 0
1 0 0
1 0 0
1 0 0
1 0 0
1 0 0
1 0 0
1 0 0
1 0 0
1 0 0
1 0 0
1 0 0
1 0 0
1 0 0
1 0 0
1 0 0
0 0 0
0 0 0
0 0.000488289 0
0 0.00352483 0
0 0.00668345 0
0 0.00999466 0
0 0.0133364 0
0 0.0161746 0
0.000885023 0.0189059 0
0.00407416 0.0213169 0
0.00836194 0.0233616 0
0.013962 0.0250553 0
0.0202945 0.0265049 0
0.0277256 0.0277104 0
0.036347 0.0286107 0
0.0465553 0.0290227 0
0.0590829 0.0288701 0
0.0749981 0.0278019 0
0.0940261 0.0258488 0
0.115526 0.0232853 0
0.138979 0.0202487 0
0.164981 0.0165103 0
0.19295 0.0123598 0
0.222797 0.0075227 0
0.255299 0.00230411 0
0.289189 0 0
0.324956 0 0
0.363729 0 0
0.403845 0 0
0.446281 0 0
0.489967 0 0
0.534981 0 0
0.581613 0 0
0.630747 0 0
0.68098 0 0
0.733288 0 0
0.784802 0 0
0.836057 0 0
0.887251 0 0
0.937133 0 0
0.985748 0 0
1 0 0
1 0 0
1 0 0
1 0 0
1 0 0
1 0 0
1 0 0
1 0 0
1 0 0
1 0 0
1 0 0
1 0 0
1 0 0
1 0 0
