3DLUTS/GC_VENOM_LUTS/GC_Venom_V-LOG/GC_Venom_Adara_V-Log.cube
TITLE "Generated by Resolve"
LUT_3D_SIZE 9
0 0 0
0 0 0
0 0 0
0 0 0
0 0 0
0 0 0
0 0 0
0.340139 0 0
1 0 0
0 0 0
0 0 0
0 0 0
9.15541e-05 9.15541e-05 9.15541e-05
0.294072 0 0
0.822553 0 0
1 0 0
1 0 0
1 0 0
0 0.0230411 0
0 0.0687114 0
0.106218 0.0750439 0
0.512337 0.0185092 0
1 0 0
1 0 0
1 0 0
1 0 0
1 0 0
0 0.389654 0
0 0.400992 0
0 0.374563 0
0.420417 0.297368 0
0.926909 0.224704 0
1 0.158724 0
1 0.115557 0
1 0.100587 0
1 0.084535 0
0 0.73669 0
0 0.723674 0
0 0.705318 0
0.202976 0.625956 0
0.721828 0.552895 0
1 0.486717 0
1 0.44361 0
1 0.428748 0
1 0.411826 0
0 1 0
0 1 0
0 1 0
0 0.96936 0
0.50016 0.891066 0
1 0.821424 0
1 0.775082 0
1 0.757733 0
1 0.745495 0
0 1 0
0 1 0
0 1 0
0 1 0
0.299611 1 0
0.815122 1 0
1 1 0
1 0.994736 0.644114
1 1 0.999664
0 1 0
0 1 0
0 1 0
0.450538 1 0.104311
0.972946 1 0.929808
1 1 1
1 1 1
1 1 1
1 1 1
0.394263 1 0.467414
0.994293 1 0.994507
1 1 1
1 1 1
1 1 1
1 1 1
1 1 1
1 1 1
1 1 1
0 0 0
0 0 0
0 0 0
0 0 0
0 0 0
0 0 0
0 0 0
0.485603 0 0
1 0 0
0 0 0
0 0 0
0 0 0
0.0365606 0 6.10361e-05
0.364233 0 0
0.915602 0 0
1 0 0
1 0 0
1 0 0
0 0.0366827 0.00636301
0 0.0752422 0
0.108339 0.0749218 0
0.540276 0.0107118 0
1 0 0
1 0 0
1 0 0
1 0 0
1 0 0
0 0.400244 0
0 0.39826 0
0 0.372137 0
0.418845 0.29543 0
0.925322 0.222827 0
1 0.156878 0
1 0.113802 0
1 0.0992447 0
1 0.0830091 0
0 0.734218 0
0 0.721599 0
0 0.703227 0
0.201572 0.624079 0
0.72015 0.551019 0
1 0.485084 0
1 0.441566 0
1 0.426535 0
1 0.409552 0
0 1 0
0 1 0
0 1 0
0 0.967254 0
0.497734 0.88867 0
0.998734 0.818769 0
1 0.772366 0
1 0.754513 0
1 0.7505 0
0 1 0
0 1 0
0 1 0
0 1 0
0.305638 1 0
0.821302 1 0
1 1 0.0809949
1 0.995773 0.85037
1 1 1
0 1 0
0 1 0
0 1 0
0.598718 1 0.416739
0.999039 1 0.99115
1 1 1
1 1 1
1 1 1
1 1 1
0.647272 1 0.721187
1 1 1
1 1 1
1 1 1
1 1 1
1 1 1
1 1 1
1 1 1
1 1 1
0 0 0
0 0 0
0 0 0
0 0 0
0 0 0
0 0 0
0.0418708 0 0.00178531
0.628794 0 0
1 0 0
0 0 0
0 0 0
0 0 0
0.0789349 0 0.0152438
0.435294 0 0.0120699
1 0 0
1 0 0
1 0 0
1 0 0
0 0.0495766 0.0416266
0 0.0817273 0.0651713
0.110216 0.0749676 0.0515145
0.565682 0.00515755 0
1 0 0
1 0 0
1 0 0
1 0 0
1 0 0
0 0.40853 0
0 0.397116 0
0 0.371466 0
0.418341 0.294728 0
0.925002 0.222065 0
1 0.155978 0
1 0.11284 0
1 0.0983597 0
1 0.0825208 0
0 0.732403 0
0 0.720256 0
0 0.70222 0
0.200702 0.622858 0
0.719188 0.549569 0
1 0.483528 0
1 0.439994 0
1 0.42472 0
1 0.407538 0
0 1 0
0 1 0
0 1 0
0 0.96556 0
0.495308 0.886488 0
0.995911 0.81619 0
1 0.769375 0
1 0.752361 0
1 0.759823 0
0 1 0
0 1 0
0 1 0
0 1 0
0.321935 1 0
0.831968 1 0
1 1 0.380301
1 0.999817 0.9879
1 1 1
0 1 0
0 1 0
0 1 0.00709545
0.735561 1 0.661051
1 1 0.999557
1 1 1
1 1 1
1 1 1
1 1 1
0.849531 1 0.894057
1 1 1
1 1 1
1 1 1
1 1 1
1 1 1
1 1 1
1 1 1
1 1 1
0 0 0
0 0 0
0 0 0
0 0 0
0 0 0
0 0 0
0.114458 0 0.0209506
0.727199 0 0.0923323
1 0 0.136797
0 0 0
0 0 0
0 0 0
0.105104 0 0.0706951
0.479179 0 0.154955
1 0 0.187823
1 0 0.187869
1 0 0.175555
1 0 0.155673
0 0.0529793 0.136782
0 0.076585 0.254566
0.0954604 0.0623331 0.335332
0.564324 0 0.333928
1 0 0.272786
1 0 0.208499
1 0 0.16643
1 0 0.150179
1 0 0.133165
0 0.399435 0.312016
0 0.3841 0.294911
0 0.359152 0.268818
0.403494 0.282292 0.196338
0.911498 0.21033 0.129961
1 0.144793 0.0704967
1 0.101625 0.0306706
1 0.0871748 0.015259
1 0.0712902 0
0 0.720882 0.135744
0 0.709133 0.12105
0 0.691539 0.101137
0.18793 0.612329 0.0277256
0.707164 0.538796 0
1 0.472557 0
1 0.429007 0
1 0.413504 0
1 0.395926 0
0 1 0
0 1 0
0 1 0
0 0.954192 0
0.484291 0.874601 0
0.984176 0.803296 0
1 0.755856 0
1 0.741543 0
1 0.764218 0
0 1 0
0 1 0
0 1 0
0 1 0
0.335927 1 0
0.839017 1 0.0903792
1 0.993652 0.623346
1 1 0.995407
1 1 1
0 1 0
0 1 0
0.0652628 1 0.320958
0.828397 1 0.822644
1 1 1
1 1 1
1 1 1
1 1 1
1 1 1
0.981247 1 0.989303
1 1 1
1 1 1
1 1 1
1 1 1
1 1 1
1 1 1
1 1 1
1 1 1
0 0 0
0 0 0
0 0 0
0 0 0
0 0 0
0 0 0
0.178576 0 0.0690929
0.809277 0 0.25304
1 0 0.416495
0 0 0
0 0 0
0 0 0
0.122896 0 0.165011
0.510231 0 0.367697
1 0 0.521218
1 0 0.611963
1 0 0.622766
1 0 0.603052
0 0.0510109 0.281498
0 0.065568 0.528695
0.0709392 0.041886 0.734493
0.547951 0 0.794125
1 0 0.729809
1 0 0.66183
1 0 0.617182
1 0 0.601358
1 0 0.58468
0 0.377874 0.765347
0 0.361715 0.748943
0 0.338201 0.725155
0.378836 0.260685 0.648341
0.888502 0.189075 0.577264
1 0.124041 0.513436
1 0.0813611 0.471534
1 0.0666209 0.45658
1 0.0506294 0.440436
0 0.70016 0.573571
0 0.68867 0.560845
0 0.671565 0.542657
0.165103 0.592676 0.466011
0.686015 0.519249 0.396338
1 0.45304 0.333608
1 0.409445 0.292103
1 0.393942 0.275883
1 0.375998 0.257786
0 1 0.37406
0 1 0.360708
0 1 0.342657
0 0.934752 0.27126
0.465507 0.855116 0.203235
0.96614 0.784344 0.142824
1 0.736706 0.100877
1 0.727947 0.13257
1 0.768719 0.335683
0 1 0.191119
0 1 0.176944
0 1 0.158083
0 1 0.0912337
0.353155 1 0.14583
0.846738 1 0.414984
1 0.989334 0.787518
1 1 1
1 1 1
0 1 0.111452
0 1 0.279377
0.211307 1 0.597345
0.901427 1 0.92636
1 1 1
1 1 1
1 1 1
1 1 1
1 1 1
0.987518 1 0.997467
1 1 1
1 1 1
1 1 1
1 1 1
1 1 1
1 1 1
1 1 1
1 1 1
0 0 0
0 0 0
0 0 0
0 0 0
0 0 0
0 0 0
0.229343 0 0.148531
0.881361 0 0.478691
1 0 0.79823
0 0 0
0 0 0
0 0 0
0.132143 0 0.305028
0.538598 0 0.674098
1 0 0.979004
1 0 1
1 0 1
1 0 1
0 0.0430762 0.491203
0 0.0453651 0.915541
0.0336919 0.0100557 1
0.515953 0 1
1 0 1
1 0 1
1 0 1
1 0 1
1 0 1
0 0.346639 1
0 0.330739 1
0 0.307942 1
0.345953 0.231144 1
0.857755 0.160449 1
1 0.0964981 1
1 0.0544442 0.988495
1 0.0397803 0.975616
1 0.0232853 0.960128
0 0.674037 1
0 0.662242 1
0 0.645151 1
0.136233 0.566995 0.974319
0.659327 0.494347 0.89337
1 0.428489 0.821866
1 0.385046 0.77615
1 0.3691 0.760632
1 0.351019 0.742672
0 1 0.855924
0 1 0.845426
0 0.990417 0.829709
0 0.910658 0.753582
0.441962 0.830777 0.678782
0.943038 0.760204 0.612482
1 0.712673 0.566827
1 0.713542 0.583001
1 0.773037 0.684184
0 1 0.664286
0 1 0.651545
0 1 0.634134
0 1 0.566705
0.373922 1 0.569986
0.853742 1 0.704555
1 0.987335 0.905135
1 1 1
1 1 1
0 1 0.579171
0 1 0.665354
0.335546 1 0.818586
0.954971 1 0.980423
1 1 1
1 1 1
1 1 1
1 1 1
1 1 1
0.99147 1 1
1 1 1
1 1 1
1 1 1
1 1 1
1 1 1
1 1 1
1 1 1
1 1 1
0 0 0
0 0 0
0 0 0
0 0 0
0 0 0
0 0 0
0.290715 0 0.267384
0.977493 0 0.768277
1 0 1
0 0 0
0 0 0
0 0 0
0.146487 0 0.490715
0.572274 0 1
1 0 1
1 0 1
1 0 1
1 0 1
0 0.0344091 0.743328
0 0.0242008 1
0 0 1
0.483574 0 1
0.986206 0 1
1 0 1
1 0 1
1 0 1
1 0 1
0 0.31632 1
0 0.300618 1
0 0.278447 1
0.314473 0.201694 1
0.827482 0.131304 1
1 0.0673228 1
1 0.025452 1
1 0.0106966 1
1 0 1
0 0.644984 1
0 0.633585 1
0 0.616419 1
0.105745 0.538537 1
0.630274 0.46598 1
1 0.400946 1
1 0.357412 1
1 0.341131 1
1 0.322683 1
0 0.986084 1
0 0.976974 1
0 0.962676 1
0 0.883925 1
0.415488 0.804211 1
0.917372 0.73431 1
1 0.688197 1
1 0.703746 1
1 0.780972 0.977142
0 1 1
0 1 1
0 1 1
0 1 1
0.405829 1 0.95433
0.863462 0.990143 0.928145
1 0.988602 0.975128
1 1 1
1 1 1
0 1 1
0 1 1
0.4421 1 0.982742
0.991577 1 1
1 1 1
1 1 1
1 1 1
1 1 1
1 1 1
0.99556 1 1
1 1 1
1 1 1
1 1 1
1 1 1
1 1 1
1 1 1
1 1 1
1 1 1
0 0 0
0 0 0
0 0 0
0 0 0
0 0 0
0 0 0
0.390494 0 0.440604
1 0 1
1 0 1
0 0 0
0 0 0
0.00535592 0 0.0747387
0.170962 0 0.721569
0.632029 0 1
1 0 1
1 0 1
1 0 1
1 0 1
0 0.0281071 1
0 0.00686656 1
0 0 1
0.464805 0 1
0.967773 0 1
1 0 1
1 0 1
1 0 1
1 0 1
0 0.297978 1
0 0.282826 1
0 0.260716 1
0.29688 0.184207 1
0.810224 0.114137 1
1 0.0505226 1
1 0.00849927 1
1 0 1
1 0 1
0 0.627817 1
0 0.616587 1
0 0.599741 1
0.088838 0.52166 1
0.613413 0.449134 1
1 0.384085 1
1 0.340703 1
1 0.323888 1
1 0.305135 1
0 0.969467 1
0 0.96025 1
0 0.945769 1
0 0.866941 1
0.39826 0.78706 1
0.900114 0.716976 1
1 0.674723 1
1 0.708415 1
1 0.800183 1
0 1 1
0 1 1
0 1 1
0 1 1
0.451438 1 1
0.878904 0.982101 1
0.9991 0.994095 1
1 1 1
1 1 1
0 1 1
0 1 1
0.574243 1 1
0.996826 1 1
1 1 1
1 1 1
1 1 1
1 1 1
1 1 1
1 1 1
1 1 1
1 1 1
1 1 1
1 1 1
1 1 1
1 1 1
1 1 1
1 1 1
0 0 0
0 0 0
0 0 0
0 0 0
0 0 0
0.000244144 0.000244144 0.000244144
0.490074 0 0.664561
1 0 1
1 0 1
0 0 0
0 0 0
0.00883497 0 0.203449
0.196307 0 1
0.690822 0 1
1 0 1
1 0 1
1 0 1
1 0 1
0 0.0175021 1
0 0 1
0 0 1
0.443854 0 1
0.947814 0 1
1 0 1
1 0 1
1 0 1
1 0 1
0 0.277928 1
0 0.263096 1
0 0.241245 1
0.277394 0.16495 1
0.791089 0.0950942 1
1 0.031693 1
1 0 1
1 0 1
1 0 1
0 0.60885 1
0 0.597726 1
0 0.580941 1
0.0702525 0.503197 1
0.594461 0.430426 1
1 0.365255 1
1 0.321721 1
1 0.304997 1
1 0.285664 1
0 0.951202 1
0 0.941543 1
0 0.926879 1
0 0.847959 1
0.379187 0.768185 1
0.880552 0.697566 1
1 0.66305 1
1 0.714839 1
1 0.816403 1
0 1 1
0 1 1
0 1 1
0 1 1
0.499046 1 1
0.894789 0.977157 1
1 1 1
1 1 1
1 1 1
0 1 1
0 1 1
0.685161 1 1
1 1 1
1 1 1
1 1 1
1 1 1
1 1 1
1 1 1
1 1 1
1 1 1
1 1 1
1 1 1
1 1 1
1 1 1
1 1 1
1 1 1
1 1 1
