3DLUTS/GC_VENOM_LUTS/GC_Venom_V-LOG/GC_Venom_Ayla_V-Log.cube
TITLE "Generated by Resolve"
LUT_3D_SIZE 5
0 0 0
0 0 0
0 0 0
0 0 0
0.298726 0 0
0 0.00749218 0
0.0332799 0.0356298 0
0.400229 0 0
1 0 0
1 0 0
0 0.505272 0
0 0.572961 0
0.582315 0.594736 0
1 0.63595 0
1 0.710735 0
0 1 0
0.146014 1 0
0.914824 1 0.721431
1 1 1
1 1 1
1 1 1
1 1 1
1 1 1
1 1 1
1 1 1
0 0 0
0 0 0
0 0 0
0.018616 0 0.00227359
0.419928 0 0.00291447
0 0.0198062 0.0198367
0.0333562 0.0363012 0.036408
0.479088 0 0
1 0 0
1 0 0
0 0.518959 0
0 0.599008 0
0.612146 0.624475 0
1 0.662654 0
1 0.755322 0.111391
0 1 0
0.386664 1 0.378317
0.979248 1 0.94995
1 1 1
1 1 1
1 1 1
1 1 1
1 1 1
1 1 1
1 1 1
0 0 0
0 0 0
0 0 0
0.0998093 0 0.0560159
0.535851 0 0.213413
0 0.0234836 0.128908
0.0216983 0.0246128 0.323186
0.538323 0 0.545754
1 0 0.609689
1 0 0.679271
0 0.509102 0.509514
0 0.597162 0.597559
0.610529 0.623285 0.623728
1 0.655802 0.656275
1 0.792584 0.792874
0 1 0.639475
0.57467 1 0.852796
1 1 1
1 1 1
1 1 1
1 1 1
1 1 1
1 1 1
1 1 1
1 1 1
0 0 0
0 0 0
0 0 0
0.17937 0 0.177234
0.682979 0 0.509056
0 0.0224308 0.306294
0.00483711 0.00730907 0.721675
0.581048 0 1
1 0 1
1 0 1
0 0.512352 1
0 0.606119 1
0.618128 0.631235 1
1 0.656611 1
1 0.843 1
0 1 1
0.749279 1 1
1 1 1
1 1 1
1 1 1
1 1 1
1 1 1
1 1 1
1 1 1
1 1 1
0 0 0
0 0 0
0 0 0
0.268498 0 0.343465
0.870481 0 0.849683
0 0.0210575 0.528038
0 0 1
0.611765 0 1
1 0 1
1 0 1
0 0.536324 1
0 0.634409 1
0.643153 0.656275 1
1 0.695277 1
1 0.90164 1
0.0417639 1 1
0.91545 1 1
1 1 1
1 1 1
1 1 1
1 1 1
1 1 1
1 1 1
1 1 1
1 1 1
