3DLUTS/From_Arri_3d-lut_generator/AlexaV3_K1S1_Video2LogC_none_EE_iridas/AlexaV3_K1S1_Video2LogC_EE_iridas1d.cube
# Alexa conversion LUT, video2logc. Full in/full out.
# created by alexalutconv (2.09)

LUT_1D_SIZE 4096
0.000000 0.000000 0.000000
0.000666 0.000666 0.000666
0.001331 0.001331 0.001331
0.001995 0.001995 0.001995
0.002659 0.002659 0.002659
0.003321 0.003321 0.003321
0.003983 0.003983 0.003983
0.004643 0.004643 0.004643
0.005302 0.005302 0.005302
0.005961 0.005961 0.005961
0.006620 0.006620 0.006620
0.007276 0.007276 0.007276
0.007932 0.007932 0.007932
0.008587 0.008587 0.008587
0.009240 0.009240 0.009240
0.009893 0.009893 0.009893
0.010545 0.010545 0.010545
0.011195 0.011195 0.011195
0.011843 0.011843 0.011843
0.012490 0.012490 0.012490
0.013136 0.013136 0.013136
0.013781 0.013781 0.013781
0.014424 0.014424 0.014424
0.015067 0.015067 0.015067
0.015709 0.015709 0.015709
0.016349 0.016349 0.016349
0.016987 0.016987 0.016987
0.017625 0.017625 0.017625
0.018261 0.018261 0.018261
0.018898 0.018898 0.018898
0.019532 0.019532 0.019532
0.020165 0.020165 0.020165
0.020797 0.020797 0.020797
0.021428 0.021428 0.021428
0.022057 0.022057 0.022057
0.022685 0.022685 0.022685
0.023313 0.023313 0.023313
0.023939 0.023939 0.023939
0.024564 0.024564 0.024564
0.025187 0.025187 0.025187
0.025809 0.025809 0.025809
0.026430 0.026430 0.026430
0.027050 0.027050 0.027050
0.027668 0.027668 0.027668
0.028286 0.028286 0.028286
0.028902 0.028902 0.028902
0.029516 0.029516 0.029516
0.030129 0.030129 0.030129
0.030741 0.030741 0.030741
0.031352 0.031352 0.031352
0.031961 0.031961 0.031961
0.032570 0.032570 0.032570
0.033177 0.033177 0.033177
0.033782 0.033782 0.033782
0.034387 0.034387 0.034387
0.034990 0.034990 0.034990
0.035591 0.035591 0.035591
0.036192 0.036192 0.036192
0.036791 0.036791 0.036791
0.037390 0.037390 0.037390
0.037986 0.037986 0.037986
0.038581 0.038581 0.038581
0.039175 0.039175 0.039175
0.039768 0.039768 0.039768
0.040359 0.040359 0.040359
0.040949 0.040949 0.040949
0.041539 0.041539 0.041539
0.042126 0.042126 0.042126
0.042713 0.042713 0.042713
0.043298 0.043298 0.043298
0.043882 0.043882 0.043882
0.044464 0.044464 0.044464
0.045045 0.045045 0.045045
0.045625 0.045625 0.045625
0.046203 0.046203 0.046203
0.046781 0.046781 0.046781
0.047357 0.047357 0.047357
0.047932 0.047932 0.047932
0.048505 0.048505 0.048505
0.049077 0.049077 0.049077
0.049648 0.049648 0.049648
0.050217 0.050217 0.050217
0.050786 0.050786 0.050786
0.051353 0.051353 0.051353
0.051918 0.051918 0.051918
0.052483 0.052483 0.052483
0.053046 0.053046 0.053046
0.053608 0.053608 0.053608
0.054168 0.054168 0.054168
0.054727 0.054727 0.054727
0.055285 0.055285 0.055285
0.055842 0.055842 0.055842
0.056398 0.056398 0.056398
0.056952 0.056952 0.056952
0.057505 0.057505 0.057505
0.058057 0.058057 0.058057
0.058607 0.058607 0.058607
0.059156 0.059156 0.059156
0.059704 0.059704 0.059704
0.060251 0.060251 0.060251
0.060796 0.060796 0.060796
0.061340 0.061340 0.061340
0.061883 0.061883 0.061883
0.062425 0.062425 0.062425
0.062965 0.062965 0.062965
0.063504 0.063504 0.063504
0.064042 0.064042 0.064042
0.064579 0.064579 0.064579
0.065114 0.065114 0.065114
0.065648 0.065648 0.065648
0.066181 0.066181 0.066181
0.066713 0.066713 0.066713
0.067243 0.067243 0.067243
0.067773 0.067773 0.067773
0.068301 0.068301 0.068301
0.068828 0.068828 0.068828
0.069353 0.069353 0.069353
0.069878 0.069878 0.069878
0.070401 0.070401 0.070401
0.070923 0.070923 0.070923
0.071443 0.071443 0.071443
0.071963 0.071963 0.071963
0.072482 0.072482 0.072482
0.072999 0.072999 0.072999
0.073515 0.073515 0.073515
0.074030 0.074030 0.074030
0.074544 0.074544 0.074544
0.075056 0.075056 0.075056
0.075567 0.075567 0.075567
0.076077 0.076077 0.076077
0.076586 0.076586 0.076586
0.077094 0.077094 0.077094
0.077601 0.077601 0.077601
0.078106 0.078106 0.078106
0.078610 0.078610 0.078610
0.079113 0.079113 0.079113
0.079615 0.079615 0.079615
0.080116 0.080116 0.080116
0.080616 0.080616 0.080616
0.081114 0.081114 0.081114
0.081612 0.081612 0.081612
0.082108 0.082108 0.082108
0.082603 0.082603 0.082603
0.083097 0.083097 0.083097
0.083589 0.083589 0.083589
0.084082 0.084082 0.084082
0.084572 0.084572 0.084572
0.085062 0.085062 0.085062
0.085550 0.085550 0.085550
0.086037 0.086037 0.086037
0.086524 0.086524 0.086524
0.087009 0.087009 0.087009
0.087493 0.087493 0.087493
0.087976 0.087976 0.087976
0.088457 0.088457 0.088457
0.088938 0.088938 0.088938
0.089417 0.089417 0.089417
0.089896 0.089896 0.089896
0.090374 0.090374 0.090374
0.090850 0.090850 0.090850
0.091325 0.091325 0.091325
0.091799 0.091799 0.091799
0.092272 0.092272 0.092272
0.092744 0.092744 0.092744
0.093216 0.093216 0.093216
0.093686 0.093686 0.093686
0.094155 0.094155 0.094155
0.094623 0.094623 0.094623
0.095090 0.095090 0.095090
0.095555 0.095555 0.095555
0.096020 0.096020 0.096020
0.096484 0.096484 0.096484
0.096946 0.096946 0.096946
0.097409 0.097409 0.097409
0.097869 0.097869 0.097869
0.098329 0.098329 0.098329
0.098787 0.098787 0.098787
0.099245 0.099245 0.099245
0.099701 0.099701 0.099701
0.100157 0.100157 0.100157
0.100612 0.100612 0.100612
0.101066 0.101066 0.101066
0.101518 0.101518 0.101518
0.101970 0.101970 0.101970
0.102420 0.102420 0.102420
0.102870 0.102870 0.102870
0.103319 0.103319 0.103319
0.103766 0.103766 0.103766
0.104214 0.104214 0.104214
0.104660 0.104660 0.104660
0.105104 0.105104 0.105104
0.105548 0.105548 0.105548
0.105991 0.105991 0.105991
0.106433 0.106433 0.106433
0.106873 0.106873 0.106873
0.107314 0.107314 0.107314
0.107753 0.107753 0.107753
0.108191 0.108191 0.108191
0.108628 0.108628 0.108628
0.109065 0.109065 0.109065
0.109500 0.109500 0.109500
0.109934 0.109934 0.109934
0.110367 0.110367 0.110367
0.110800 0.110800 0.110800
0.111232 0.111232 0.111232
0.111663 0.111663 0.111663
0.112093 0.112093 0.112093
0.112522 0.112522 0.112522
0.112949 0.112949 0.112949
0.113376 0.113376 0.113376
0.113803 0.113803 0.113803
0.114228 0.114228 0.114228
0.114653 0.114653 0.114653
0.115076 0.115076 0.115076
0.115499 0.115499 0.115499
0.115921 0.115921 0.115921
0.116341 0.116341 0.116341
0.116761 0.116761 0.116761
0.117180 0.117180 0.117180
0.117599 0.117599 0.117599
0.118016 0.118016 0.118016
0.118432 0.118432 0.118432
0.118849 0.118849 0.118849
0.119264 0.119264 0.119264
0.119677 0.119677 0.119677
0.120090 0.120090 0.120090
0.120503 0.120503 0.120503
0.120914 0.120914 0.120914
0.121324 0.121324 0.121324
0.121734 0.121734 0.121734
0.122143 0.122143 0.122143
0.122551 0.122551 0.122551
0.122959 0.122959 0.122959
0.123365 0.123365 0.123365
0.123771 0.123771 0.123771
0.124175 0.124175 0.124175
0.124579 0.124579 0.124579
0.124982 0.124982 0.124982
0.125384 0.125384 0.125384
0.125786 0.125786 0.125786
0.126187 0.126187 0.126187
0.126587 0.126587 0.126587
0.126986 0.126986 0.126986
0.127385 0.127385 0.127385
0.127782 0.127782 0.127782
0.128179 0.128179 0.128179
0.128574 0.128574 0.128574
0.128970 0.128970 0.128970
0.129364 0.129364 0.129364
0.129757 0.129757 0.129757
0.130150 0.130150 0.130150
0.130543 0.130543 0.130543
0.130934 0.130934 0.130934
0.131325 0.131325 0.131325
0.131714 0.131714 0.131714
0.132103 0.132103 0.132103
0.132491 0.132491 0.132491
0.132879 0.132879 0.132879
0.133265 0.133265 0.133265
0.133651 0.133651 0.133651
0.134036 0.134036 0.134036
0.134421 0.134421 0.134421
0.134805 0.134805 0.134805
0.135188 0.135188 0.135188
0.135570 0.135570 0.135570
0.135952 0.135952 0.135952
0.136333 0.136333 0.136333
0.136713 0.136713 0.136713
0.137092 0.137092 0.137092
0.137470 0.137470 0.137470
0.137848 0.137848 0.137848
0.138225 0.138225 0.138225
0.138602 0.138602 0.138602
0.138978 0.138978 0.138978
0.139353 0.139353 0.139353
0.139727 0.139727 0.139727
0.140101 0.140101 0.140101
0.140474 0.140474 0.140474
0.140846 0.140846 0.140846
0.141217 0.141217 0.141217
0.141588 0.141588 0.141588
0.141958 0.141958 0.141958
0.142327 0.142327 0.142327
0.142696 0.142696 0.142696
0.143065 0.143065 0.143065
0.143432 0.143432 0.143432
0.143799 0.143799 0.143799
0.144165 0.144165 0.144165
0.144530 0.144530 0.144530
0.144895 0.144895 0.144895
0.145259 0.145259 0.145259
0.145622 0.145622 0.145622
0.145985 0.145985 0.145985
0.146346 0.146346 0.146346
0.146708 0.146708 0.146708
0.147069 0.147069 0.147069
0.147429 0.147429 0.147429
0.147789 0.147789 0.147789
0.148147 0.148147 0.148147
0.148505 0.148505 0.148505
0.148863 0.148863 0.148863
0.149219 0.149219 0.149219
0.149575 0.149575 0.149575
0.149931 0.149931 0.149931
0.150286 0.150286 0.150286
0.150640 0.150640 0.150640
0.150993 0.150993 0.150993
0.151346 0.151346 0.151346
0.151698 0.151698 0.151698
0.152051 0.152051 0.152051
0.152402 0.152402 0.152402
0.152752 0.152752 0.152752
0.153102 0.153102 0.153102
0.153451 0.153451 0.153451
0.153800 0.153800 0.153800
0.154148 0.154148 0.154148
0.154495 0.154495 0.154495
0.154842 0.154842 0.154842
0.155188 0.155188 0.155188
0.155533 0.155533 0.155533
0.155879 0.155879 0.155879
0.156223 0.156223 0.156223
0.156567 0.156567 0.156567
0.156910 0.156910 0.156910
0.157253 0.157253 0.157253
0.157595 0.157595 0.157595
0.157936 0.157936 0.157936
0.158277 0.158277 0.158277
0.158617 0.158617 0.158617
0.158957 0.158957 0.158957
0.159296 0.159296 0.159296
0.159634 0.159634 0.159634
0.159972 0.159972 0.159972
0.160309 0.160309 0.160309
0.160646 0.160646 0.160646
0.160982 0.160982 0.160982
0.161318 0.161318 0.161318
0.161653 0.161653 0.161653
0.161988 0.161988 0.161988
0.162321 0.162321 0.162321
0.162655 0.162655 0.162655
0.162988 0.162988 0.162988
0.163320 0.163320 0.163320
0.163651 0.163651 0.163651
0.163982 0.163982 0.163982
0.164313 0.164313 0.164313
0.164643 0.164643 0.164643
0.164972 0.164972 0.164972
0.165302 0.165302 0.165302
0.165630 0.165630 0.165630
0.165958 0.165958 0.165958
0.166285 0.166285 0.166285
0.166612 0.166612 0.166612
0.166938 0.166938 0.166938
0.167264 0.167264 0.167264
0.167589 0.167589 0.167589
0.167913 0.167913 0.167913
0.168238 0.168238 0.168238
0.168561 0.168561 0.168561
0.168884 0.168884 0.168884
0.169207 0.169207 0.169207
0.169528 0.169528 0.169528
0.169850 0.169850 0.169850
0.170171 0.170171 0.170171
0.170491 0.170491 0.170491
0.170812 0.170812 0.170812
0.171131 0.171131 0.171131
0.171450 0.171450 0.171450
0.171768 0.171768 0.171768
0.172086 0.172086 0.172086
0.172403 0.172403 0.172403
0.172720 0.172720 0.172720
0.173036 0.173036 0.173036
0.173352 0.173352 0.173352
0.173667 0.173667 0.173667
0.173982 0.173982 0.173982
0.174297 0.174297 0.174297
0.174610 0.174610 0.174610
0.174924 0.174924 0.174924
0.175237 0.175237 0.175237
0.175549 0.175549 0.175549
0.175861 0.175861 0.175861
0.176172 0.176172 0.176172
0.176483 0.176483 0.176483
0.176794 0.176794 0.176794
0.177104 0.177104 0.177104
0.177413 0.177413 0.177413
0.177722 0.177722 0.177722
0.178031 0.178031 0.178031
0.178339 0.178339 0.178339
0.178646 0.178646 0.178646
0.178953 0.178953 0.178953
0.179260 0.179260 0.179260
0.179566 0.179566 0.179566
0.179871 0.179871 0.179871
0.180177 0.180177 0.180177
0.180481 0.180481 0.180481
0.180785 0.180785 0.180785
0.181090 0.181090 0.181090
0.181393 0.181393 0.181393
0.181696 0.181696 0.181696
0.181998 0.181998 0.181998
0.182300 0.182300 0.182300
0.182602 0.182602 0.182602
0.182903 0.182903 0.182903
0.183203 0.183203 0.183203
0.183504 0.183504 0.183504
0.183803 0.183803 0.183803
0.184102 0.184102 0.184102
0.184401 0.184401 0.184401
0.184699 0.184699 0.184699
0.184998 0.184998 0.184998
0.185295 0.185295 0.185295
0.185592 0.185592 0.185592
0.185889 0.185889 0.185889
0.186185 0.186185 0.186185
0.186480 0.186480 0.186480
0.186776 0.186776 0.186776
0.187070 0.187070 0.187070
0.187365 0.187365 0.187365
0.187659 0.187659 0.187659
0.187953 0.187953 0.187953
0.188246 0.188246 0.188246
0.188539 0.188539 0.188539
0.188831 0.188831 0.188831
0.189123 0.189123 0.189123
0.189414 0.189414 0.189414
0.189705 0.189705 0.189705
0.189996 0.189996 0.189996
0.190286 0.190286 0.190286
0.190575 0.190575 0.190575
0.190864 0.190864 0.190864
0.191153 0.191153 0.191153
0.191442 0.191442 0.191442
0.191731 0.191731 0.191731
0.192018 0.192018 0.192018
0.192306 0.192306 0.192306
0.192592 0.192592 0.192592
0.192879 0.192879 0.192879
0.193165 0.193165 0.193165
0.193450 0.193450 0.193450
0.193735 0.193735 0.193735
0.194020 0.194020 0.194020
0.194304 0.194304 0.194304
0.194588 0.194588 0.194588
0.194872 0.194872 0.194872
0.195155 0.195155 0.195155
0.195438 0.195438 0.195438
0.195721 0.195721 0.195721
0.196003 0.196003 0.196003
0.196285 0.196285 0.196285
0.196566 0.196566 0.196566
0.196847 0.196847 0.196847
0.197127 0.197127 0.197127
0.197407 0.197407 0.197407
0.197687 0.197687 0.197687
0.197966 0.197966 0.197966
0.198245 0.198245 0.198245
0.198523 0.198523 0.198523
0.198801 0.198801 0.198801
0.199079 0.199079 0.199079
0.199357 0.199357 0.199357
0.199634 0.199634 0.199634
0.199911 0.199911 0.199911
0.200187 0.200187 0.200187
0.200463 0.200463 0.200463
0.200738 0.200738 0.200738
0.201013 0.201013 0.201013
0.201288 0.201288 0.201288
0.201562 0.201562 0.201562
0.201836 0.201836 0.201836
0.202110 0.202110 0.202110
0.202383 0.202383 0.202383
0.202656 0.202656 0.202656
0.202928 0.202928 0.202928
0.203201 0.203201 0.203201
0.203473 0.203473 0.203473
0.203744 0.203744 0.203744
0.204015 0.204015 0.204015
0.204286 0.204286 0.204286
0.204556 0.204556 0.204556
0.204826 0.204826 0.204826
0.205096 0.205096 0.205096
0.205365 0.205365 0.205365
0.205634 0.205634 0.205634
0.205902 0.205902 0.205902
0.206170 0.206170 0.206170
0.206438 0.206438 0.206438
0.206706 0.206706 0.206706
0.206973 0.206973 0.206973
0.207241 0.207241 0.207241
0.207507 0.207507 0.207507
0.207773 0.207773 0.207773
0.208039 0.208039 0.208039
0.208304 0.208304 0.208304
0.208569 0.208569 0.208569
0.208834 0.208834 0.208834
0.209098 0.209098 0.209098
0.209362 0.209362 0.209362
0.209626 0.209626 0.209626
0.209889 0.209889 0.209889
0.210152 0.210152 0.210152
0.210415 0.210415 0.210415
0.210677 0.210677 0.210677
0.210940 0.210940 0.210940
0.211202 0.211202 0.211202
0.211463 0.211463 0.211463
0.211724 0.211724 0.211724
0.211984 0.211984 0.211984
0.212245 0.212245 0.212245
0.212505 0.212505 0.212505
0.212764 0.212764 0.212764
0.213024 0.213024 0.213024
0.213283 0.213283 0.213283
0.213541 0.213541 0.213541
0.213800 0.213800 0.213800
0.214058 0.214058 0.214058
0.214315 0.214315 0.214315
0.214573 0.214573 0.214573
0.214830 0.214830 0.214830
0.215087 0.215087 0.215087
0.215344 0.215344 0.215344
0.215600 0.215600 0.215600
0.215856 0.215856 0.215856
0.216111 0.216111 0.216111
0.216366 0.216366 0.216366
0.216621 0.216621 0.216621
0.216875 0.216875 0.216875
0.217130 0.217130 0.217130
0.217383 0.217383 0.217383
0.217637 0.217637 0.217637
0.217890 0.217890 0.217890
0.218143 0.218143 0.218143
0.218396 0.218396 0.218396
0.218648 0.218648 0.218648
0.218900 0.218900 0.218900
0.219153 0.219153 0.219153
0.219404 0.219404 0.219404
0.219655 0.219655 0.219655
0.219906 0.219906 0.219906
0.220157 0.220157 0.220157
0.220407 0.220407 0.220407
0.220657 0.220657 0.220657
0.220906 0.220906 0.220906
0.221155 0.221155 0.221155
0.221404 0.221404 0.221404
0.221653 0.221653 0.221653
0.221901 0.221901 0.221901
0.222149 0.222149 0.222149
0.222397 0.222397 0.222397
0.222645 0.222645 0.222645
0.222892 0.222892 0.222892
0.223139 0.223139 0.223139
0.223386 0.223386 0.223386
0.223632 0.223632 0.223632
0.223878 0.223878 0.223878
0.224124 0.224124 0.224124
0.224369 0.224369 0.224369
0.224615 0.224615 0.224615
0.224859 0.224859 0.224859
0.225104 0.225104 0.225104
0.225348 0.225348 0.225348
0.225592 0.225592 0.225592
0.225836 0.225836 0.225836
0.226079 0.226079 0.226079
0.226322 0.226322 0.226322
0.226565 0.226565 0.226565
0.226808 0.226808 0.226808
0.227050 0.227050 0.227050
0.227292 0.227292 0.227292
0.227534 0.227534 0.227534
0.227775 0.227775 0.227775
0.228017 0.228017 0.228017
0.228258 0.228258 0.228258
0.228499 0.228499 0.228499
0.228739 0.228739 0.228739
0.228979 0.228979 0.228979
0.229219 0.229219 0.229219
0.229458 0.229458 0.229458
0.229698 0.229698 0.229698
0.229937 0.229937 0.229937
0.230175 0.230175 0.230175
0.230414 0.230414 0.230414
0.230652 0.230652 0.230652
0.230890 0.230890 0.230890
0.231127 0.231127 0.231127
0.231365 0.231365 0.231365
0.231602 0.231602 0.231602
0.231839 0.231839 0.231839
0.232076 0.232076 0.232076
0.232312 0.232312 0.232312
0.232548 0.232548 0.232548
0.232784 0.232784 0.232784
0.233020 0.233020 0.233020
0.233255 0.233255 0.233255
0.233490 0.233490 0.233490
0.233725 0.233725 0.233725
0.233959 0.233959 0.233959
0.234194 0.234194 0.234194
0.234427 0.234427 0.234427
0.234661 0.234661 0.234661
0.234894 0.234894 0.234894
0.235128 0.235128 0.235128
0.235360 0.235360 0.235360
0.235593 0.235593 0.235593
0.235825 0.235825 0.235825
0.236058 0.236058 0.236058
0.236290 0.236290 0.236290
0.236521 0.236521 0.236521
0.236752 0.236752 0.236752
0.236983 0.236983 0.236983
0.237214 0.237214 0.237214
0.237445 0.237445 0.237445
0.237676 0.237676 0.237676
0.237905 0.237905 0.237905
0.238135 0.238135 0.238135
0.238365 0.238365 0.238365
0.238594 0.238594 0.238594
0.238823 0.238823 0.238823
0.239051 0.239051 0.239051
0.239280 0.239280 0.239280
0.239508 0.239508 0.239508
0.239736 0.239736 0.239736
0.239964 0.239964 0.239964
0.240191 0.240191 0.240191
0.240418 0.240418 0.240418
0.240645 0.240645 0.240645
0.240871 0.240871 0.240871
0.241098 0.241098 0.241098
0.241324 0.241324 0.241324
0.241550 0.241550 0.241550
0.241776 0.241776 0.241776
0.242002 0.242002 0.242002
0.242227 0.242227 0.242227
0.242452 0.242452 0.242452
0.242677 0.242677 0.242677
0.242901 0.242901 0.242901
0.243125 0.243125 0.243125
0.243349 0.243349 0.243349
0.243573 0.243573 0.243573
0.243797 0.243797 0.243797
0.244020 0.244020 0.244020
0.244243 0.244243 0.244243
0.244466 0.244466 0.244466
0.244689 0.244689 0.244689
0.244912 0.244912 0.244912
0.245134 0.245134 0.245134
0.245356 0.245356 0.245356
0.245578 0.245578 0.245578
0.245801 0.245801 0.245801
0.246022 0.246022 0.246022
0.246244 0.246244 0.246244
0.246465 0.246465 0.246465
0.246686 0.246686 0.246686
0.246907 0.246907 0.246907
0.247127 0.247127 0.247127
0.247348 0.247348 0.247348
0.247568 0.247568 0.247568
0.247788 0.247788 0.247788
0.248008 0.248008 0.248008
0.248228 0.248228 0.248228
0.248447 0.248447 0.248447
0.248667 0.248667 0.248667
0.248886 0.248886 0.248886
0.249105 0.249105 0.249105
0.249323 0.249323 0.249323
0.249542 0.249542 0.249542
0.249760 0.249760 0.249760
0.249979 0.249979 0.249979
0.250197 0.250197 0.250197
0.250414 0.250414 0.250414
0.250631 0.250631 0.250631
0.250848 0.250848 0.250848
0.251065 0.251065 0.251065
0.251282 0.251282 0.251282
0.251498 0.251498 0.251498
0.251714 0.251714 0.251714
0.251930 0.251930 0.251930
0.252145 0.252145 0.252145
0.252361 0.252361 0.252361
0.252576 0.252576 0.252576
0.252791 0.252791 0.252791
0.253005 0.253005 0.253005
0.253219 0.253219 0.253219
0.253433 0.253433 0.253433
0.253647 0.253647 0.253647
0.253860 0.253860 0.253860
0.254073 0.254073 0.254073
0.254285 0.254285 0.254285
0.254498 0.254498 0.254498
0.254709 0.254709 0.254709
0.254921 0.254921 0.254921
0.255132 0.255132 0.255132
0.255343 0.255343 0.255343
0.255553 0.255553 0.255553
0.255764 0.255764 0.255764
0.255973 0.255973 0.255973
0.256183 0.256183 0.256183
0.256392 0.256392 0.256392
0.256602 0.256602 0.256602
0.256810 0.256810 0.256810
0.257018 0.257018 0.257018
0.257225 0.257225 0.257225
0.257433 0.257433 0.257433
0.257639 0.257639 0.257639
0.257846 0.257846 0.257846
0.258052 0.258052 0.258052
0.258258 0.258258 0.258258
0.258463 0.258463 0.258463
0.258668 0.258668 0.258668
0.258873 0.258873 0.258873
0.259077 0.259077 0.259077
0.259281 0.259281 0.259281
0.259484 0.259484 0.259484
0.259687 0.259687 0.259687
0.259891 0.259891 0.259891
0.260093 0.260093 0.260093
0.260295 0.260295 0.260295
0.260497 0.260497 0.260497
0.260699 0.260699 0.260699
0.260899 0.260899 0.260899
0.261100 0.261100 0.261100
0.261300 0.261300 0.261300
0.261500 0.261500 0.261500
0.261699 0.261699 0.261699
0.261898 0.261898 0.261898
0.262097 0.262097 0.262097
0.262295 0.262295 0.262295
0.262493 0.262493 0.262493
0.262691 0.262691 0.262691
0.262888 0.262888 0.262888
0.263085 0.263085 0.263085
0.263281 0.263281 0.263281
0.263477 0.263477 0.263477
0.263673 0.263673 0.263673
0.263868 0.263868 0.263868
0.264064 0.264064 0.264064
0.264258 0.264258 0.264258
0.264452 0.264452 0.264452
0.264646 0.264646 0.264646
0.264840 0.264840 0.264840
0.265033 0.265033 0.265033
0.265225 0.265225 0.265225
0.265417 0.265417 0.265417
0.265609 0.265609 0.265609
0.265801 0.265801 0.265801
0.265992 0.265992 0.265992
0.266183 0.266183 0.266183
0.266373 0.266373 0.266373
0.266563 0.266563 0.266563
0.266753 0.266753 0.266753
0.266942 0.266942 0.266942
0.267131 0.267131 0.267131
0.267320 0.267320 0.267320
0.267509 0.267509 0.267509
0.267697 0.267697 0.267697
0.267884 0.267884 0.267884
0.268072 0.268072 0.268072
0.268260 0.268260 0.268260
0.268447 0.268447 0.268447
0.268633 0.268633 0.268633
0.268819 0.268819 0.268819
0.269005 0.269005 0.269005
0.269190 0.269190 0.269190
0.269375 0.269375 0.269375
0.269560 0.269560 0.269560
0.269745 0.269745 0.269745
0.269929 0.269929 0.269929
0.270113 0.270113 0.270113
0.270297 0.270297 0.270297
0.270480 0.270480 0.270480
0.270663 0.270663 0.270663
0.270846 0.270846 0.270846
0.271028 0.271028 0.271028
0.271210 0.271210 0.271210
0.271392 0.271392 0.271392
0.271574 0.271574 0.271574
0.271755 0.271755 0.271755
0.271936 0.271936 0.271936
0.272117 0.272117 0.272117
0.272299 0.272299 0.272299
0.272479 0.272479 0.272479
0.272659 0.272659 0.272659
0.272839 0.272839 0.272839
0.273018 0.273018 0.273018
0.273197 0.273197 0.273197
0.273376 0.273376 0.273376
0.273555 0.273555 0.273555
0.273734 0.273734 0.273734
0.273912 0.273912 0.273912
0.274090 0.274090 0.274090
0.274268 0.274268 0.274268
0.274445 0.274445 0.274445
0.274622 0.274622 0.274622
0.274799 0.274799 0.274799
0.274976 0.274976 0.274976
0.275153 0.275153 0.275153
0.275329 0.275329 0.275329
0.275505 0.275505 0.275505
0.275681 0.275681 0.275681
0.275856 0.275856 0.275856
0.276032 0.276032 0.276032
0.276207 0.276207 0.276207
0.276383 0.276383 0.276383
0.276557 0.276557 0.276557
0.276732 0.276732 0.276732
0.276906 0.276906 0.276906
0.277080 0.277080 0.277080
0.277253 0.277253 0.277253
0.277427 0.277427 0.277427
0.277600 0.277600 0.277600
0.277773 0.277773 0.277773
0.277946 0.277946 0.277946
0.278119 0.278119 0.278119
0.278291 0.278291 0.278291
0.278463 0.278463 0.278463
0.278635 0.278635 0.278635
0.278807 0.278807 0.278807
0.278978 0.278978 0.278978
0.279150 0.279150 0.279150
0.279321 0.279321 0.279321
0.279491 0.279491 0.279491
0.279662 0.279662 0.279662
0.279832 0.279832 0.279832
0.280003 0.280003 0.280003
0.280173 0.280173 0.280173
0.280343 0.280343 0.280343
0.280513 0.280513 0.280513
0.280682 0.280682 0.280682
0.280851 0.280851 0.280851
0.281020 0.281020 0.281020
0.281189 0.281189 0.281189
0.281358 0.281358 0.281358
0.281526 0.281526 0.281526
0.281694 0.281694 0.281694
0.281862 0.281862 0.281862
0.282030 0.282030 0.282030
0.282198 0.282198 0.282198
0.282365 0.282365 0.282365
0.282532 0.282532 0.282532
0.282699 0.282699 0.282699
0.282866 0.282866 0.282866
0.283033 0.283033 0.283033
0.283199 0.283199 0.283199
0.283366 0.283366 0.283366
0.283532 0.283532 0.283532
0.283697 0.283697 0.283697
0.283863 0.283863 0.283863
0.284029 0.284029 0.284029
0.284194 0.284194 0.284194
0.284359 0.284359 0.284359
0.284524 0.284524 0.284524
0.284689 0.284689 0.284689
0.284854 0.284854 0.284854
0.285018 0.285018 0.285018
0.285182 0.285182 0.285182
0.285346 0.285346 0.285346
0.285510 0.285510 0.285510
0.285675 0.285675 0.285675
0.285838 0.285838 0.285838
0.286001 0.286001 0.286001
0.286165 0.286165 0.286165
0.286328 0.286328 0.286328
0.286490 0.286490 0.286490
0.286653 0.286653 0.286653
0.286815 0.286815 0.286815
0.286978 0.286978 0.286978
0.287140 0.287140 0.287140
0.287302 0.287302 0.287302
0.287464 0.287464 0.287464
0.287625 0.287625 0.287625
0.287787 0.287787 0.287787
0.287948 0.287948 0.287948
0.288109 0.288109 0.288109
0.288270 0.288270 0.288270
0.288431 0.288431 0.288431
0.288592 0.288592 0.288592
0.288752 0.288752 0.288752
0.288912 0.288912 0.288912
0.289073 0.289073 0.289073
0.289233 0.289233 0.289233
0.289392 0.289392 0.289392
0.289552 0.289552 0.289552
0.289713 0.289713 0.289713
0.289872 0.289872 0.289872
