3DLUTS/RED_IPP2CubesSDRCoreV1_13/REC2020/RWG_Log3G10 to REC2020_BT1886 with MEDIUM_CONTRAST and R_4_VerySoft size_33 v1.13.cube
# RED Digital Cinema Output Transform LUT for IPP2
# LUT Name = RWG_Log3G10 to REC2020_BT1886 with MEDIUM_CONTRAST and R_4_VerySoft size_33 v1.13
# Generated by version 1.13
# Settings used in creation of this LUT are:
# Development Color Space = REC2020
# Output Gamma Curve = BT1886
# Output Tonemap = MEDIUM_CONTRAST
# Highlight Rolloff = Rolloff 4 - very soft
# Resolution = 33 x 33 x 33
TITLE "RED IPP2 LUT to map REDWideGamutRGB/Log3G10 to REC2020/BT1886/MEDIUM_CONTRAST/Rolloff 4 - very soft"
LUT_3D_SIZE 9
0.000000 0.000000 0.000000
0.057505 0.003505 0.003505
0.244448 0.021325 0.014346
0.504744 0.085751 0.061067
0.735404 0.229659 0.172372
0.891118 0.464280 0.419719
0.973974 0.675378 0.648294
1.000001 0.821721 0.806140
1.000001 0.913589 0.904848
0.003505 0.073106 0.003505
0.062900 0.071610 0.003505
0.246276 0.059720 0.011694
0.506673 0.105686 0.058992
0.737114 0.239554 0.172201
0.892287 0.468293 0.421963
0.974628 0.677767 0.650541
1.000001 0.823340 0.807827
1.000001 0.914661 0.905989
0.023099 0.287132 0.004624
0.044826 0.286533 0.004656
0.259559 0.282235 0.004873
0.518352 0.274140 0.042302
0.747578 0.330991 0.164561
0.899640 0.501479 0.434956
0.978788 0.694481 0.664893
1.000001 0.834044 0.818736
1.000001 0.921646 0.913373
0.128057 0.559327 0.023435
0.140294 0.558988 0.023465
0.252968 0.556269 0.023421
0.518926 0.550457 0.025518
0.750718 0.540073 0.123486
0.903953 0.590261 0.428289
0.981997 0.721654 0.674225
1.000001 0.845944 0.828185
1.000001 0.928658 0.920313
0.334193 0.759151 0.102719
0.336346 0.758945 0.102617
0.366764 0.757375 0.101557
0.510404 0.753950 0.098513
0.718651 0.748817 0.116118
0.894382 0.738787 0.373273
0.978929 0.773280 0.653537
1.000001 0.855175 0.822143
1.000001 0.929701 0.918571
0.544899 0.886037 0.357758
0.545074 0.885910 0.357416
0.549446 0.884981 0.354821
0.589215 0.883215 0.349023
0.709757 0.880594 0.344091
0.852236 0.876565 0.387756
0.969020 0.868080 0.609844
1.000001 0.886762 0.800144
1.000001 0.933226 0.909467
0.707785 0.957789 0.591855
0.707665 0.957712 0.591580
0.707418 0.957158 0.589596
0.714426 0.956193 0.586047
0.754387 0.954985 0.581561
0.844560 0.953083 0.580573
0.932247 0.950219 0.611709
1.000001 0.943607 0.768321
1.000001 0.952978 0.892545
0.819808 0.995985 0.746013
0.819674 0.995939 0.745806
0.818843 0.995610 0.744331
0.819154 0.995056 0.741851
0.828634 0.994449 0.739152
0.865269 0.993613 0.736118
0.926518 0.992282 0.737524
0.977613 0.990364 0.759364
1.000001 0.985420 0.870526
0.894859 1.000001 0.847396
0.894752 1.000001 0.847247
0.894016 1.000001 0.846177
0.893215 1.000001 0.844412
0.894811 1.000001 0.842639
0.905718 1.000001 0.840712
0.935215 1.000001 0.838959
0.973673 1.000001 0.841226
1.000001 1.000001 0.856233
0.003505 0.003505 0.066219
0.052638 0.003505 0.065785
0.243720 0.017003 0.040258
0.504527 0.082257 0.074726
0.735366 0.228012 0.181626
0.891138 0.464023 0.421646
0.973995 0.675404 0.648663
1.000001 0.821780 0.806258
1.000001 0.913637 0.904910
0.003505 0.057625 0.060174
0.058073 0.058073 0.058073
0.245420 0.048504 0.034840
0.506350 0.101187 0.072723
0.736993 0.237782 0.181692
0.892255 0.467917 0.423829
0.974622 0.677700 0.650818
1.000001 0.823332 0.807875
1.000001 0.914665 0.906002
0.021636 0.284072 0.007069
0.042281 0.284131 0.006906
0.258747 0.279651 0.008010
0.518053 0.271849 0.051319
0.747468 0.329783 0.172606
0.899612 0.501177 0.436584
0.978784 0.694427 0.665130
1.000001 0.834039 0.818779
1.000001 0.921651 0.913387
0.127088 0.558459 0.026523
0.139406 0.558541 0.026403
0.252416 0.555777 0.026584
0.518807 0.549924 0.029157
0.750627 0.539655 0.128380
0.903930 0.590089 0.429766
0.981995 0.721618 0.674430
1.000001 0.845944 0.828225
1.000001 0.928666 0.920329
0.333773 0.758837 0.104905
0.336271 0.758921 0.104887
0.366672 0.757341 0.103983
0.510353 0.753898 0.101140
0.718687 0.748762 0.119265
0.894366 0.738753 0.374852
0.978927 0.773272 0.653750
1.000001 0.855179 0.822185
1.000001 0.929709 0.918587
0.544620 0.885887 0.358344
0.545156 0.885948 0.358490
0.549518 0.885015 0.355975
0.589261 0.883245 0.350321
0.709795 0.880621 0.345504
0.850656 0.875023 0.386926
0.969021 0.868105 0.610096
1.000001 0.886778 0.800191
1.000001 0.933236 0.909483
0.707573 0.957705 0.591714
0.707754 0.957744 0.591851
0.707505 0.957190 0.589878
0.714503 0.956223 0.586349
0.754442 0.955015 0.581885
0.844602 0.953112 0.580906
0.932284 0.950249 0.612001
1.000001 0.943633 0.768390
1.000001 0.952994 0.892564
0.819650 0.995937 0.745827
0.819745 0.995960 0.745932
0.818914 0.995631 0.744459
0.819222 0.995077 0.741983
0.828693 0.994470 0.739288
0.865312 0.993633 0.736257
0.926550 0.992303 0.737662
0.977638 0.990385 0.759489
1.000001 0.985439 0.870559
0.894743 1.000001 0.847248
0.894805 1.000001 0.847326
0.894069 1.000001 0.846256
0.893267 1.000001 0.844492
0.894861 1.000001 0.842719
0.905759 1.000001 0.840793
0.935245 1.000001 0.839040
0.973695 1.000001 0.841305
1.000001 1.000001 0.856308
0.010230 0.004298 0.265567
0.022583 0.004307 0.265711
0.234952 0.004418 0.265157
0.501040 0.051224 0.247733
0.733822 0.206507 0.277319
0.890659 0.459219 0.443440
0.973871 0.674432 0.651975
1.000001 0.821567 0.806750
1.000001 0.913608 0.905006
0.009749 0.006445 0.265457
0.023035 0.006391 0.265049
0.236598 0.006945 0.264387
0.502843 0.063868 0.246282
0.735444 0.217006 0.277313
0.891775 0.463192 0.445350
0.974497 0.676735 0.654066
1.000001 0.823119 0.808352
1.000001 0.914634 0.906094
0.007790 0.248244 0.254086
0.019235 0.248270 0.253635
0.248774 0.248774 0.248774
0.513705 0.244572 0.227339
0.745303 0.313745 0.270868
0.898763 0.496255 0.456244
0.978463 0.692872 0.667376
1.000001 0.833364 0.818687
1.000001 0.921310 0.913131
0.113982 0.548603 0.124896
0.126529 0.548690 0.124070
0.245212 0.549042 0.116549
0.516714 0.542589 0.140207
0.748686 0.533810 0.211042
0.903135 0.587212 0.447815
0.981705 0.720414 0.676270
1.000001 0.845371 0.828106
1.000001 0.928374 0.920101
0.329276 0.755729 0.143866
0.331914 0.755815 0.143723
0.364851 0.756315 0.142187
0.509257 0.752656 0.143567
0.718621 0.747458 0.171245
0.893685 0.737893 0.394458
0.978637 0.772700 0.655687
1.000001 0.854745 0.822072
1.000001 0.929451 0.918371
0.542373 0.884644 0.369612
0.542930 0.884704 0.369713
0.549785 0.885102 0.370248
0.589354 0.883282 0.366532
0.709914 0.880614 0.363277
0.852565 0.876585 0.403749
0.968763 0.868152 0.612608
1.000001 0.886677 0.800107
1.000001 0.933062 0.909261
0.706028 0.957080 0.591869
0.706211 0.957118 0.591996
0.708065 0.957379 0.592851
0.714986 0.956401 0.589619
0.754782 0.955182 0.585465
0.844868 0.953271 0.584648
0.932530 0.950410 0.615225
1.000001 0.943784 0.768614
1.000001 0.953007 0.892339
0.818519 0.995586 0.744742
0.818614 0.995609 0.744846
0.819403 0.995770 0.745554
0.819687 0.995213 0.743133
0.829093 0.994604 0.740498
0.865601 0.993765 0.737522
0.926768 0.992434 0.738928
0.977810 0.990519 0.760621
1.000001 0.985562 0.870511
0.893920 1.000001 0.846246
0.893982 1.000001 0.846323
0.894441 1.000001 0.846853
0.893632 1.000001 0.845099
0.895204 1.000001 0.843339
0.906045 1.000001 0.841425
0.935453 1.000001 0.839682
0.973849 1.000001 0.841934
1.000001 1.000001 0.856885
0.029732 0.007003 0.524442
0.035793 0.007008 0.524783
0.186722 0.007071 0.526156
0.475884 0.009093 0.523847
0.719936 0.108878 0.505108
0.883758 0.421450 0.534806
0.970866 0.661002 0.664928
1.000001 0.814951 0.804446
1.000001 0.909891 0.901878
0.029380 0.008489 0.525650
0.035842 0.008453 0.525528
0.187250 0.008565 0.526882
0.477493 0.011537 0.524555
0.721484 0.116480 0.505664
0.884866 0.425893 0.536027
0.971497 0.663360 0.666707
1.000001 0.816513 0.805977
1.000001 0.910923 0.902957
0.027388 0.094619 0.529060
0.033161 0.094191 0.528953
0.191431 0.091769 0.527096
0.488046 0.108819 0.525375
0.730798 0.227041 0.506193
0.891777 0.463230 0.542892
0.975487 0.679970 0.678061
1.000001 0.826830 0.815866
1.000001 0.917636 0.909929
0.055485 0.503915 0.512617
0.063601 0.503972 0.512546
0.207733 0.504138 0.511128
0.504310 0.504310 0.504310
0.732427 0.499912 0.485611
0.895083 0.564975 0.537229
0.978296 0.708042 0.684736
1.000001 0.838189 0.823991
1.000001 0.924178 0.916220
0.305945 0.742170 0.424429
0.309031 0.742260 0.424241
0.347098 0.742796 0.422363
0.500798 0.742923 0.415503
0.715642 0.737185 0.434747
0.886331 0.730078 0.493176
0.975131 0.766132 0.664807
1.000001 0.848956 0.817842
1.000001 0.925534 0.914475
0.535453 0.880545 0.454205
0.536054 0.880608 0.454168
0.543509 0.881024 0.453755
0.587068 0.881446 0.451642
0.708530 0.878495 0.455833
0.852255 0.874455 0.483988
0.965382 0.866763 0.625652
1.000001 0.884200 0.795825
1.000001 0.930049 0.905139
0.702876 0.955608 0.605867
0.703066 0.955647 0.605950
0.705014 0.955912 0.606495
0.715182 0.956268 0.607035
0.754795 0.954975 0.605041
0.844944 0.953007 0.605499
0.932741 0.950166 0.633025
1.000001 0.943691 0.766496
1.000001 0.951928 0.887941
0.816556 0.994914 0.745852
0.816651 0.994937 0.745943
0.817454 0.995098 0.746569
0.820295 0.995334 0.747474
0.829589 0.994707 0.745301
0.865938 0.993852 0.742763
0.927033 0.992512 0.744302
0.978037 0.990606 0.765247
1.000001 0.985680 0.867332
0.892564 1.000001 0.845288
0.892625 1.000001 0.845361
0.893084 1.000001 0.845866
0.894178 1.000001 0.846633
0.895713 1.000001 0.844975
0.906463 1.000001 0.843169
0.935752 1.000001 0.841511
0.974071 1.000001 0.843751
1.000001 1.000001 0.858490
0.039135 0.008442 0.726836
0.042376 0.008438 0.727194
0.106515 0.008393 0.729007
0.439341 0.009202 0.729064
0.671088 0.019677 0.722853
0.864481 0.274799 0.701468
0.961987 0.614934 0.722150
1.000001 0.794403 0.806522
1.000001 0.898831 0.894662
0.038842 0.009278 0.728234
0.042303 0.009254 0.728219
0.106436 0.009200 0.730022
0.440287 0.010195 0.730050
0.672528 0.021442 0.723912
0.865591 0.281742 0.702465
0.962648 0.617555 0.723356
1.000001 0.796045 0.807840
1.000001 0.899906 0.895714
0.036393 0.030820 0.734634
0.039431 0.030711 0.734633
0.104906 0.029870 0.733837
0.445580 0.031798 0.734043
0.682038 0.050946 0.729339
0.872445 0.340560 0.708465
0.966813 0.636275 0.731191
1.000001 0.806913 0.816415
1.000001 0.906889 0.902524
0.045849 0.391909 0.733021
0.049189 0.391646 0.733027
0.106376 0.389521 0.732580
0.454613 0.386965 0.729104
0.694335 0.404523 0.726258
0.874890 0.493051 0.709768
0.969490 0.670318 0.737239
1.000001 0.819093 0.823701
1.000001 0.913620 0.908605
0.216828 0.705072 0.713670
0.221295 0.705146 0.713714
0.276420 0.705557 0.713721
0.474147 0.705496 0.711370
0.705306 0.705306 0.705306
0.865757 0.701135 0.691717
0.965000 0.742732 0.726119
1.000001 0.831717 0.817763
1.000001 0.914423 0.905860
0.514169 0.868275 0.656442
0.514857 0.868341 0.656404
0.523434 0.868784 0.656009
0.573097 0.869245 0.654186
0.701433 0.868936 0.649327
0.849238 0.864640 0.663453
0.955720 0.859262 0.696092
1.000001 0.876242 0.797274
1.000001 0.921500 0.896055
0.696338 0.951830 0.676115
0.696540 0.951872 0.676118
0.698637 0.952157 0.676103
0.709726 0.952543 0.675736
0.752372 0.952635 0.674106
0.843444 0.950420 0.678569
0.932115 0.947628 0.697252
0.998632 0.942126 0.773826
1.000001 0.948688 0.878521
0.813855 0.993665 0.762280
0.813953 0.993689 0.762336
0.814782 0.993857 0.762714
0.817799 0.994104 0.763224
0.829350 0.994256 0.763345
0.865643 0.993318 0.762763
0.926874 0.991926 0.765044
0.978019 0.990057 0.783041
1.000001 0.985479 0.861584
0.891077 1.000001 0.848190
0.891139 1.000001 0.848252
0.891601 1.000001 0.848678
0.892732 1.000001 0.849321
0.896001 1.000001 0.849816
0.906664 1.000001 0.848547
0.935873 1.000001 0.847338
0.974170 1.000001 0.849632
1.000001 1.000001 0.863526
0.033607 0.006794 0.868553
0.035129 0.006783 0.868849
0.061430 0.006682 0.870502
0.371180 0.006685 0.870976
0.648411 0.009234 0.867774
0.810140 0.040052 0.857433
0.947402 0.501861 0.835110
1.000001 0.752858 0.845391
1.000001 0.879819 0.895200
0.033239 0.007036 0.869733
0.034898 0.007023 0.869753
0.061087 0.006916 0.871398
0.371563 0.006919 0.871852
0.649484 0.009743 0.868614
0.811271 0.041527 0.858364
0.948109 0.505272 0.835979
1.000001 0.754715 0.846312
1.000001 0.880989 0.896114
0.030145 0.013255 0.875898
0.031549 0.013209 0.875927
0.057965 0.012858 0.875638
0.371665 0.013004 0.875935
0.655740 0.020025 0.872420
0.818854 0.060488 0.863975
0.952540 0.530283 0.841802
1.000001 0.767032 0.852468
1.000001 0.888588 0.902098
0.027637 0.151772 0.875906
0.028813 0.151315 0.875938
0.050966 0.147466 0.875740
0.368370 0.141300 0.873389
0.662683 0.156115 0.871748
0.828898 0.264482 0.866965
0.954972 0.581140 0.848829
1.000001 0.781080 0.859364
1.000001 0.895782 0.907846
0.088091 0.633366 0.866239
0.090031 0.633290 0.866284
0.119452 0.632583 0.866404
0.385123 0.630533 0.865167
0.670274 0.629197 0.861344
0.835400 0.641393 0.858574
0.949241 0.691200 0.846931
1.000001 0.799241 0.859174
1.000001 0.896923 0.906453
0.451019 0.841764 0.848904
0.436005 0.832045 0.839304
0.463702 0.842210 0.849248
0.530492 0.842548 0.848960
0.685142 0.842136 0.846357
0.841845 0.841845 0.841845
0.939986 0.838226 0.832806
0.997782 0.858160 0.848746
1.000001 0.906975 0.898493
0.679198 0.941891 0.813761
0.679421 0.941935 0.813764
0.681771 0.942237 0.813758
0.694462 0.942646 0.813452
0.742569 0.942758 0.811948
0.838135 0.942304 0.808578
0.929522 0.939458 0.817560
0.991066 0.935849 0.831174
1.000001 0.942647 0.883354
0.808109 0.990261 0.820726
0.808212 0.990288 0.820736
0.809091 0.990473 0.820797
0.812359 0.990746 0.820800
0.824969 0.990920 0.820407
0.863358 0.990833 0.819049
0.925426 0.989260 0.822940
0.977261 0.987472 0.834275
1.000001 0.983963 0.871693
0.888802 1.000001 0.865621
0.888865 1.000001 0.865656
0.889340 1.000001 0.865894
0.890524 1.000001 0.866238
0.894025 1.000001 0.866449
0.906142 1.000001 0.866310
0.935398 1.000001 0.866617
0.973862 1.000001 0.869165
1.000001 1.000001 0.880378
0.015779 0.004360 0.959108
0.016228 0.004352 0.959330
0.023615 0.004298 0.960665
0.185717 0.004188 0.960739
0.619381 0.004352 0.959102
0.799190 0.007634 0.952243
0.899324 0.081206 0.938704
0.991426 0.674245 0.917622
1.000001 0.848544 0.921865
0.015416 0.004377 0.960003
0.015947 0.004377 0.960030
0.023221 0.004326 0.961359
0.184774 0.004208 0.961417
0.620292 0.004368 0.959763
0.800138 0.007813 0.952857
0.900141 0.082812 0.939377
0.991853 0.676538 0.918258
1.000001 0.849891 0.922517
0.012728 0.004825 0.965153
0.013139 0.004819 0.965185
0.020200 0.004769 0.965158
0.176328 0.004592 0.965092
0.625324 0.004857 0.963291
0.806007 0.011882 0.955964
0.905679 0.100247 0.943705
0.994540 0.691777 0.922635
1.000001 0.858607 0.926904
0.007592 0.045788 0.962676
0.007772 0.045589 0.962715
0.011486 0.044063 0.962762
0.149299 0.040459 0.960419
0.620660 0.044284 0.958833
0.811576 0.072178 0.954822
0.913344 0.214503 0.947850
0.996314 0.709530 0.929130
1.000001 0.866494 0.932377
0.011178 0.521018 0.955878
0.011474 0.520694 0.955908
0.016781 0.517872 0.955907
0.149241 0.508593 0.953945
0.622143 0.503723 0.951229
0.815222 0.522392 0.949098
0.918329 0.581269 0.945476
0.993538 0.739359 0.932799
1.000001 0.867850 0.934729
0.223938 0.800237 0.943113
0.225365 0.800229 0.943156
0.247342 0.800128 0.943392
0.399622 0.799538 0.943209
0.636229 0.798098 0.941513
0.820306 0.797384 0.938227
0.921181 0.804558 0.936179
0.987375 0.826601 0.928953
1.000001 0.883892 0.932960
0.637794 0.924780 0.930196
0.638053 0.924821 0.930235
0.640948 0.925102 0.930488
0.657551 0.925465 0.930689
0.718600 0.925491 0.930030
0.829136 0.924990 0.927709
0.924755 0.924755 0.924755
0.980957 0.922061 0.919109
1.000001 0.930602 0.925361
0.795355 0.982904 0.909267
0.795466 0.982933 0.909280
0.796417 0.983128 0.909363
0.800088 0.983415 0.909415
0.814446 0.983597 0.909113
0.857185 0.983517 0.907809
0.921793 0.983101 0.905588
0.975285 0.981348 0.910836
1.000001 0.979108 0.915784
0.884162 1.000001 0.909952
0.884229 1.000001 0.909963
0.884726 1.000001 0.910036
0.885990 1.000001 0.910119
0.889800 1.000001 0.910080
0.902973 1.000001 0.909658
0.933541 1.000001 0.908610
0.972644 1.000001 0.911415
1.000001 1.000001 0.918053
0.004585 0.003505 1.000001
0.004605 0.003505 1.000001
0.005014 0.003505 1.000001
0.020213 0.003505 1.000001
0.563799 0.003505 1.000001
0.794223 0.003505 1.000001
0.896144 0.006371 0.999297
0.953433 0.165669 0.984644
1.000001 0.798545 0.965899
0.004523 0.003505 1.000001
0.004551 0.003505 1.000001
0.004940 0.003505 1.000001
0.019578 0.003505 1.000001
0.564450 0.003505 1.000001
0.795205 0.003505 1.000001
0.896884 0.006417 0.999717
0.954002 0.168184 0.985091
1.000001 0.800173 0.966341
0.004130 0.003505 1.000001
0.004154 0.003505 1.000001
0.004479 0.003505 1.000001
0.015242 0.003505 1.000001
0.567479 0.003505 1.000001
0.801375 0.003505 1.000001
0.901586 0.007696 1.000001
0.957881 0.191908 0.988045
1.000001 0.810644 0.969398
0.003721 0.003897 1.000001
0.003721 0.003897 1.000001
0.003761 0.003850 1.000001
0.008316 0.003793 1.000001
0.554950 0.003721 1.000001
0.803396 0.004188 1.000001
0.905450 0.044161 1.000001
0.963427 0.302532 0.991539
1.000001 0.819417 0.974207
0.003505 0.248111 1.000001
0.003505 0.247288 1.000001
0.003505 0.240896 1.000001
0.004326 0.223659 1.000001
0.507794 0.197514 1.000001
0.792329 0.221586 0.999221
0.907868 0.355134 0.996248
0.967303 0.562182 0.991661
1.000001 0.821135 0.978297
0.004711 0.753053 0.997475
0.004734 0.752958 0.997498
0.005196 0.752057 0.997545
0.031036 0.747944 0.996223
0.523000 0.742058 0.993579
0.794944 0.740183 0.991211
0.909330 0.749585 0.989422
0.969281 0.774707 0.987131
1.000001 0.848116 0.979398
0.517398 0.901902 0.985052
0.517695 0.901914 0.985082
0.522147 0.901979 0.985271
0.553769 0.901958 0.985406
0.656949 0.901495 0.984880
0.803557 0.900487 0.983211
0.912429 0.900128 0.980812
0.970396 0.903985 0.979504
1.000001 0.912895 0.975224
0.769010 0.972458 0.976394
0.769127 0.972486 0.976420
0.770188 0.972675 0.976597
0.774704 0.972947 0.976821
0.792918 0.973098 0.976773
0.844724 0.972956 0.975957
0.917042 0.972527 0.974177
0.972379 0.972379 0.972379
1.000001 0.970576 0.968927
0.875368 1.000001 0.963770
0.875437 1.000001 0.963783
0.875962 1.000001 0.963869
0.877338 1.000001 0.963980
0.881630 1.000001 0.963983
0.896462 1.000001 0.963634
0.929960 1.000001 0.962580
0.970326 1.000001 0.961199
1.000001 1.000001 0.964272
0.003505 0.003505 1.000001
0.003505 0.003505 1.000001
0.003505 0.003505 1.000001
0.003663 0.003505 1.000001
0.098588 0.003505 1.000001
0.796036 0.003505 1.000001
0.906419 0.003505 1.000001
0.954346 0.005901 1.000001
0.986515 0.361011 1.000001
0.003505 0.003505 1.000001
0.003505 0.003505 1.000001
0.003505 0.003505 1.000001
0.003505 0.003505 1.000001
0.094812 0.003505 1.000001
0.797207 0.003505 1.000001
0.907297 0.003505 1.000001
0.954896 0.005891 1.000001
0.986904 0.365877 1.000001
0.003505 0.003505 1.000001
0.003505 0.003505 1.000001
0.003505 0.003505 1.000001
0.003505 0.003505 1.000001
0.070706 0.003505 1.000001
0.804816 0.003505 1.000001
0.913063 0.003505 1.000001
0.958425 0.006287 1.000001
0.989556 0.401993 1.000001
0.003505 0.003505 1.000001
0.003505 0.003505 1.000001
0.003505 0.003505 1.000001
0.003505 0.003505 1.000001
0.038901 0.003505 1.000001
0.809966 0.003505 1.000001
0.918081 0.003505 1.000001
0.961029 0.029376 1.000001
0.993418 0.479879 1.000001
0.003505 0.004925 1.000001
0.003505 0.004883 1.000001
0.003505 0.004631 1.000001
0.003505 0.004288 1.000001
0.011348 0.003955 1.000001
0.775053 0.004208 1.000001
0.900923 0.034656 1.000001
0.962350 0.202999 1.000001
0.996314 0.606919 1.000001
0.003505 0.690213 1.000001
0.003505 0.689984 1.000001
0.003505 0.688075 1.000001
0.003505 0.681664 1.000001
0.005855 0.656369 1.000001
0.750314 0.639922 1.000001
0.896654 0.655455 1.000001
0.962949 0.697378 1.000001
0.997900 0.764558 1.000001
0.004571 0.880533 1.000001
0.004564 0.880515 1.000001
0.004729 0.880267 1.000001
0.014486 0.878531 1.000001
0.391309 0.874717 1.000001
0.759024 0.872386 1.000001
0.898808 0.871614 1.000001
0.963415 0.876382 1.000001
0.998466 0.887867 1.000001
0.700354 0.959540 1.000001
0.700430 0.959553 1.000001
0.701408 0.959640 1.000001
0.708179 0.959740 1.000001
0.738325 0.959685 1.000001
0.814150 0.959267 1.000001
0.903359 0.958590 1.000001
0.965251 0.958419 1.000001
0.998871 0.960554 1.000001
0.858521 1.000001 1.000001
0.858592 1.000001 1.000001
0.859147 1.000001 1.000001
0.860727 1.000001 1.000001
0.866029 1.000001 1.000001
0.884330 1.000001 1.000001
0.923547 1.000001 1.000001
0.967731 1.000001 1.000001
1.000001 1.000001 1.000001
