3DLUTS/RED_IPP2CubesSDRCoreV1_13/REC2020/RWG_Log3G10 to REC2020_BT1886 with LOW_CONTRAST and R_2_Medium size_33 v1.13.cube
# RED Digital Cinema Output Transform LUT for IPP2
# LUT Name = RWG_Log3G10 to REC2020_BT1886 with LOW_CONTRAST and R_2_Medium size_33 v1.13
# Generated by version 1.13
# Settings used in creation of this LUT are:
# Development Color Space = REC2020
# Output Gamma Curve = BT1886
# Output Tonemap = LOW_CONTRAST
# Highlight Rolloff = Rolloff 2 - medium
# Resolution = 33 x 33 x 33
TITLE "RED IPP2 LUT to map REDWideGamutRGB/Log3G10 to REC2020/BT1886/LOW_CONTRAST/Rolloff 2 - medium"
LUT_3D_SIZE 33
0.000000 0.000000 0.000000
0.000000 0.000000 0.000000
0.000001 0.000000 0.000000
0.016027 0.003505 0.003505
0.073460 0.003505 0.003505
0.120745 0.003663 0.003505
0.168208 0.005491 0.004592
0.218632 0.012560 0.008279
0.273703 0.023274 0.015653
0.335126 0.035345 0.024299
0.404867 0.048756 0.034008
0.493403 0.065448 0.046167
0.587885 0.086202 0.061315
0.669926 0.110883 0.079273
0.741341 0.142419 0.101996
0.801482 0.182779 0.131681
0.850614 0.229414 0.171832
0.889936 0.284053 0.225777
0.920576 0.348592 0.288418
0.943569 0.423647 0.360163
0.961005 0.512290 0.445428
0.973747 0.597910 0.540403
0.982782 0.672184 0.625070
0.989310 0.736412 0.698631
0.993850 0.789036 0.759008
0.997096 0.832841 0.809260
0.999336 0.867765 0.849272
1.000003 0.896263 0.881862
1.000003 0.918977 0.907780
1.000003 0.936766 0.928033
1.000003 0.951141 0.944361
1.000003 0.962492 0.957226
1.000003 0.971796 0.967749
0.000000 0.000000 0.000000
0.000000 0.000000 0.000000
0.000001 0.000000 0.000000
0.021581 0.003505 0.003505
0.074356 0.003505 0.003505
0.121275 0.003917 0.003505
0.168631 0.007447 0.004487
0.219028 0.016569 0.007950
0.274110 0.027565 0.015165
0.335570 0.039589 0.023787
0.405382 0.052832 0.033508
0.494072 0.069254 0.045719
0.588480 0.089719 0.060925
0.670465 0.114174 0.078955
0.741815 0.145560 0.101762
0.801888 0.185328 0.131549
0.850953 0.231416 0.171832
0.890210 0.285719 0.225960
0.920793 0.350062 0.288774
0.943738 0.425027 0.360684
0.961134 0.513554 0.446125
0.973843 0.598924 0.541163
0.982854 0.673007 0.625781
0.989363 0.737081 0.699267
0.993889 0.789583 0.759561
0.997125 0.833288 0.809729
0.999356 0.868130 0.849666
1.000003 0.896560 0.882187
1.000003 0.919219 0.908048
1.000003 0.936964 0.928252
1.000003 0.951302 0.944540
1.000003 0.962621 0.957371
1.000003 0.971900 0.967866
0.000000 0.000009 0.000000
0.000000 0.000008 0.000000
0.000002 0.000007 0.000000
0.026804 0.003505 0.003505
0.075525 0.003663 0.003505
0.121974 0.006222 0.003505
0.169190 0.013992 0.004352
0.219551 0.023916 0.007534
0.274648 0.034614 0.014515
0.336157 0.046170 0.023096
0.406067 0.058871 0.032842
0.494956 0.074754 0.045120
0.589266 0.094721 0.060399
0.671176 0.118807 0.078522
0.742441 0.149950 0.101440
0.802424 0.188759 0.131361
0.851400 0.234124 0.171821
0.890573 0.287973 0.226194
0.921081 0.352050 0.289239
0.943962 0.426887 0.361371
0.961305 0.515246 0.447048
0.973971 0.600277 0.542169
0.982949 0.674102 0.626720
0.989433 0.737970 0.700107
0.993941 0.790310 0.760291
0.997162 0.833880 0.810349
0.999384 0.868615 0.850187
1.000003 0.896955 0.882618
1.000003 0.919540 0.908403
1.000003 0.937225 0.928543
1.000003 0.951513 0.944777
1.000003 0.962793 0.957563
1.000003 0.972037 0.968020
0.003505 0.049024 0.003505
0.003505 0.048512 0.003505
0.003505 0.047818 0.003505
0.032023 0.046891 0.003505
0.077011 0.041897 0.003505
0.122873 0.033075 0.003505
0.169911 0.032666 0.004198
0.220225 0.038566 0.007031
0.275342 0.046804 0.013665
0.336918 0.056606 0.022197
0.406959 0.067979 0.031971
0.496104 0.082783 0.044329
0.590283 0.101871 0.059700
0.672095 0.125339 0.077941
0.743251 0.155930 0.101001
0.803118 0.193310 0.131097
0.851979 0.237742 0.171784
0.891043 0.290989 0.226481
0.921453 0.354703 0.289833
0.944252 0.429361 0.362257
0.961525 0.517475 0.448245
0.974137 0.602054 0.543470
0.983073 0.675534 0.627939
0.989524 0.739130 0.701197
0.994008 0.791256 0.761239
0.997211 0.834651 0.811154
0.999419 0.869245 0.850862
1.000003 0.897467 0.883178
1.000003 0.919957 0.908863
1.000003 0.937564 0.928920
1.000003 0.951788 0.945083
1.000003 0.963016 0.957812
1.000003 0.972215 0.968219
0.003505 0.091562 0.003505
0.003505 0.091328 0.003505
0.003663 0.091014 0.003505
0.017587 0.090601 0.003505
0.079280 0.089014 0.003505
0.124555 0.085762 0.003505
0.171258 0.082274 0.003972
0.221485 0.080393 0.006231
0.276641 0.080698 0.012129
0.338341 0.083665 0.020535
0.408631 0.089886 0.030332
0.498239 0.101060 0.042819
0.592167 0.117567 0.058345
0.673797 0.139259 0.076798
0.744750 0.167233 0.100119
0.804403 0.202107 0.130538
0.853051 0.244807 0.171649
0.891914 0.296892 0.226965
0.922143 0.359881 0.290906
0.944789 0.434164 0.363889
0.961935 0.521736 0.450468
0.974444 0.605426 0.545885
0.983302 0.678239 0.630202
0.989693 0.741311 0.703223
0.994132 0.793030 0.763000
0.997301 0.836092 0.812651
0.999484 0.870420 0.852119
1.000003 0.898422 0.884219
1.000003 0.920733 0.909718
1.000003 0.938196 0.929621
1.000003 0.952300 0.945654
1.000003 0.963430 0.958275
1.000003 0.972547 0.968590
0.003825 0.142107 0.003505
0.004220 0.141951 0.003505
0.005835 0.141742 0.003505
0.016558 0.141467 0.003505
0.071728 0.140950 0.003505
0.128026 0.139943 0.003505
0.174013 0.136192 0.003721
0.224031 0.133633 0.005103
0.279245 0.132505 0.009367
0.341181 0.133006 0.017343
0.411973 0.135510 0.027059
0.502435 0.141412 0.039707
0.595834 0.151995 0.055471
0.677108 0.167842 0.074301
0.747667 0.190439 0.098107
0.806905 0.220873 0.129146
0.855141 0.260165 0.171086
0.893613 0.309783 0.227685
0.923491 0.371132 0.292871
0.945839 0.444486 0.367016
0.962735 0.530606 0.454810
0.975045 0.612351 0.550601
0.983750 0.683735 0.634639
0.990022 0.745703 0.707200
0.994374 0.796577 0.766463
0.997477 0.838960 0.815594
0.999612 0.872751 0.854589
1.000003 0.900313 0.886264
1.000003 0.922265 0.911399
1.000003 0.939442 0.931000
1.000003 0.953307 0.946775
1.000003 0.964244 0.959184
1.000003 0.973199 0.969319
0.006411 0.196516 0.003663
0.008052 0.196383 0.003663
0.012208 0.196206 0.003663
0.021766 0.195973 0.003663
0.061636 0.195531 0.003663
0.121359 0.194648 0.003663
0.177960 0.193499 0.003663
0.227581 0.189516 0.004250
0.282800 0.186955 0.006844
0.345010 0.185797 0.013418
0.416452 0.186210 0.022744
0.507905 0.189111 0.035379
0.600525 0.195553 0.051275
0.681331 0.206545 0.070480
0.751388 0.223853 0.094835
0.810105 0.249131 0.126622
0.857820 0.283893 0.169603
0.895798 0.329866 0.228010
0.925228 0.388553 0.295028
0.947195 0.460216 0.370845
0.963769 0.543428 0.460356
0.975822 0.622151 0.556656
0.984330 0.691361 0.640381
0.990449 0.751700 0.712373
0.994687 0.801363 0.770978
0.997705 0.842794 0.819436
0.999778 0.875849 0.857816
1.000003 0.902812 0.888938
1.000003 0.924284 0.913596
1.000003 0.941079 0.932801
1.000003 0.954630 0.948240
1.000003 0.965312 0.960372
1.000003 0.974052 0.970271
0.014576 0.256706 0.004037
0.017333 0.256580 0.004051
0.021942 0.256411 0.004051
0.030068 0.256188 0.004051
0.055117 0.255764 0.004079
0.115370 0.254901 0.004092
0.171362 0.253724 0.004118
0.232021 0.252406 0.004165
0.287073 0.247887 0.005226
0.349490 0.244945 0.009563
0.421552 0.243498 0.018068
0.513880 0.244069 0.030324
0.605478 0.247383 0.046053
0.685761 0.254471 0.065436
0.755295 0.267054 0.090201
0.813477 0.287104 0.122647
0.860660 0.316655 0.166629
0.898126 0.357926 0.227154
0.927088 0.412797 0.296545
0.948653 0.481732 0.374465
0.964886 0.559782 0.466091
0.976663 0.634307 0.563051
0.984958 0.700574 0.646557
0.990912 0.758776 0.717990
0.995028 0.806907 0.775907
0.997952 0.847174 0.823645
0.999957 0.879350 0.861359
1.000003 0.905617 0.891876
1.000003 0.926539 0.916013
1.000003 0.942901 0.934783
1.000003 0.956097 0.949853
1.000003 0.966494 0.961680
1.000003 0.974995 0.971319
0.027079 0.324595 0.004909
0.029999 0.324467 0.004909
0.034475 0.324296 0.004920
0.041544 0.324071 0.004930
0.059939 0.323642 0.004945
0.112145 0.322758 0.004975
0.166306 0.321520 0.005014
0.224960 0.320054 0.005066
0.292059 0.318532 0.005161
0.354463 0.313235 0.006909
0.426854 0.309664 0.013693
0.519690 0.307962 0.025121
0.610001 0.308529 0.040248
0.689743 0.312238 0.059435
0.758806 0.320580 0.084265
0.816532 0.335558 0.117035
0.863261 0.359524 0.161672
0.900283 0.395191 0.224248
0.928830 0.445006 0.296512
0.950032 0.508971 0.376892
0.965949 0.579483 0.470927
0.977468 0.648520 0.568817
0.985563 0.710998 0.652337
0.991360 0.766537 0.723359
0.995358 0.812831 0.780676
0.998192 0.851757 0.827750
1.000003 0.882958 0.864830
1.000003 0.908475 0.894765
1.000003 0.928817 0.918395
1.000003 0.944732 0.936741
1.000003 0.957566 0.951447
1.000003 0.967674 0.962974
1.000003 0.975935 0.972357
0.043737 0.402509 0.006593
0.046572 0.402377 0.006601
0.050748 0.402200 0.006612
0.056998 0.401967 0.006623
0.071853 0.401522 0.006644
0.114237 0.400601 0.006682
0.164361 0.399288 0.006730
0.219972 0.397678 0.006786
0.284153 0.395891 0.006872
0.360080 0.394086 0.007079
0.432205 0.387754 0.010090
0.524790 0.383454 0.020300
0.613518 0.381244 0.034373
0.692696 0.381735 0.052881
0.761395 0.386095 0.077262
0.818823 0.396148 0.109787
0.865264 0.414311 0.154414
0.901990 0.443613 0.218333
0.930244 0.487072 0.293940
0.951174 0.541516 0.377062
0.966846 0.602705 0.473715
0.978158 0.664820 0.573019
0.986086 0.722535 0.656966
0.991750 0.774799 0.727873
0.995647 0.818915 0.784797
0.998404 0.856322 0.831358
1.000003 0.886468 0.867917
1.000003 0.911206 0.897356
1.000003 0.930968 0.920543
1.000003 0.946445 0.938512
1.000003 0.958933 0.952896
1.000003 0.968768 0.964153
1.000003 0.976804 0.973304
0.065698 0.493068 0.010082
0.068366 0.492933 0.010093
0.072207 0.492751 0.010107
0.077791 0.492512 0.010122
0.090397 0.492053 0.010150
0.123968 0.491097 0.010197
0.167475 0.489722 0.010243
0.218495 0.487997 0.010284
0.278803 0.486003 0.010348
0.350977 0.483833 0.010535
0.438336 0.481640 0.011049
0.526276 0.474074 0.016005
0.615524 0.468716 0.028970
0.694033 0.465850 0.046302
0.762499 0.466251 0.069622
0.819867 0.471429 0.101151
0.866277 0.483622 0.144807
0.902945 0.505243 0.208319
0.931104 0.537608 0.287692
0.951916 0.579578 0.373721
0.967459 0.629834 0.473082
0.978649 0.683506 0.574570
0.986470 0.735315 0.659594
0.992044 0.783547 0.730874
0.995869 0.825059 0.787761
0.998569 0.860727 0.834077
1.000003 0.889729 0.870313
1.000003 0.913668 0.899406
1.000003 0.932864 0.922269
1.000003 0.947932 0.939952
1.000003 0.960107 0.954082
1.000003 0.969702 0.965125
1.000003 0.977543 0.974090
0.094409 0.582792 0.016030
0.096891 0.582680 0.016038
0.100423 0.582530 0.016049
0.105472 0.582332 0.016062
0.116547 0.581953 0.016084
0.142079 0.581162 0.016114
0.177465 0.580021 0.016132
0.222299 0.578579 0.016123
0.277492 0.576881 0.016109
0.345036 0.574965 0.016174
0.427817 0.572891 0.016497
0.525304 0.570816 0.017418
0.609953 0.563592 0.023740
0.692555 0.558279 0.040276
0.761447 0.555278 0.062094
0.819063 0.555514 0.091820
0.865803 0.560510 0.133365
0.902758 0.572287 0.194233
0.931118 0.592771 0.276671
0.952044 0.622283 0.365502
0.967638 0.660717 0.467395
0.978835 0.704669 0.572065
0.986641 0.749411 0.659105
0.992189 0.792754 0.731499
0.995988 0.831147 0.788899
0.998663 0.864809 0.835391
1.000003 0.892563 0.871617
1.000003 0.915689 0.900608
1.000003 0.934351 0.923331
1.000003 0.949062 0.940870
1.000003 0.960978 0.954859
1.000003 0.970384 0.965776
1.000003 0.978078 0.974626
0.133020 0.662500 0.024467
0.135324 0.662408 0.024472
0.138447 0.662286 0.024478
0.142619 0.662125 0.024486
0.150767 0.661817 0.024497
0.168470 0.661177 0.024506
0.195763 0.660255 0.024487
0.233272 0.659087 0.024422
0.281998 0.657703 0.024318
0.343693 0.656113 0.024241
0.420930 0.654332 0.024348
0.514095 0.652430 0.024934
0.607039 0.650485 0.026555
0.683732 0.643940 0.034595
0.758442 0.638938 0.055760
0.817073 0.636025 0.083414
0.864406 0.636105 0.122105
0.901790 0.640639 0.178943
0.930479 0.651438 0.261651
0.951651 0.669667 0.352734
0.967426 0.696269 0.456650
0.978738 0.729581 0.565229
0.986611 0.766027 0.655289
0.992194 0.803361 0.729616
0.996008 0.837841 0.788138
0.998688 0.868997 0.835265
1.000003 0.895241 0.871814
1.000003 0.917435 0.900958
1.000003 0.935532 0.923733
1.000003 0.949894 0.941270
1.000003 0.961584 0.955231
1.000003 0.970839 0.966108
1.000003 0.978425 0.974914
0.178390 0.730489 0.036114
0.179827 0.730415 0.036115
0.181800 0.730317 0.036116
0.184485 0.730187 0.036116
0.189886 0.729940 0.036114
0.202250 0.729428 0.036094
0.222692 0.728693 0.036031
0.252785 0.727767 0.035903
0.294172 0.726668 0.035705
0.348859 0.725398 0.035481
0.419408 0.723952 0.035356
0.506702 0.722357 0.035591
0.596895 0.720626 0.036659
0.678692 0.718860 0.039369
0.746943 0.713048 0.049773
0.812944 0.708472 0.076901
0.861639 0.705749 0.112417
0.899901 0.705722 0.164493
0.929208 0.709754 0.244048
0.950814 0.719193 0.336625
0.966893 0.735451 0.441778
0.978411 0.758372 0.554358
0.986415 0.785888 0.648330
0.992083 0.816234 0.725383
0.995947 0.845908 0.785642
0.998657 0.873888 0.833863
1.000003 0.898199 0.871063
1.000003 0.919218 0.900596
1.000003 0.936625 0.923596
1.000003 0.950591 0.941257
1.000003 0.962041 0.955286
1.000003 0.971154 0.966195
1.000003 0.978648 0.975012
0.226739 0.787444 0.052086
0.227698 0.787385 0.052081
0.229023 0.787307 0.052075
0.230842 0.787203 0.052065
0.234554 0.787007 0.052044
0.243293 0.786600 0.051987
0.258387 0.786020 0.051871
0.281781 0.785294 0.051673
0.315659 0.784437 0.051378
0.362517 0.783448 0.051007
0.425227 0.782315 0.050649
0.505008 0.781045 0.050525
0.590132 0.779625 0.051039
0.669708 0.778097 0.052886
0.740318 0.776515 0.057270
0.799650 0.771465 0.070779
0.856853 0.767365 0.105773
0.896782 0.764869 0.152835
0.927119 0.764762 0.225720
0.949405 0.768158 0.318154
0.965961 0.776411 0.423156
0.977808 0.790269 0.538976
0.986029 0.809067 0.637718
0.991841 0.831876 0.718389
0.995797 0.855924 0.781103
0.998565 0.879960 0.830971
1.000003 0.901778 0.869214
1.000003 0.921254 0.899422
1.000003 0.937762 0.922851
1.000003 0.951224 0.940782
1.000003 0.962389 0.954988
1.000003 0.971346 0.966011
1.000003 0.978755 0.974905
0.280016 0.834156 0.073821
0.280676 0.834109 0.073809
0.281593 0.834047 0.073792
0.282857 0.833965 0.073770
0.285460 0.833808 0.073724
0.291699 0.833487 0.073618
0.302785 0.833032 0.073435
0.320616 0.832466 0.073153
0.347542 0.831805 0.072753
0.386405 0.831046 0.072233
0.440497 0.830177 0.071649
0.511106 0.829198 0.071170
0.588465 0.828087 0.071135
0.663693 0.826857 0.072153
0.732548 0.825521 0.075243
0.792169 0.824130 0.082135
0.842724 0.819819 0.099874
0.891843 0.816180 0.146213
0.923998 0.813946 0.211037
0.947348 0.813768 0.300094
0.964602 0.816643 0.402781
0.976913 0.823581 0.519680
0.985442 0.834835 0.623464
0.991462 0.850315 0.708447
0.995553 0.868305 0.774335
0.998410 0.887718 0.826454
1.000003 0.906419 0.866188
1.000003 0.923876 0.897399
1.000003 0.939173 0.921485
1.000003 0.951948 0.939846
1.000003 0.962727 0.954345
1.000003 0.971482 0.965565
1.000003 0.978787 0.974599
0.339551 0.871812 0.103411
0.340010 0.871775 0.103388
0.340650 0.871725 0.103358
0.341537 0.871660 0.103317
0.343376 0.871537 0.103238
0.347847 0.871284 0.103064
0.355970 0.870927 0.102790
0.369403 0.870488 0.102399
0.390364 0.869979 0.101871
0.421733 0.869400 0.101189
0.467051 0.868743 0.100373
0.526590 0.868003 0.099547
0.593642 0.867158 0.098974
0.662087 0.866209 0.099185
0.727305 0.865152 0.101074
0.785576 0.864001 0.106116
0.835025 0.862795 0.116803
0.877789 0.859140 0.141094
0.919264 0.855957 0.204652
0.944427 0.854015 0.286293
0.962733 0.853789 0.383690
0.975695 0.856148 0.498166
0.984640 0.861706 0.606200
0.990940 0.870896 0.695674
0.995211 0.883029 0.765262
0.998190 0.897479 0.820203
1.000003 0.912523 0.861896
1.000003 0.927440 0.894467
1.000003 0.941127 0.919467
1.000003 0.952953 0.938434
1.000003 0.963182 0.953353
1.000003 0.971643 0.964860
1.000003 0.978796 0.974100
0.406989 0.901955 0.144572
0.407305 0.901926 0.144535
0.407746 0.901887 0.144484
0.408363 0.901835 0.144418
0.409651 0.901738 0.144289
0.412833 0.901540 0.144017
0.418741 0.901261 0.143608
0.428755 0.900921 0.143057
0.444811 0.900530 0.142348
0.469575 0.900091 0.141457
0.505820 0.899597 0.140374
0.552089 0.899044 0.139176
0.607039 0.898414 0.138051
0.666365 0.897702 0.137452
0.725770 0.896898 0.138171
0.781058 0.896001 0.141533
0.829480 0.895024 0.149690
0.870189 0.893985 0.166514
0.905798 0.890926 0.201255
0.940035 0.888205 0.281181
0.960122 0.886486 0.369611
0.974060 0.886234 0.477368
0.983582 0.888047 0.587274
0.990251 0.892500 0.680513
0.994761 0.899610 0.753919
0.997897 0.909259 0.812105
1.000003 0.920368 0.856208
1.000003 0.932290 0.890523
1.000003 0.943929 0.916727
1.000003 0.954471 0.936505
1.000003 0.963916 0.951988
1.000003 0.971936 0.963885
1.000003 0.978851 0.973405
0.483490 0.925765 0.203586
0.483698 0.925742 0.203524
0.483992 0.925711 0.203442
0.484404 0.925671 0.203334
0.485276 0.925595 0.203128
0.487472 0.925439 0.202697
0.491630 0.925222 0.202072
0.498769 0.924959 0.201265
0.510232 0.924659 0.200272
0.527684 0.924326 0.199064
0.552898 0.923955 0.197610
0.586599 0.923545 0.195948
0.629005 0.923080 0.194189
0.677627 0.922555 0.192708
0.729181 0.921958 0.192209
0.779629 0.921284 0.193923
0.825655 0.920532 0.199841
0.865590 0.919705 0.213369
0.898658 0.918822 0.238662
0.927301 0.916334 0.277558
0.956217 0.913954 0.364779
0.971799 0.912479 0.462131
0.982182 0.912194 0.569277
0.989362 0.913574 0.664207
0.994183 0.916946 0.740777
0.997522 0.922523 0.802252
0.999759 0.929862 0.849072
1.000003 0.938586 0.885484
1.000003 0.947822 0.913192
1.000003 0.956731 0.934005
1.000003 0.965110 0.950220
1.000003 0.972492 0.962621
1.000003 0.979038 0.972505
0.559972 0.944101 0.281632
0.560075 0.944083 0.281556
0.560222 0.944059 0.281452
0.560432 0.944028 0.281317
0.560887 0.943968 0.281060
0.562081 0.943846 0.280530
0.564449 0.943676 0.279777
0.568685 0.943472 0.278832
0.575737 0.943241 0.277706
0.586858 0.942986 0.276379
0.603566 0.942707 0.274813
0.626943 0.942401 0.273006
0.657966 0.942058 0.270976
0.695696 0.941672 0.268944
0.738186 0.941234 0.267385
0.782189 0.940735 0.267218
0.824354 0.940173 0.269907
0.862427 0.939542 0.277531
0.894941 0.938846 0.292648
0.921131 0.938113 0.317448
0.944911 0.936034 0.358795
0.968476 0.934010 0.456769
0.980285 0.932775 0.555939
0.988215 0.932479 0.649088
0.993456 0.933484 0.727104
0.997058 0.936104 0.791242
0.999457 0.940327 0.840732
1.000003 0.946069 0.879425
1.000003 0.952807 0.908874
1.000003 0.959849 0.930932
1.000003 0.966904 0.948043
1.000003 0.973434 0.961067
1.000003 0.979449 0.971402
0.629778 0.958534 0.365436
0.629817 0.958520 0.365348
0.629874 0.958501 0.365232
0.629960 0.958476 0.365077
0.630160 0.958430 0.364786
0.630732 0.958335 0.364190
0.631969 0.958203 0.363354
0.634330 0.958045 0.362328
0.638453 0.957867 0.361141
0.645215 0.957673 0.359789
0.655763 0.957462 0.358243
0.671145 0.957235 0.356490
0.692571 0.956982 0.354501
0.720128 0.956702 0.352368
0.753108 0.956384 0.350326
0.789428 0.956022 0.348916
0.826273 0.955611 0.349094
0.861218 0.955144 0.352349
0.892273 0.954620 0.360760
0.918064 0.954052 0.376545
0.939266 0.953433 0.402901
0.958310 0.951747 0.446989
0.977379 0.950051 0.550531
0.986607 0.948984 0.637410
0.992491 0.948673 0.714131
0.996459 0.949382 0.779572
0.999075 0.951296 0.831278
1.000003 0.954527 0.872253
1.000003 0.958892 0.903626
1.000003 0.963958 0.927144
1.000003 0.969469 0.945344
1.000003 0.974918 0.959142
1.000003 0.980205 0.970040
0.646288 0.961190 0.389690
0.690873 0.969584 0.455806
0.690881 0.969570 0.455671
0.690897 0.969550 0.455494
0.690951 0.969514 0.455160
0.691162 0.969440 0.454480
0.691727 0.969338 0.453533
0.692950 0.969215 0.452387
0.695248 0.969078 0.451086
0.699208 0.968930 0.449642
0.705637 0.968770 0.448033
0.715378 0.968600 0.446252
0.729538 0.968414 0.444248
0.748678 0.968209 0.442050
0.772923 0.967979 0.439757
0.801301 0.967718 0.437675
0.831895 0.967421 0.436415
0.862580 0.967081 0.437010
0.891191 0.966695 0.441046
0.915886 0.966270 0.450439
0.936800 0.965795 0.468000
0.953525 0.965284 0.496094
0.968266 0.963956 0.537841
0.984136 0.962499 0.632016
0.991148 0.961605 0.704167
0.995672 0.961285 0.768707
0.998589 0.961752 0.821530
1.000003 0.963178 0.864363
1.000003 0.965602 0.897609
1.000003 0.968849 0.922690
1.000003 0.972779 0.942126
1.000003 0.977004 0.956834
1.000003 0.981392 0.968409
0.742454 0.977892 0.547217
0.742438 0.977883 0.547119
0.742420 0.977872 0.546990
0.742400 0.977857 0.546820
0.742375 0.977828 0.546498
0.742389 0.977770 0.545845
0.742578 0.977691 0.544940
0.743143 0.977595 0.543851
0.744358 0.977489 0.542625
0.746611 0.977375 0.541281
0.750443 0.977253 0.539810
0.756477 0.977124 0.538211
0.765588 0.976984 0.536429
0.778442 0.976833 0.534468
0.795551 0.976665 0.532340
0.816730 0.976476 0.530183
0.840958 0.976261 0.528327
0.866722 0.976014 0.527398
0.892064 0.975732 0.528440
0.914949 0.975419 0.532807
0.935049 0.975063 0.542347
0.951585 0.974672 0.558649
0.964499 0.974260 0.582243
0.976342 0.973180 0.617852
0.989071 0.971966 0.698734
0.994593 0.971199 0.760284
0.997961 0.970902 0.812604
1.000003 0.971220 0.856424
1.000003 0.972283 0.891182
1.000003 0.974084 0.917749
1.000003 0.976603 0.938470
1.000003 0.979615 0.954178
1.000003 0.983018 0.966521
0.786671 0.984278 0.626531
0.786647 0.984272 0.626445
0.786616 0.984262 0.626330
0.786578 0.984251 0.626182
0.786515 0.984228 0.625900
0.786426 0.984183 0.625328
0.786407 0.984121 0.624537
0.786594 0.984047 0.623590
0.787167 0.983965 0.622533
0.788375 0.983876 0.621390
0.790574 0.983783 0.620157
0.794196 0.983685 0.618841
0.799875 0.983580 0.617403
0.808202 0.983468 0.615836
0.819779 0.983345 0.614122
0.834854 0.983208 0.612306
0.853096 0.983053 0.610528
0.873674 0.982875 0.609091
0.895112 0.982672 0.608571
0.915498 0.982444 0.609821
0.934201 0.982182 0.614044
0.950142 0.981891 0.622548
0.962934 0.981578 0.636202
0.973171 0.981238 0.655993
0.982218 0.980398 0.684046
0.992812 0.979356 0.754482
0.997067 0.978715 0.805277
0.999668 0.978432 0.848888
1.000003 0.978635 0.884547
1.000003 0.979399 0.912366
1.000003 0.980774 0.934339
1.000003 0.982684 0.951108
1.000003 0.985094 0.964312
0.823102 0.989042 0.691756
0.823075 0.989037 0.691682
0.823039 0.989029 0.691583
0.822995 0.989020 0.691453
0.822916 0.989003 0.691209
0.822780 0.988968 0.690714
0.822658 0.988919 0.690029
0.822643 0.988861 0.689214
0.822855 0.988796 0.688308
0.823458 0.988728 0.687336
0.824683 0.988655 0.686300
0.826822 0.988580 0.685211
0.830317 0.988501 0.684040
0.835627 0.988416 0.682781
0.843295 0.988325 0.681414
0.853720 0.988224 0.679941
0.866975 0.988111 0.678416
0.882767 0.987983 0.676972
0.900176 0.987835 0.675912
0.917648 0.987669 0.675740
0.934470 0.987478 0.677190
0.949406 0.987263 0.681202
0.961787 0.987029 0.688590
0.971947 0.986770 0.700335
0.979814 0.986498 0.716423
0.987079 0.985815 0.739915
0.995569 0.984948 0.799318
0.998961 0.984397 0.842664
1.000003 0.984147 0.878366
1.000003 0.984275 0.906975
1.000003 0.984855 0.929995
1.000003 0.985903 0.947771
1.000003 0.987444 0.961858
0.821333 0.988754 0.688904
0.853908 0.992711 0.746616
0.853873 0.992706 0.746531
0.853827 0.992698 0.746420
0.853745 0.992685 0.746211
0.853593 0.992657 0.745786
0.853424 0.992619 0.745201
0.853304 0.992573 0.744504
0.853316 0.992523 0.743735
0.853564 0.992470 0.742913
0.854198 0.992414 0.742045
0.855413 0.992356 0.741142
0.857503 0.992295 0.740185
0.860803 0.992232 0.739171
0.865741 0.992164 0.738082
0.872715 0.992089 0.736909
0.881982 0.992007 0.735665
0.893588 0.991914 0.734400
0.907100 0.991808 0.733259
0.921430 0.991688 0.732525
0.935968 0.991549 0.732613
0.949491 0.991392 0.734142
0.961143 0.991220 0.737744
0.971003 0.991027 0.744202
0.978825 0.990822 0.753830
0.985078 0.990598 0.767175
0.990631 0.990067 0.785468
0.997672 0.989325 0.836406
1.000003 0.988858 0.872891
1.000003 0.988637 0.901715
1.000003 0.988712 0.925479
1.000003 0.989141 0.944149
1.000003 0.989979 0.959111
0.879143 0.995464 0.791273
0.879118 0.995460 0.791218
0.879084 0.995456 0.791146
0.879041 0.995450 0.791051
0.878962 0.995440 0.790872
0.878811 0.995418 0.790509
0.878628 0.995388 0.790010
0.878462 0.995352 0.789416
0.878370 0.995313 0.788763
0.878422 0.995271 0.788067
0.878716 0.995228 0.787337
0.879381 0.995183 0.786584
