3DLUTS/RED_IPP2CubesSDRCoreV1_13/REC2020/RWG_Log3G10 to REC2020_BT1886 with HIGH_CONTRAST and R_2_Medium size_33 v1.13.cube
# RED Digital Cinema Output Transform LUT for IPP2
# LUT Name = RWG_Log3G10 to REC2020_BT1886 with HIGH_CONTRAST and R_2_Medium size_33 v1.13
# Generated by version 1.13
# Settings used in creation of this LUT are:
# Development Color Space = REC2020
# Output Gamma Curve = BT1886
# Output Tonemap = HIGH_CONTRAST
# Highlight Rolloff = Rolloff 2 - medium
# Resolution = 33 x 33 x 33
TITLE "RED IPP2 LUT to map REDWideGamutRGB/Log3G10 to REC2020/BT1886/HIGH_CONTRAST/Rolloff 2 - medium"
LUT_3D_SIZE 9
0.000000 0.000000 0.000000
0.049586 0.003505 0.003505
0.221401 0.018614 0.012462
0.614266 0.097653 0.069771
0.908791 0.321773 0.262796
0.987099 0.713567 0.672457
1.000003 0.896938 0.882634
1.000003 0.952697 0.946126
1.000003 0.971972 0.967948
0.003505 0.064060 0.003505
0.054596 0.062675 0.003505
0.222804 0.049725 0.010273
0.616323 0.112210 0.068253
0.909648 0.327600 0.263738
0.987313 0.716191 0.674830
1.000003 0.898002 0.883794
1.000003 0.953256 0.946750
1.000003 0.972342 0.968363
0.019457 0.258551 0.004385
0.037129 0.258076 0.004410
0.233427 0.252779 0.005161
0.630600 0.250780 0.054053
0.915688 0.388512 0.267490
0.988833 0.737276 0.691836
1.000003 0.905911 0.892221
1.000003 0.957349 0.951280
1.000003 0.975040 0.971371
0.149541 0.683698 0.028458
0.157150 0.683381 0.028477
0.239855 0.680576 0.028418
0.629446 0.671866 0.031050
0.918768 0.664466 0.220405
0.990203 0.793040 0.701130
1.000003 0.918099 0.901130
1.000003 0.962785 0.956534
1.000003 0.978507 0.974968
0.449915 0.916209 0.176133
0.450957 0.916116 0.175955
0.468039 0.915339 0.174302
0.634048 0.913053 0.167923
0.887206 0.908869 0.206043
0.987343 0.903427 0.636271
1.000003 0.935781 0.888020
1.000003 0.965376 0.952438
1.000003 0.978937 0.972921
0.770138 0.981960 0.596910
0.770072 0.981933 0.596583
0.770364 0.981713 0.593914
0.789336 0.981162 0.586844
0.883839 0.980271 0.578398
0.970013 0.978710 0.628654
0.999901 0.975723 0.852059
1.000003 0.979331 0.937912
1.000003 0.984231 0.965224
0.900492 0.997600 0.828749
0.900410 0.997590 0.828582
0.899855 0.997516 0.827230
0.901076 0.997338 0.824028
0.920839 0.997106 0.819960
0.967129 0.996708 0.819001
0.992374 0.996144 0.842895
1.000003 0.994921 0.919208
1.000003 0.994802 0.953138
0.945475 1.000003 0.906498
0.945419 1.000003 0.906398
0.945000 1.000003 0.905590
0.944680 1.000003 0.903718
0.949920 1.000003 0.901573
0.971248 1.000003 0.899428
0.991183 1.000003 0.902807
0.998552 1.000003 0.914372
1.000003 1.000003 0.940594
0.963023 1.000003 0.936244
0.962982 1.000003 0.936171
0.962658 1.000003 0.935587
0.962198 1.000003 0.934243
0.964285 1.000003 0.932768
0.975993 1.000003 0.931167
0.991134 1.000003 0.931450
0.998099 1.000003 0.935904
1.000003 1.000003 0.941695
0.003505 0.003505 0.057779
0.044927 0.003505 0.057346
0.220775 0.015009 0.033307
0.614062 0.095023 0.079662
0.908789 0.321014 0.267108
0.987105 0.713548 0.673086
1.000003 0.896972 0.882728
1.000003 0.952720 0.946162
1.000003 0.971988 0.967970
0.003505 0.049626 0.052032
0.050054 0.050054 0.050054
0.222076 0.040761 0.029086
0.616008 0.109017 0.078319
0.909607 0.326717 0.268136
0.987310 0.716076 0.675367
1.000003 0.897992 0.883840
1.000003 0.953256 0.946760
1.000003 0.972343 0.968368
0.018244 0.255958 0.006110
0.035022 0.256006 0.006001
0.233630 0.252118 0.006846
0.630308 0.248942 0.061416
0.915651 0.387742 0.271570
0.988830 0.737182 0.692294
1.000003 0.905905 0.892260
1.000003 0.957350 0.951290
1.000003 0.975042 0.971375
0.148898 0.682942 0.030754
0.156602 0.683026 0.030669
0.239451 0.680188 0.030756
0.629355 0.671427 0.033790
0.918738 0.664183 0.224282
0.990202 0.792989 0.701513
1.000003 0.918097 0.901164
1.000003 0.962788 0.956544
1.000003 0.978510 0.974973
0.449536 0.916084 0.177637
0.450984 0.916125 0.177679
0.468049 0.915345 0.176124
0.634042 0.913053 0.169922
0.887236 0.908867 0.208630
0.987342 0.903431 0.636733
1.000003 0.935785 0.888057
1.000003 0.965379 0.952448
1.000003 0.978940 0.972926
0.769938 0.981930 0.596860
0.770151 0.981944 0.597019
0.770440 0.981724 0.594372
0.789394 0.981172 0.587356
0.883868 0.980280 0.578962
0.970028 0.978720 0.629119
0.999902 0.975732 0.852119
1.000003 0.979337 0.937925
1.000003 0.984235 0.965231
0.900391 0.997590 0.828607
0.900455 0.997595 0.828692
0.899900 0.997520 0.827343
0.901118 0.997342 0.824146
0.920867 0.997110 0.820087
0.967142 0.996713 0.819128
0.992381 0.996148 0.843003
1.000003 0.994925 0.919236
1.000003 0.994806 0.953150
0.945413 1.000003 0.906402
0.945448 1.000003 0.906454
0.945028 1.000003 0.905646
0.944707 1.000003 0.903776
0.949943 1.000003 0.901632
0.971260 1.000003 0.899489
0.991189 1.000003 0.902865
0.998555 1.000003 0.914423
1.000003 1.000003 0.940623
0.962978 1.000003 0.936172
0.963002 1.000003 0.936209
0.962679 1.000003 0.935625
0.962219 1.000003 0.934282
0.964303 1.000003 0.932808
0.976004 1.000003 0.931208
0.991140 1.000003 0.931490
0.998102 1.000003 0.935942
1.000003 1.000003 0.941730
0.009058 0.004188 0.239990
0.019146 0.004188 0.240071
0.212883 0.004288 0.239534
0.610542 0.068514 0.221399
0.908266 0.310146 0.318231
0.987067 0.712076 0.679899
1.000003 0.896855 0.883321
1.000003 0.952721 0.946297
1.000003 0.972004 0.968036
0.008701 0.005801 0.239735
0.019525 0.005764 0.239399
0.214149 0.006171 0.238775
0.612482 0.079040 0.220152
0.909085 0.315960 0.319074
0.987271 0.714623 0.682072
1.000003 0.897876 0.884420
1.000003 0.953257 0.946892
1.000003 0.972359 0.968431
0.006815 0.224211 0.229374
0.015520 0.224235 0.228997
0.224722 0.224722 0.224722
0.625877 0.225873 0.203559
0.914833 0.376859 0.322184
0.988723 0.735143 0.697598
1.000003 0.905465 0.892391
1.000003 0.957174 0.951206
1.000003 0.974940 0.971301
0.139563 0.673950 0.086158
0.148027 0.674039 0.085813
0.233925 0.674515 0.082332
0.627572 0.665038 0.098135
0.918013 0.659936 0.272494
0.990109 0.791780 0.705872
1.000003 0.917768 0.901238
1.000003 0.962653 0.956471
1.000003 0.978432 0.974913
0.445758 0.914854 0.203536
0.447254 0.914895 0.203519
0.467458 0.915195 0.203080
0.633550 0.912816 0.200091
0.887376 0.908597 0.243334
0.987249 0.903295 0.642145
1.000003 0.935648 0.888154
1.000003 0.965285 0.952377
1.000003 0.978878 0.972868
0.768271 0.981675 0.598542
0.768489 0.981688 0.598687
0.770981 0.981791 0.599770
0.789788 0.981233 0.593530
0.884058 0.980336 0.585900
0.970138 0.978776 0.634790
0.999884 0.975785 0.852456
1.000003 0.979349 0.937854
1.000003 0.984226 0.965163
0.899581 0.997510 0.827699
0.899646 0.997514 0.827783
0.900246 0.997551 0.828430
0.901436 0.997373 0.825318
0.921080 0.997140 0.821358
0.967242 0.996743 0.820440
0.992158 0.995975 0.841526
1.000003 0.994959 0.919352
1.000003 0.994832 0.953119
0.944923 1.000003 0.905684
0.944957 1.000003 0.905735
0.945248 1.000003 0.906134
0.944919 1.000003 0.904284
0.950115 1.000003 0.902165
0.971353 1.000003 0.900043
0.991234 1.000003 0.903396
0.998581 1.000003 0.914886
1.000003 1.000003 0.940808
0.962620 1.000003 0.935618
0.962644 1.000003 0.935655
0.962842 1.000003 0.935947
0.962378 1.000003 0.934613
0.964443 1.000003 0.933149
0.976090 1.000003 0.931560
0.991184 1.000003 0.931838
0.998127 1.000003 0.936266
1.000003 1.000003 0.942026
0.031913 0.007399 0.637179
0.036255 0.007401 0.637546
0.146636 0.007437 0.639453
0.567334 0.010210 0.636060
0.898094 0.204919 0.608743
0.985310 0.682857 0.726081
1.000003 0.889205 0.882570
1.000003 0.949297 0.943921
1.000003 0.969887 0.966181
0.031645 0.008482 0.638508
0.036280 0.008457 0.638399
0.146899 0.008510 0.640289
0.569123 0.012035 0.636887
0.898927 0.212188 0.609562
0.985524 0.685654 0.727586
1.000003 0.890272 0.883591
1.000003 0.949853 0.944512
1.000003 0.970254 0.966581
0.029657 0.052884 0.644109
0.033822 0.052696 0.644017
0.149352 0.051330 0.642191
0.582396 0.063389 0.639663
0.904734 0.284594 0.613530
0.987046 0.708384 0.738396
1.000003 0.898214 0.891010
1.000003 0.953921 0.948797
1.000003 0.972932 0.969486
0.066337 0.608682 0.620901
0.083433 0.596504 0.608438
0.183463 0.609041 0.619621
0.609199 0.609199 0.609199
0.906629 0.614668 0.588615
0.988247 0.772115 0.742986
1.000003 0.910561 0.898401
1.000003 0.959208 0.953537
1.000003 0.976277 0.972818
0.421632 0.907236 0.484353
0.423268 0.907282 0.484182
0.445388 0.907618 0.482450
0.624164 0.907877 0.473122
0.885845 0.903193 0.510167
0.985252 0.899502 0.689774
1.000003 0.931943 0.885089
1.000003 0.962608 0.949227
1.000003 0.976984 0.970657
0.762791 0.980693 0.646327
0.763024 0.980707 0.646377
0.765733 0.980815 0.646720
0.789280 0.980998 0.646489
0.883742 0.980022 0.646354
0.969791 0.978043 0.691198
0.999396 0.975567 0.851426
1.000003 0.978717 0.934151
1.000003 0.983405 0.962481
0.897551 0.997281 0.831174
0.897617 0.997286 0.831241
0.898239 0.997323 0.831764
0.901940 0.997397 0.832751
0.921373 0.997155 0.829951
0.967383 0.996751 0.829662
0.992510 0.996192 0.851492
1.000003 0.995011 0.917513
1.000003 0.994818 0.950508
0.943771 1.000003 0.905403
0.943805 1.000003 0.905450
0.944101 1.000003 0.905815
0.945334 1.000003 0.906561
0.950441 1.000003 0.904727
0.971522 1.000003 0.902857
0.991320 1.000003 0.906129
0.998631 1.000003 0.917170
1.000003 1.000003 0.940445
0.961795 1.000003 0.934940
0.961819 1.000003 0.934976
0.962019 1.000003 0.935252
0.962705 1.000003 0.935825
0.964725 1.000003 0.934484
0.976260 1.000003 0.933012
0.991270 1.000003 0.933314
0.998178 1.000003 0.937622
1.000003 1.000003 0.943229
0.039157 0.008188 0.895947
0.041063 0.008182 0.896150
0.075735 0.008109 0.897413
0.495243 0.008720 0.897718
0.847232 0.026262 0.890866
0.978608 0.528297 0.871510
0.999232 0.856021 0.902295
1.000003 0.935855 0.941879
1.000003 0.961841 0.962071
0.038912 0.008626 0.896748
0.040961 0.008611 0.896750
0.075617 0.008531 0.898005
0.496238 0.009220 0.898293
0.848180 0.027499 0.891505
0.978865 0.532530 0.872161
0.999298 0.857347 0.902968
1.000003 0.936514 0.942402
1.000003 0.962271 0.962467
0.036487 0.019034 0.901330
0.038297 0.018986 0.901339
0.074065 0.018566 0.901015
0.501971 0.020238 0.901221
0.855254 0.045613 0.895662
0.980687 0.568079 0.876967
0.999772 0.867264 0.907958
1.000003 0.941343 0.946241
1.000003 0.965412 0.965354
0.043117 0.387271 0.901226
0.045006 0.386924 0.901237
0.077569 0.383697 0.901063
0.514115 0.377852 0.898555
0.867386 0.420786 0.895629
0.981856 0.679836 0.882385
1.000003 0.883472 0.913944
1.000003 0.947626 0.950667
1.000003 0.969283 0.968687
0.313875 0.876980 0.883703
0.315901 0.877026 0.883737
0.343347 0.877344 0.883900
0.574672 0.877473 0.882592
0.877117 0.877117 0.877117
0.977691 0.876821 0.868544
0.999424 0.916146 0.906437
1.000003 0.952608 0.946400
1.000003 0.970102 0.965957
0.743865 0.976757 0.838376
0.744137 0.976774 0.838363
0.747330 0.976900 0.838224
0.775342 0.977119 0.837266
0.878899 0.977034 0.833330
0.969158 0.975311 0.847511
0.997563 0.973271 0.883929
1.000003 0.976099 0.932240
1.000003 0.980493 0.957146
0.893523 0.996618 0.873111
0.893593 0.996624 0.873127
0.894265 0.996666 0.873246
0.898393 0.996749 0.873365
0.920354 0.996779 0.872645
0.966947 0.996314 0.875443
0.992403 0.995759 0.888992
1.000003 0.994781 0.921928
1.000003 0.994523 0.946649
0.942093 1.000003 0.916462
0.942129 1.000003 0.916488
0.942437 1.000003 0.916694
0.943767 1.000003 0.917095
0.950342 1.000003 0.917224
0.971417 1.000003 0.916956
0.991290 1.000003 0.919997
0.998627 1.000003 0.928627
1.000003 1.000003 0.943163
0.960740 1.000003 0.939368
0.960765 1.000003 0.939393
0.960969 1.000003 0.939588
0.961697 1.000003 0.939989
0.964803 1.000003 0.940251
0.976272 1.000003 0.939586
0.991277 1.000003 0.940160
0.998189 1.000003 0.943887
1.000003 1.000003 0.948664
0.022489 0.005057 0.979985
0.023062 0.005052 0.980060
0.032316 0.004990 0.980576
0.334362 0.004852 0.980695
0.826037 0.006374 0.979062
0.951614 0.063753 0.972796
0.996527 0.759194 0.962119
1.000003 0.903874 0.964051
1.000003 0.944737 0.970004
0.022185 0.005103 0.980287
0.022838 0.005098 0.980295
0.032015 0.005033 0.980807
0.334227 0.004889 0.980919
0.826805 0.006479 0.979282
0.952010 0.064910 0.973057
0.996618 0.761332 0.962396
1.000003 0.904805 0.964330
1.000003 0.945316 0.970268
0.019576 0.006010 0.982246
0.020118 0.006001 0.982255
0.029337 0.005923 0.982241
0.330797 0.005695 0.982298
0.832105 0.008703 0.980599
0.954999 0.078734 0.974923
0.997260 0.777428 0.964522
1.000003 0.911619 0.966441
1.000003 0.949534 0.972243
0.013213 0.098002 0.981632
0.013553 0.097769 0.981643
0.019381 0.095678 0.981650
0.301333 0.088940 0.980606
0.837264 0.103946 0.979679
0.960352 0.256585 0.976916
0.997776 0.805696 0.968486
1.000003 0.920291 0.969919
1.000003 0.954547 0.975130
0.085399 0.805313 0.976921
0.086432 0.805253 0.976934
0.101972 0.804666 0.976995
0.367243 0.802166 0.976602
0.843735 0.799920 0.974947
0.963447 0.816834 0.973557
0.996456 0.875052 0.968898
1.000003 0.930388 0.970473
1.000003 0.956394 0.975060
0.676201 0.966028 0.968881
0.676581 0.966046 0.968897
0.681250 0.966181 0.969012
0.723926 0.966395 0.969067
0.864240 0.966238 0.968076
0.966028 0.966028 0.966028
0.994069 0.964693 0.962703
1.000003 0.968733 0.965775
1.000003 0.974070 0.971103
0.881651 0.994389 0.955668
0.881732 0.994395 0.955672
0.882511 0.994447 0.955700
0.887493 0.994548 0.955681
0.913808 0.994588 0.955138
0.964749 0.994467 0.953545
0.991733 0.993870 0.957314
1.000003 0.993210 0.959689
1.000003 0.993141 0.964986
0.938026 1.000003 0.956330
0.938065 1.000003 0.956334
0.938402 1.000003 0.956363
0.939905 1.000003 0.956388
0.947440 1.000003 0.956189
0.970252 1.000003 0.955355
0.990826 1.000003 0.957599
0.998420 1.000003 0.961044
1.000003 0.999727 0.964214
0.958573 1.000003 0.961509
0.958599 1.000003 0.961516
0.958818 1.000003 0.961564
0.959617 1.000003 0.961648
0.963110 1.000003 0.961611
0.975620 1.000003 0.961182
0.990958 1.000003 0.962389
0.998033 1.000003 0.964499
1.000003 1.000003 0.966934
0.005716 0.003663 1.000003
0.005760 0.003663 1.000003
0.006532 0.003663 1.000003
0.059842 0.003505 1.000003
0.805027 0.003505 1.000003
0.948609 0.005335 0.998324
0.983729 0.138496 0.994348
1.000003 0.838492 0.989201
1.000003 0.913262 0.988125
0.005627 0.003663 1.000003
0.005688 0.003663 1.000003
0.006431 0.003663 1.000003
0.058843 0.003505 1.000003
0.805809 0.003505 1.000003
0.948970 0.005359 0.998404
0.983906 0.140166 0.994452
1.000003 0.840012 0.989321
1.000003 0.914116 0.988250
0.004994 0.003663 1.000003
0.005028 0.003663 1.000003
0.005684 0.003663 1.000003
0.050896 0.003505 1.000003
0.811208 0.003663 1.000003
0.951565 0.005927 0.998907
0.985250 0.157494 0.995215
1.000003 0.851101 0.990251
1.000003 0.920307 0.989203
0.003897 0.006854 1.000003
0.003897 0.006820 1.000003
0.004051 0.006554 1.000003
0.030674 0.005920 1.000003
0.806929 0.006802 1.000003
0.954082 0.052426 0.998327
0.987748 0.297322 0.996330
1.000003 0.864778 0.992191
1.000003 0.927143 0.991103
0.003825 0.689269 0.998623
0.003825 0.688988 0.998628
0.003955 0.686375 0.998642
0.027809 0.671813 0.998217
0.795395 0.656744 0.997285
0.955511 0.691349 0.996690
0.989260 0.772696 0.995807
1.000003 0.887954 0.993407
1.000003 0.931069 0.992404
0.413572 0.949710 0.994958
0.414234 0.949711 0.994965
0.424616 0.949716 0.995012
0.543760 0.949568 0.995027
0.820922 0.948834 0.994632
0.957685 0.948355 0.993765
0.989889 0.951573 0.993288
0.999425 0.956458 0.992065
1.000003 0.963276 0.991635
0.854514 0.990672 0.991965
0.854610 0.990680 0.991972
0.855587 0.990736 0.992023
0.856420 0.989567 0.990902
0.898947 0.990869 0.991977
0.961452 0.990716 0.991341
0.990650 0.990650 0.990650
0.998452 0.990048 0.989589
1.000003 0.990121 0.989370
0.929680 0.998996 0.988221
0.929723 0.998999 0.988225
0.930105 0.999027 0.988256
0.931897 0.999085 0.988307
0.941115 0.999121 0.988240
0.967810 0.999085 0.987777
0.989880 0.999002 0.987144
0.997990 0.998790 0.988029
1.000003 0.998568 0.987759
0.954241 1.000003 0.986851
0.954270 1.000003 0.986854
0.954512 1.000003 0.986877
0.955420 1.000003 0.986913
0.959509 1.000003 0.986874
0.973830 1.000003 0.986549
0.990186 1.000003 0.986025
0.997653 1.000003 0.986826
1.000003 1.000003 0.987544
0.003663 0.003505 1.000003
0.003663 0.003505 1.000003
0.003721 0.003505 1.000003
0.005798 0.003505 1.000003
0.779499 0.003505 1.000003
0.950924 0.003505 1.000003
0.982941 0.030902 1.000003
0.993533 0.246924 0.999991
1.000003 0.824445 0.997711
0.003663 0.003505 1.000003
0.003663 0.003505 1.000003
0.003721 0.003505 1.000003
0.005688 0.003505 1.000003
0.780322 0.003505 1.000003
0.951313 0.003505 1.000003
0.983109 0.031229 1.000003
0.993634 0.249819 1.000003
1.000003 0.826236 0.997771
0.003505 0.003505 1.000003
0.003505 0.003505 1.000003
0.003663 0.003505 1.000003
0.004935 0.003505 1.000003
0.785991 0.003505 1.000003
0.954154 0.003505 1.000003
0.984361 0.035682 1.000003
0.994400 0.277844 1.000003
1.000003 0.839380 0.998238
0.003505 0.003505 1.000003
0.003505 0.003505 1.000003
0.003505 0.003505 1.000003
0.003850 0.003505 1.000003
0.780987 0.003505 1.000003
0.956434 0.003505 1.000003
0.986481 0.084335 1.000003
0.995844 0.436756 1.000003
1.000003 0.857559 0.999231
0.003505 0.474108 1.000003
0.003505 0.473148 1.000003
0.003505 0.464797 1.000003
0.003505 0.430537 1.000003
0.708227 0.351061 1.000003
0.949303 0.433239 1.000003
0.987524 0.634736 1.000003
0.996777 0.769589 1.000003
1.000003 0.883144 0.999921
0.013161 0.936636 1.000003
0.013224 0.936620 1.000003
0.014990 0.936432 1.000003
0.097618 0.934775 1.000003
0.748034 0.932638 1.000003
0.950717 0.931657 1.000003
0.987909 0.935972 1.000003
0.997112 0.942637 0.999941
1.000003 0.950770 0.999423
0.804180 0.986972 0.999428
0.804269 0.986977 0.999431
0.805358 0.987011 0.999458
0.816154 0.987067 0.999500
0.872740 0.987006 0.999424
0.954754 0.986739 0.999075
0.988657 0.986654 0.998644
0.997300 0.987204 0.998499
1.000003 0.987259 0.998128
0.917964 0.997612 0.998352
0.918011 0.997616 0.998355
0.918443 0.997647 0.998383
0.920654 0.997708 0.998433
0.932474 0.997741 0.998421
0.964714 0.997690 0.998196
0.989164 0.997600 0.997823
0.997590 0.997590 0.997590
1.000003 0.997362 0.997228
0.948713 1.000003 0.997104
0.948744 1.000003 0.997107
0.949008 1.000003 0.997129
0.950047 1.000003 0.997171
0.954916 1.000003 0.997169
0.971545 1.000003 0.996998
0.989520 1.000003 0.996658
0.997269 1.000003 0.996429
1.000003 1.000003 0.996682
0.003505 0.003505 1.000003
0.003505 0.003505 1.000003
0.003505 0.003505 1.000003
0.003663 0.003505 1.000003
0.735467 0.003505 1.000003
0.954422 0.003505 1.000003
0.985059 0.003663 1.000003
0.993232 0.113690 1.000003
0.997120 0.370097 1.000003
0.003505 0.003505 1.000003
0.003505 0.003505 1.000003
0.003505 0.003505 1.000003
0.003663 0.003505 1.000003
0.736047 0.003505 1.000003
0.954838 0.003505 1.000003
0.985234 0.003663 1.000003
0.993331 0.114671 1.000003
0.997191 0.374690 1.000003
0.003505 0.003505 1.000003
0.003505 0.003505 1.000003
0.003505 0.003505 1.000003
0.003505 0.003505 1.000003
0.739460 0.003505 1.000003
0.957911 0.003505 1.000003
0.986507 0.003663 1.000003
0.994082 0.124634 1.000003
0.997728 0.414492 1.000003
0.003505 0.003505 1.000003
0.003505 0.003505 1.000003
0.003505 0.003505 1.000003
0.003505 0.003505 1.000003
0.724489 0.003505 1.000003
0.961109 0.003505 1.000003
0.987712 0.004637 1.000003
0.995472 0.193764 1.000003
0.998748 0.553759 1.000003
0.003505 0.222393 1.000003
0.003505 0.221601 1.000003
0.003505 0.215049 1.000003
0.003505 0.194345 1.000003
0.512673 0.141801 1.000003
0.944857 0.180332 1.000003
0.986540 0.397036 1.000003
0.996287 0.677330 1.000003
0.999432 0.783344 1.000003
0.003505 0.930269 1.000003
0.003505 0.930245 1.000003
0.003505 0.929984 1.000003
0.003505 0.927882 1.000003
0.606613 0.919345 1.000003
0.945029 0.917626 1.000003
0.986625 0.922966 1.000003
0.996526 0.931283 1.000003
0.999678 0.938693 1.000003
0.727448 0.984413 1.000003
0.727518 0.984416 1.000003
0.728843 0.984434 1.000003
0.748064 0.984445 1.000003
0.841959 0.984298 1.000003
0.949303 0.983917 1.000003
0.987339 0.983802 1.000003
0.996683 0.984446 1.000003
0.999757 0.985130 1.000003
0.903961 0.996512 1.000003
0.904004 0.996516 1.000003
0.904415 0.996541 1.000003
0.906999 0.996590 1.000003
0.921960 0.996606 1.000003
0.960577 0.996526 1.000003
0.987854 0.996414 1.000003
0.996983 0.996408 1.000003
0.999870 0.996538 1.000003
0.943070 1.000003 1.000003
0.943103 1.000003 1.000003
0.943385 1.000003 1.000003
0.944560 1.000003 1.000003
0.950304 1.000003 1.000003
0.969409 1.000003 1.000003
0.988955 1.000003 1.000003
0.997064 1.000000 1.000003
1.000003 1.000003 1.000003
