3DLUTS/RED_IPP2CubesSDRCoreV1_13/REC2020/RWG_Log3G10 to REC2020_BT1886 with HIGH_CONTRAST and R_4_VerySoft size_33 v1.13.cube
# RED Digital Cinema Output Transform LUT for IPP2
# LUT Name = RWG_Log3G10 to REC2020_BT1886 with HIGH_CONTRAST and R_4_VerySoft size_33 v1.13
# Generated by version 1.13
# Settings used in creation of this LUT are:
# Development Color Space = REC2020
# Output Gamma Curve = BT1886
# Output Tonemap = HIGH_CONTRAST
# Highlight Rolloff = Rolloff 4 - very soft
# Resolution = 33 x 33 x 33
TITLE "RED IPP2 LUT to map REDWideGamutRGB/Log3G10 to REC2020/BT1886/HIGH_CONTRAST/Rolloff 4 - very soft"
LUT_3D_SIZE 9
0.000000 0.000000 0.000000
0.049586 0.003505 0.003505
0.221401 0.018614 0.012462
0.533659 0.097653 0.069771
0.807072 0.319737 0.262796
0.951960 0.609313 0.576851
1.000001 0.791365 0.773453
1.000001 0.875252 0.863698
1.000001 0.913706 0.904974
0.003505 0.064060 0.003505
0.054596 0.062675 0.003505
0.222804 0.049725 0.010273
0.535139 0.112210 0.068253
0.808242 0.325007 0.263738
0.952587 0.611451 0.578676
1.000001 0.792741 0.774869
1.000001 0.876266 0.864769
1.000001 0.914533 0.905854
0.019457 0.258551 0.004385
0.037129 0.258076 0.004410
0.233427 0.252779 0.005161
0.545503 0.250780 0.054053
0.816631 0.376369 0.267490
0.957156 0.628953 0.591923
1.000001 0.803177 0.785341
1.000001 0.883841 0.872707
1.000001 0.920692 0.912372
0.149541 0.585546 0.028458
0.157150 0.585299 0.028477
0.239855 0.583119 0.028418
0.544659 0.576397 0.031050
0.821012 0.570745 0.220405
0.961442 0.678537 0.599293
1.000001 0.820054 0.796824
1.000001 0.894378 0.882310
1.000001 0.928987 0.920525
0.421918 0.817367 0.176133
0.422643 0.817235 0.175955
0.434302 0.816139 0.174302
0.548029 0.812939 0.167923
0.779066 0.807178 0.206043
0.952677 0.799858 0.549663
1.000001 0.846654 0.780076
1.000001 0.899616 0.874785
1.000001 0.930048 0.915834
0.657525 0.937746 0.521283
0.657466 0.937676 0.521052
0.657727 0.937102 0.519167
0.675070 0.935672 0.514197
0.774924 0.933392 0.508299
0.909400 0.929486 0.544081
0.999475 0.922290 0.738213
1.000001 0.931029 0.850062
1.000001 0.943831 0.899305
0.795986 0.988613 0.713537
0.795879 0.988573 0.713366
0.795153 0.988248 0.711984
0.796753 0.987483 0.708731
0.823999 0.986495 0.704636
0.903251 0.984834 0.703677
0.968614 0.982536 0.728314
1.000001 0.977770 0.821643
1.000001 0.977320 0.876052
0.862587 1.000001 0.803966
0.862493 1.000001 0.803831
0.861780 1.000001 0.802745
0.861237 1.000001 0.800245
0.870293 1.000001 0.797406
0.912102 1.000001 0.794595
0.964616 1.000001 0.799036
0.992885 1.000001 0.814781
1.000001 1.000001 0.854426
0.894854 1.000001 0.847389
0.894770 1.000001 0.847273
0.894126 1.000001 0.846345
0.893212 1.000001 0.844223
0.897393 1.000001 0.841914
0.922927 1.000001 0.839434
0.964457 1.000001 0.839870
0.990819 1.000001 0.846849
1.000001 1.000001 0.856241
0.003505 0.003505 0.057779
0.044927 0.003505 0.057346
0.220775 0.015009 0.033307
0.533512 0.095023 0.079662
0.807069 0.319046 0.267108
0.951978 0.609297 0.577334
1.000001 0.791409 0.773568
1.000001 0.875294 0.863760
1.000001 0.913743 0.905021
0.003505 0.049626 0.052032
0.050054 0.050054 0.050054
0.222076 0.040761 0.029086
0.534913 0.109017 0.078319
0.808186 0.324212 0.268136
0.952578 0.611356 0.579089
1.000001 0.792729 0.774925
1.000001 0.876266 0.864787
1.000001 0.914536 0.905864
0.018244 0.255958 0.006110
0.035022 0.256006 0.006001
0.233630 0.252118 0.006846
0.545290 0.248942 0.061416
0.816580 0.375760 0.271570
0.957149 0.628874 0.592283
1.000001 0.803168 0.785391
1.000001 0.883843 0.872725
1.000001 0.920696 0.912383
0.148898 0.584957 0.030754
0.156602 0.585023 0.030669
0.239451 0.582817 0.030756
0.544593 0.576061 0.033790
0.820969 0.570530 0.224282
0.961437 0.678489 0.599599
1.000001 0.820052 0.796867
1.000001 0.894383 0.882328
1.000001 0.928993 0.920537
0.421654 0.817191 0.177637
0.422661 0.817249 0.177679
0.434308 0.816149 0.176124
0.548025 0.812940 0.169922
0.779104 0.807176 0.208630
0.952673 0.799863 0.550003
1.000001 0.846659 0.780123
1.000001 0.899623 0.874804
1.000001 0.930055 0.915847
0.657345 0.937669 0.521248
0.657536 0.937703 0.521360
0.657796 0.937129 0.519490
0.675124 0.935698 0.514556
0.774958 0.933417 0.508692
0.909432 0.929510 0.544421
0.999477 0.922310 0.738279
1.000001 0.931043 0.850084
1.000001 0.943842 0.899319
0.795854 0.988570 0.713392
0.795938 0.988591 0.713479
0.795211 0.988266 0.712100
0.796808 0.987501 0.708851
0.824039 0.986512 0.704763
0.903278 0.984851 0.703804
0.968635 0.982554 0.728429
1.000001 0.977786 0.821684
1.000001 0.977335 0.876073
0.862482 1.000001 0.803836
0.862541 1.000001 0.803906
0.861828 1.000001 0.802820
0.861283 1.000001 0.800322
0.870333 1.000001 0.797484
0.912128 1.000001 0.794674
0.964635 1.000001 0.799112
0.992900 1.000001 0.814853
1.000001 1.000001 0.854473
0.894764 1.000001 0.847274
0.894812 1.000001 0.847334
0.894167 1.000001 0.846406
0.893252 1.000001 0.844284
0.897429 1.000001 0.841977
0.922953 1.000001 0.839497
0.964475 1.000001 0.839932
0.990833 1.000001 0.846908
1.000001 1.000001 0.856298
0.009058 0.004188 0.239990
0.019146 0.004188 0.240071
0.212883 0.004288 0.239534
0.530986 0.068514 0.221399
0.806358 0.309025 0.316502
0.951865 0.608102 0.582593
1.000001 0.791259 0.774291
1.000001 0.875296 0.863992
1.000001 0.913779 0.905160
0.008701 0.005801 0.239735
0.019525 0.005764 0.239399
0.214149 0.006171 0.238775
0.532377 0.079040 0.220152
0.807474 0.314415 0.317274
0.952464 0.610172 0.584280
1.000001 0.792578 0.775635
1.000001 0.876267 0.865014
1.000001 0.914571 0.906000
0.006815 0.224211 0.229374
0.015520 0.224235 0.228997
0.224722 0.224722 0.224722
0.542058 0.225873 0.203559
0.815428 0.367048 0.320111
0.956820 0.627155 0.596481
1.000001 0.802577 0.785557
1.000001 0.883512 0.872575
1.000001 0.920459 0.912219
0.139563 0.577999 0.086158
0.148027 0.578067 0.085813
0.233925 0.578433 0.082332
0.543292 0.571180 0.098135
0.819932 0.567311 0.272494
0.961144 0.677354 0.603092
1.000001 0.819582 0.796965
1.000001 0.894114 0.882191
1.000001 0.928802 0.920398
0.419013 0.815457 0.203536
0.420061 0.815515 0.203519
0.433912 0.815937 0.203080
0.547664 0.812611 0.200091
0.779277 0.806808 0.243334
0.952399 0.799682 0.553999
1.000001 0.846441 0.780243
1.000001 0.899431 0.874675
1.000001 0.929901 0.915716
0.655855 0.937001 0.522438
0.656050 0.937036 0.522541
0.658281 0.937304 0.523308
0.675492 0.935855 0.518896
0.775191 0.933557 0.513535
0.909671 0.929650 0.548574
0.999386 0.922436 0.738648
1.000001 0.931073 0.849969
1.000001 0.943819 0.899181
0.794795 0.988222 0.712463
0.794879 0.988242 0.712548
0.795664 0.988402 0.713211
0.797226 0.987633 0.710038
0.824348 0.986641 0.706039
0.903488 0.984978 0.705117
0.967876 0.981863 0.726858
1.000001 0.977914 0.821851
1.000001 0.977436 0.876018
0.861649 1.000001 0.802871
0.861706 1.000001 0.802939
0.862202 1.000001 0.803476
0.861643 1.000001 0.800999
0.870638 1.000001 0.798187
0.912333 1.000001 0.795398
0.964785 1.000001 0.799816
0.993021 1.000001 0.815503
1.000001 1.000001 0.854778
0.894049 1.000001 0.846394
0.894097 1.000001 0.846454
0.894492 1.000001 0.846917
0.893569 1.000001 0.844804
0.897713 1.000001 0.842509
0.923156 1.000001 0.840041
0.964619 1.000001 0.840471
0.990948 1.000001 0.847424
1.000001 1.000001 0.856790
0.031913 0.007399 0.550331
0.036255 0.007401 0.550602
0.146636 0.007437 0.552008
0.500637 0.010210 0.549508
0.792861 0.204919 0.529698
0.946827 0.584891 0.619586
1.000001 0.781553 0.773377
1.000001 0.869196 0.859957
1.000001 0.909125 0.901276
0.031645 0.008482 0.551311
0.036280 0.008457 0.551230
0.146899 0.008510 0.552626
0.501871 0.012035 0.550116
0.793942 0.212188 0.530284
0.947430 0.587073 0.620835
1.000001 0.782888 0.774620
1.000001 0.870175 0.860953
1.000001 0.909924 0.902108
0.029657 0.052884 0.555455
0.033822 0.052696 0.555386
0.149352 0.051330 0.554033
0.511085 0.063389 0.552164
0.801599 0.284536 0.533130
0.951805 0.605115 0.629900
1.000001 0.793016 0.783815
1.000001 0.877477 0.868320
1.000001 0.915861 0.908260
0.066337 0.529655 0.538446
0.083433 0.520996 0.529480
0.183463 0.529912 0.537520
0.530025 0.530025 0.530025
0.804142 0.533948 0.515439
0.955376 0.659301 0.633798
1.000001 0.809495 0.793258
1.000001 0.887380 0.876777
1.000001 0.923599 0.915603
0.401654 0.804961 0.445074
0.402859 0.805024 0.444962
0.418753 0.805479 0.443832
0.540812 0.805831 0.437695
0.777385 0.799548 0.462044
0.946664 0.794692 0.590301
1.000001 0.840633 0.776455
1.000001 0.894025 0.869073
1.000001 0.925285 0.910803
0.650986 0.934468 0.557103
0.651193 0.934504 0.557141
0.653593 0.934780 0.557396
0.675017 0.935248 0.557224
0.774805 0.932762 0.557123
0.908918 0.927848 0.591420
0.996922 0.921925 0.737520
1.000001 0.929504 0.844078
1.000001 0.941586 0.893772
0.792157 0.987239 0.716030
0.792242 0.987260 0.716099
0.793049 0.987420 0.716638
0.797890 0.987735 0.717660
0.824773 0.986702 0.714770
0.903784 0.985010 0.714473
0.969079 0.982729 0.737593
1.000001 0.978111 0.819218
1.000001 0.977380 0.871334
0.859704 1.000001 0.802495
0.859762 1.000001 0.802558
0.860260 1.000001 0.803047
0.862346 1.000001 0.804050
0.871215 1.000001 0.801590
0.912708 1.000001 0.799101
0.965068 1.000001 0.803469
0.993254 1.000001 0.818730
1.000001 1.000001 0.854180
0.892415 1.000001 0.845321
0.892462 1.000001 0.845377
0.892856 1.000001 0.845814
0.894219 1.000001 0.846723
0.898286 1.000001 0.844601
0.923558 1.000001 0.842295
0.964903 1.000001 0.842766
0.991177 1.000001 0.849595
1.000001 1.000001 0.858794
0.039157 0.008188 0.790090
0.041063 0.008182 0.790351
0.075735 0.008109 0.791979
0.452203 0.008720 0.792373
0.732966 0.026262 0.783634
0.929233 0.474119 0.760198
0.996116 0.742579 0.798358
1.000001 0.846770 0.856545
1.000001 0.892505 0.892960
0.038912 0.008626 0.791121
0.040961 0.008611 0.791124
0.075617 0.008531 0.792745
0.452857 0.009220 0.793118
0.733989 0.027499 0.784438
0.929869 0.476959 0.760959
0.996443 0.744052 0.799249
1.000001 0.847820 0.857415
1.000001 0.893357 0.893744
0.036487 0.019034 0.797087
0.038297 0.018986 0.797098
0.074065 0.018566 0.796672
0.456629 0.020238 0.796943
0.741729 0.045613 0.789724
0.934451 0.501150 0.766633
0.998814 0.755276 0.805940
1.000001 0.855659 0.863895
1.000001 0.899690 0.899572
0.043117 0.375387 0.796949
0.045006 0.375112 0.796964
0.077569 0.372545 0.796735
0.464662 0.367850 0.793459
0.755417 0.401030 0.789682
0.937473 0.582545 0.773151
1.000001 0.774475 0.814182
1.000001 0.866282 0.871616
1.000001 0.907822 0.906545
0.312489 0.766649 0.774757
0.314360 0.766703 0.774798
0.338927 0.767082 0.774998
0.505711 0.767236 0.773403
0.766811 0.766811 0.766811
0.926991 0.766459 0.756752
0.997063 0.817279 0.803883
1.000001 0.875092 0.864168
1.000001 0.909591 0.900813
0.634548 0.924742 0.723530
0.634780 0.924782 0.723516
0.637516 0.925085 0.723371
0.662213 0.925611 0.722364
0.768942 0.925405 0.718259
0.907554 0.921323 0.733267
0.988453 0.916628 0.775033
1.000001 0.923177 0.841093
1.000001 0.933958 0.883460
0.786993 0.984462 0.762072
0.787082 0.984485 0.762092
0.787938 0.984659 0.762232
0.793248 0.985004 0.762371
0.823295 0.985126 0.761526
0.902870 0.983221 0.764822
0.968712 0.981004 0.781287
1.000001 0.977241 0.825582
1.000001 0.976277 0.864596
0.856902 1.000001 0.817725
0.856960 1.000001 0.817763
0.857472 1.000001 0.818054
0.859698 1.000001 0.818624
0.871039 1.000001 0.818808
0.912474 1.000001 0.818426
0.964967 1.000001 0.822781
0.993237 1.000001 0.835548
1.000001 1.000001 0.858684
0.890346 1.000001 0.852421
0.890393 1.000001 0.852461
0.890793 1.000001 0.852780
0.892221 1.000001 0.853433
0.898446 1.000001 0.853863
0.923588 1.000001 0.852775
0.964926 1.000001 0.853713
0.991224 1.000001 0.859898
1.000001 1.000001 0.868089
0.022489 0.005057 0.932668
0.023062 0.005052 0.932858
0.032316 0.004990 0.934168
0.331041 0.004852 0.934473
0.710770 0.006374 0.930358
0.873305 0.063753 0.915552
0.984089 0.647819 0.893054
1.000001 0.800453 0.896919
1.000001 0.861333 0.909379
0.022185 0.005103 0.933433
0.022838 0.005098 0.933453
0.032015 0.005033 0.934758
0.330922 0.004889 0.935047
0.711551 0.006479 0.930905
0.874014 0.064910 0.916141
0.984461 0.649699 0.893605
1.000001 0.801694 0.897484
1.000001 0.862317 0.909954
0.019576 0.006010 0.938497
0.020118 0.006001 0.938521
0.029337 0.005923 0.938486
0.327871 0.005695 0.938633
0.716991 0.008703 0.934227
0.879457 0.078734 0.920420
0.987149 0.664107 0.897873
1.000001 0.810952 0.901817
1.000001 0.869613 0.914311
0.013213 0.098002 0.936891
0.013553 0.097769 0.936918
0.019381 0.095678 0.936937
0.300728 0.088940 0.934244
0.722362 0.103946 0.931900
0.889590 0.256585 0.925123
0.989384 0.690601 0.906117
1.000001 0.823205 0.909195
1.000001 0.878624 0.920901
0.085399 0.690231 0.925135
0.086432 0.690173 0.925166
0.101972 0.689606 0.925311
0.359181 0.687201 0.924372
0.729211 0.685053 0.920475
0.895702 0.701518 0.917277
0.983798 0.764360 0.906996
1.000001 0.838235 0.910400
1.000001 0.882048 0.920738
0.579733 0.900960 0.906959
0.580026 0.900996 0.906994
0.583642 0.901275 0.907240
0.617803 0.901720 0.907358
0.751814 0.901395 0.905245
0.900960 0.900960 0.900960
0.974603 0.898221 0.894215
1.000001 0.906644 0.900438
1.000001 0.918449 0.911782
0.772261 0.975778 0.880695
0.772358 0.975803 0.880702
0.773304 0.975993 0.880755
0.779422 0.976371 0.880720
0.813993 0.976517 0.879714
0.898335 0.976070 0.876791
0.966443 0.973880 0.883776
1.000001 0.971518 0.888305
1.000001 0.971278 0.898818
0.850246 1.000001 0.881929
0.850308 1.000001 0.881936
0.850854 1.000001 0.881989
0.853297 1.000001 0.882037
0.865959 1.000001 0.881664
0.909919 1.000001 0.880115
0.963449 1.000001 0.884314
0.992277 1.000001 0.890940
1.000001 0.998584 0.897249
0.886163 1.000001 0.891852
0.886213 1.000001 0.891865
0.886632 1.000001 0.891960
0.888167 1.000001 0.892125
0.895026 1.000001 0.892052
0.922048 1.000001 0.891209
0.963880 1.000001 0.893589
0.990524 1.000001 0.897827
1.000001 1.000001 0.902842
0.005716 0.003663 1.000001
0.005760 0.003663 1.000001
0.006532 0.003663 1.000001
0.059842 0.003505 1.000001
0.689955 0.003505 1.000001
0.867991 0.005335 0.991840
0.942463 0.138496 0.975629
1.000001 0.723652 0.958292
1.000001 0.813232 0.955007
0.005627 0.003663 1.000001
0.005688 0.003663 1.000001
0.006431 0.003663 1.000001
0.058843 0.003505 1.000001
0.690711 0.003505 1.000001
0.868622 0.005359 0.992206
0.942945 0.140166 0.976013
1.000001 0.725255 0.958666
1.000001 0.814423 0.955382
0.004994 0.003663 1.000001
0.005028 0.003663 1.000001
0.005684 0.003663 1.000001
0.050896 0.003505 1.000001
0.695967 0.003663 1.000001
0.873217 0.005927 0.994553
0.946659 0.157494 0.978893
1.000001 0.737165 0.961594
1.000001 0.823228 0.958298
0.003897 0.006854 1.000001
0.003897 0.006820 1.000001
0.004051 0.006554 1.000001
0.030674 0.005920 1.000001
0.691796 0.006802 1.000001
0.877771 0.052426 0.991853
0.953877 0.296899 0.983286
1.000001 0.752427 0.967988
1.000001 0.833307 0.964353
0.003825 0.589904 0.993218
0.003825 0.589683 0.993238
0.003955 0.587636 0.993304
0.027809 0.576356 0.991350
0.680756 0.564902 0.987255
0.880404 0.591539 0.984757
0.958474 0.659823 0.981196
1.000001 0.779994 0.972218
1.000001 0.839283 0.968714
0.395660 0.869922 0.977910
0.396156 0.869925 0.977935
0.403849 0.869933 0.978116
0.484533 0.869673 0.978173
0.705600 0.868385 0.976682
0.884476 0.867548 0.973499
0.960446 0.873232 0.971797
0.997069 0.882168 0.967560
1.000001 0.895359 0.966114
0.740912 0.962951 0.967224
0.741018 0.962975 0.967246
0.742098 0.963157 0.967417
0.743022 0.959431 0.963696
0.793969 0.963590 0.967262
0.891740 0.963093 0.965138
0.962878 0.962878 0.962878
0.992423 0.960949 0.959501
1.000001 0.961180 0.958818
0.837152 0.994976 0.955295
0.837218 0.994993 0.955307
0.837802 0.995128 0.955401
0.840562 0.995404 0.955554
0.855282 0.995576 0.955352
0.904683 0.995406 0.953965
0.960415 0.995005 0.952091
0.990331 0.994000 0.954719
1.000001 0.992963 0.953909
0.878064 1.000001 0.951235
0.878117 1.000001 0.951244
0.878559 1.000001 0.951309
0.880235 1.000001 0.951416
0.887958 1.000001 0.951301
0.917900 1.000001 0.950358
0.961387 1.000001 0.948853
0.988845 1.000001 0.951162
1.000001 1.000001 0.953271
0.003663 0.003505 1.000001
0.003663 0.003505 1.000001
0.003721 0.003505 1.000001
0.005798 0.003505 1.000001
0.665994 0.003505 1.000001
0.872074 0.003505 1.000001
0.940340 0.030902 1.000001
0.972669 0.246924 0.999939
1.000001 0.709153 0.989097
0.003663 0.003505 1.000001
0.003663 0.003505 1.000001
0.003721 0.003505 1.000001
0.005688 0.003505 1.000001
0.666746 0.003505 1.000001
0.872767 0.003505 1.000001
0.940789 0.031229 1.000001
0.973030 0.249819 1.000001
1.000001 0.710971 0.989363
0.003505 0.003505 1.000001
0.003505 0.003505 1.000001
0.003663 0.003505 1.000001
0.004935 0.003505 1.000001
0.671962 0.003505 1.000001
0.877904 0.003505 1.000001
0.944190 0.035682 1.000001
0.975819 0.277843 1.000001
1.000001 0.724588 0.991448
0.003505 0.003505 1.000001
0.003505 0.003505 1.000001
0.003505 0.003505 1.000001
0.003850 0.003505 1.000001
0.667354 0.003505 1.000001
0.882123 0.003505 1.000001
0.950162 0.084335 1.000001
0.981342 0.412636 1.000001
1.000001 0.744289 0.996114
0.003505 0.438349 1.000001
0.003505 0.437712 1.000001
0.003505 0.432120 1.000001
0.003505 0.408162 1.000001
0.604988 0.345578 1.000001
0.869207 0.410113 1.000001
0.953212 0.548534 1.000001
0.985119 0.657034 1.000001
1.000001 0.774075 0.999575
0.013161 0.848015 1.000001
0.013224 0.847990 1.000001
0.014990 0.847690 1.000001
0.097618 0.845061 1.000001
0.638121 0.841711 1.000001
0.871704 0.840190 1.000001
0.954359 0.846957 1.000001
0.986520 0.857805 0.999681
1.000001 0.871798 0.997058
0.689138 0.951588 0.997079
0.689224 0.951602 0.997097
0.690274 0.951703 0.997231
0.700844 0.951866 0.997438
0.761637 0.951689 0.997062
0.879004 0.950910 0.995356
0.956618 0.950664 0.993314
0.987320 0.952268 0.992641
1.000001 0.952428 0.990949
0.819861 0.988668 0.991965
0.819929 0.988685 0.991981
0.820547 0.988817 0.992106
0.823731 0.989085 0.992338
0.841457 0.989233 0.992283
0.898264 0.989007 0.991257
0.958177 0.988617 0.989592
0.988573 0.988573 0.988573
1.000001 0.987588 0.987013
0.868173 1.000001 0.986489
0.868228 1.000001 0.986501
0.868689 1.000001 0.986595
0.870518 1.000001 0.986773
0.879303 1.000001 0.986765
0.912758 1.000001 0.986039
0.959286 1.000001 0.984626
0.987187 1.000001 0.983689
1.000001 1.000001 0.984726
0.003505 0.003505 1.000001
0.003505 0.003505 1.000001
0.003505 0.003505 1.000001
0.003663 0.003505 1.000001
0.627428 0.003505 1.000001
0.878394 0.003505 1.000001
0.946124 0.003663 1.000001
0.971599 0.113690 1.000001
0.986557 0.361532 1.000001
0.003505 0.003505 1.000001
0.003505 0.003505 1.000001
0.003505 0.003505 1.000001
0.003663 0.003505 1.000001
0.627916 0.003505 1.000001
0.879160 0.003505 1.000001
0.946612 0.003663 1.000001
0.971949 0.114671 1.000001
0.986857 0.365287 1.000001
0.003505 0.003505 1.000001
0.003505 0.003505 1.000001
0.003505 0.003505 1.000001
0.003505 0.003505 1.000001
0.630801 0.003505 1.000001
0.884905 0.003505 1.000001
0.950237 0.003663 1.000001
0.974651 0.124634 1.000001
0.989175 0.396349 1.000001
0.003505 0.003505 1.000001
0.003505 0.003505 1.000001
0.003505 0.003505 1.000001
0.003505 0.003505 1.000001
0.618268 0.003505 1.000001
0.891065 0.003505 1.000001
0.953772 0.004637 1.000001
0.979884 0.193764 1.000001
0.993800 0.491328 1.000001
0.003505 0.222393 1.000001
0.003505 0.221601 1.000001
0.003505 0.215049 1.000001
0.003505 0.194345 1.000001
0.463705 0.141801 1.000001
0.861538 0.180332 1.000001
0.950333 0.383044 1.000001
0.983114 0.580604 1.000001
0.997102 0.669519 1.000001
0.003505 0.838053 1.000001
0.003505 0.838016 1.000001
0.003505 0.837618 1.000001
0.003505 0.834421 1.000001
0.528177 0.821840 1.000001
0.861829 0.819380 1.000001
0.950579 0.827101 1.000001
0.984084 0.839613 1.000001
0.998336 0.851325 1.000001
0.620721 0.944333 1.000001
0.620779 0.944340 1.000001
0.621881 0.944390 1.000001
0.638147 0.944421 1.000001
0.727318 0.944015 1.000001
0.869206 0.942973 1.000001
0.952665 0.942659 1.000001
0.984729 0.944424 1.000001
0.998737 0.946322 1.000001
0.800568 0.984028 1.000001
0.800625 0.984041 1.000001
0.801173 0.984144 1.000001
0.804642 0.984347 1.000001
0.825630 0.984414 1.000001
0.890027 0.984082 1.000001
0.954193 0.983627 1.000001
0.985978 0.983601 1.000001
0.999313 0.984134 1.000001
0.858529 1.000001 1.000001
0.858584 1.000001 1.000001
0.859056 1.000001 1.000001
0.861035 1.000001 1.000001
0.870973 1.000001 1.000001
0.908093 1.000001 1.000001
0.957532 1.000001 1.000001
0.986320 0.999990 1.000001
1.000001 1.000001 1.000001
