3DLUTS/RED_IPP2CubesSDRCoreV1_13/REC2020/RWG_Log3G10 to REC2020_BT1886 with NO_CONTRAST and R_2_Medium size_33 v1.13.cube
# RED Digital Cinema Output Transform LUT for IPP2
# LUT Name = RWG_Log3G10 to REC2020_BT1886 with NO_CONTRAST and R_2_Medium size_33 v1.13
# Generated by version 1.13
# Settings used in creation of this LUT are:
# Development Color Space = REC2020
# Output Gamma Curve = BT1886
# Output Tonemap = NO_CONTRAST
# Highlight Rolloff = Rolloff 2 - medium
# Resolution = 33 x 33 x 33
TITLE "RED IPP2 LUT to map REDWideGamutRGB/Log3G10 to REC2020/BT1886/NO_CONTRAST/Rolloff 2 - medium"
LUT_3D_SIZE 9
0.000000 0.000000 0.000000
0.114955 0.003505 0.003505
0.306808 0.005674 0.004617
0.564807 0.044409 0.030183
0.801721 0.150924 0.107458
0.932176 0.371422 0.308655
0.984668 0.687590 0.642498
1.000003 0.886581 0.870788
1.000003 0.969049 0.964645
0.003505 0.161052 0.003505
0.135657 0.157380 0.003505
0.323975 0.150426 0.003972
0.588563 0.165697 0.025624
0.817268 0.235335 0.108545
0.939469 0.422718 0.329030
0.987138 0.716280 0.669805
1.000003 0.898506 0.883949
1.000003 0.973174 0.969276
0.012327 0.386745 0.003825
0.121106 0.382417 0.003825
0.340624 0.377220 0.003825
0.605129 0.364526 0.017933
0.828078 0.384155 0.098333
0.944825 0.513847 0.337999
0.989003 0.746456 0.690389
1.000003 0.908654 0.894374
1.000003 0.976494 0.972954
0.096054 0.658848 0.015686
0.169182 0.655473 0.015485
0.324909 0.651023 0.014969
0.599568 0.645077 0.016357
0.827272 0.629966 0.076690
0.945630 0.658662 0.312983
0.989621 0.783284 0.692462
1.000003 0.915666 0.898754
1.000003 0.978336 0.974814
0.279904 0.843048 0.071231
0.302564 0.841361 0.070408
0.380108 0.839318 0.068847
0.581456 0.836428 0.067164
0.800686 0.832253 0.078147
0.940096 0.821925 0.257128
0.988577 0.846451 0.663191
1.000003 0.923191 0.894576
1.000003 0.978731 0.974441
0.533517 0.939093 0.250156
0.538583 0.938344 0.247019
0.563226 0.937510 0.243005
0.644055 0.936451 0.236857
0.789221 0.934845 0.233972
0.914309 0.932358 0.284208
0.985111 0.926393 0.605306
1.000003 0.942966 0.878684
1.000003 0.979235 0.971694
0.765383 0.981395 0.587830
0.764659 0.981100 0.584243
0.767025 0.980785 0.580353
0.781708 0.980428 0.575654
0.829024 0.979948 0.569345
0.908164 0.979169 0.568065
0.968972 0.977883 0.618053
0.999793 0.974856 0.849218
1.000003 0.983958 0.965367
0.899213 0.997488 0.826464
0.898340 0.997387 0.824649
0.897807 0.997282 0.822752
0.898907 0.997168 0.820712
0.906117 0.997036 0.818319
0.929154 0.996847 0.815327
0.966064 0.996518 0.815298
0.992100 0.995941 0.839708
1.000003 0.994596 0.953253
0.963170 1.000003 0.936486
0.962728 1.000003 0.935710
0.962308 1.000003 0.934907
0.962053 1.000003 0.934070
0.962510 1.000003 0.933175
0.965629 1.000003 0.932143
0.975533 1.000003 0.930912
0.990861 1.000003 0.931118
1.000003 1.000003 0.941455
0.003505 0.003505 0.133979
0.104308 0.003505 0.135880
0.303632 0.004037 0.126931
0.563183 0.032373 0.125507
0.801589 0.136947 0.173632
0.932373 0.366978 0.337471
0.984779 0.687788 0.649571
1.000003 0.887129 0.871995
1.000003 0.969288 0.964951
0.003505 0.123183 0.129284
0.124365 0.124365 0.124365
0.319769 0.117591 0.103186
0.585812 0.139322 0.104192
0.816466 0.221887 0.170852
0.939352 0.417409 0.355634
0.987141 0.715558 0.674879
1.000003 0.898563 0.884497
1.000003 0.973232 0.969372
0.008376 0.368679 0.028563
0.109485 0.369491 0.024830
0.336734 0.363361 0.029937
0.602735 0.351772 0.062928
0.827392 0.374992 0.145762
0.944737 0.509658 0.361924
0.989010 0.745951 0.694601
1.000003 0.908731 0.894845
1.000003 0.976553 0.973045
0.089635 0.650563 0.036228
0.164100 0.651602 0.034926
0.321882 0.646736 0.035747
0.598727 0.640593 0.039547
0.826742 0.625978 0.107423
0.945552 0.656625 0.335438
0.989630 0.782955 0.696360
1.000003 0.915752 0.899193
1.000003 0.978396 0.974903
0.275746 0.840346 0.087493
0.301519 0.841051 0.087046
0.378958 0.838915 0.086456
0.580939 0.835937 0.085509
0.801006 0.831745 0.099228
0.940068 0.821529 0.278545
0.988587 0.846375 0.667381
1.000003 0.923275 0.895026
1.000003 0.978791 0.974531
0.529671 0.938163 0.261145
0.539363 0.938520 0.262078
0.563781 0.937671 0.259045
0.644366 0.936596 0.254022
0.789535 0.934976 0.251841
0.914630 0.932493 0.299696
0.985133 0.926523 0.610208
1.000003 0.943064 0.879198
1.000003 0.979292 0.971791
0.763196 0.981068 0.587304
0.765519 0.981217 0.589006
0.767827 0.980900 0.585322
0.782371 0.980541 0.580873
0.829463 0.980059 0.574849
0.908441 0.979280 0.573664
0.969139 0.977997 0.622637
0.999803 0.974956 0.849916
1.000003 0.984012 0.965477
0.898123 0.997381 0.824944
0.898830 0.997433 0.825873
0.898288 0.997327 0.823997
0.899363 0.997214 0.821980
0.906505 0.997082 0.819619
0.929414 0.996893 0.816661
0.966208 0.996566 0.816622
0.992169 0.995989 0.840824
1.000003 0.994639 0.953412
0.962690 1.000003 0.935718
0.962951 1.000003 0.936124
0.962530 1.000003 0.935322
0.962272 1.000003 0.934488
0.962720 1.000003 0.933596
0.965808 1.000003 0.932570
0.975654 1.000003 0.931343
0.990922 1.000003 0.931541
1.000003 1.000003 0.941818
0.004472 0.003505 0.338223
0.062166 0.003505 0.341388
0.293353 0.003663 0.340927
0.554735 0.013983 0.329667
0.797780 0.103730 0.328063
0.931254 0.347827 0.413149
0.984537 0.682635 0.664808
1.000003 0.886151 0.872754
1.000003 0.969082 0.964838
0.004360 0.024126 0.346924
0.070956 0.022740 0.345044
0.308848 0.025895 0.344055
0.577007 0.073292 0.326255
0.812652 0.182437 0.328214
0.938267 0.399141 0.428654
0.986911 0.710940 0.687647
1.000003 0.897642 0.884981
1.000003 0.973033 0.969243
0.004298 0.323368 0.332682
0.071055 0.323787 0.330541
0.324299 0.324299 0.324299
0.592493 0.316010 0.303402
0.822791 0.346186 0.312184
0.943357 0.491966 0.433625
0.988692 0.740958 0.704764
1.000003 0.907420 0.894648
1.000003 0.976210 0.972736
0.071561 0.629979 0.241081
0.146465 0.631079 0.237301
0.311758 0.631386 0.230058
0.593579 0.624202 0.244862
0.822633 0.611404 0.259671
0.944217 0.647644 0.403662
0.989330 0.779371 0.705592
1.000003 0.914621 0.898942
1.000003 0.978090 0.974619
0.265916 0.834747 0.187467
0.293135 0.835492 0.184558
0.373540 0.835950 0.179194
0.577355 0.832623 0.187589
0.800207 0.828292 0.214134
0.938901 0.818849 0.343794
0.988279 0.844759 0.677463
1.000003 0.922408 0.894769
1.000003 0.978508 0.974252
0.523884 0.936728 0.306520
0.534022 0.937094 0.306533
0.562835 0.937396 0.305769
0.643461 0.936252 0.305095
0.789214 0.934569 0.306111
0.914735 0.932080 0.348846
0.984832 0.926277 0.622730
1.000003 0.942723 0.878970
1.000003 0.979057 0.971496
0.760698 0.980669 0.594673
0.763074 0.980819 0.596056
0.768382 0.980956 0.597227
0.782784 0.980587 0.593930
0.829702 0.980096 0.589167
0.908616 0.979309 0.588715
0.969272 0.978029 0.634861
0.999735 0.974995 0.850139
1.000003 0.983916 0.965137
0.896984 0.997265 0.824241
0.897694 0.997317 0.825126
0.898738 0.997367 0.825968
0.899785 0.997252 0.824078
0.906858 0.997119 0.821861
0.929647 0.996929 0.819058
0.966339 0.996602 0.819081
0.992233 0.996028 0.842834
1.000003 0.994667 0.953113
0.962199 1.000003 0.935015
0.962460 1.000003 0.935415
0.962748 1.000003 0.935802
0.962487 1.000003 0.934980
0.962924 1.000003 0.934103
0.965983 1.000003 0.933092
0.975770 1.000003 0.931884
0.990981 1.000003 0.932081
1.000003 1.000003 0.940977
0.014851 0.004617 0.594211
0.051871 0.004631 0.598894
0.264795 0.004668 0.600335
0.522688 0.005135 0.597423
0.783642 0.050485 0.577224
0.925955 0.286329 0.582219
0.983126 0.659384 0.702560
1.000003 0.880112 0.872467
1.000003 0.967421 0.963396
0.014511 0.014582 0.611128
0.053353 0.014019 0.610466
0.272753 0.014572 0.611690
0.543246 0.018698 0.608564
0.798208 0.094507 0.585262
0.933107 0.339819 0.594009
0.985585 0.689632 0.720015
1.000003 0.891974 0.884042
1.000003 0.971481 0.967842
0.014675 0.228694 0.611905
0.050264 0.226385 0.611343
0.280608 0.224651 0.607353
0.560776 0.234221 0.605035
0.807920 0.275059 0.580694
0.938244 0.437204 0.597916
0.987423 0.722234 0.733177
1.000003 0.902099 0.893231
1.000003 0.974746 0.971370
0.034522 0.577305 0.590436
0.086617 0.578114 0.590014
0.287143 0.578169 0.586529
0.578473 0.578473 0.578473
0.806766 0.568366 0.552859
0.938453 0.615720 0.580886
0.987910 0.763903 0.733314
1.000003 0.909133 0.896745
1.000003 0.976487 0.973054
0.237663 0.820321 0.482738
0.267858 0.821113 0.480672
0.355162 0.821612 0.476263
0.586325 0.812304 0.506579
0.796362 0.816518 0.489571
0.933690 0.808798 0.524083
0.986798 0.837556 0.708104
1.000003 0.918108 0.892449
1.000003 0.976991 0.972675
0.510717 0.933436 0.459125
0.521626 0.933829 0.457918
0.552961 0.934154 0.455789
0.638464 0.934291 0.451106
0.786810 0.932392 0.460765
0.914134 0.929847 0.496762
0.983336 0.924660 0.661007
1.000003 0.940804 0.876567
1.000003 0.977760 0.969793
0.756960 0.979986 0.631777
0.759423 0.980141 0.632422
0.765056 0.980283 0.632863
0.782278 0.980391 0.632657
0.829213 0.979862 0.631760
0.908423 0.979040 0.633691
0.969285 0.977764 0.671723
0.999366 0.974808 0.849175
1.000003 0.983281 0.963146
0.895679 0.997114 0.827222
0.896396 0.997167 0.827983
0.897475 0.997217 0.828701
0.886983 0.995519 0.808262
0.907083 0.997124 0.827627
0.929778 0.996930 0.825384
0.966417 0.996599 0.825696
0.992280 0.996028 0.848131
1.000003 0.994644 0.951136
0.961686 1.000003 0.934664
0.961946 1.000003 0.935049
0.962238 1.000003 0.935421
0.962687 1.000003 0.935776
0.963113 1.000003 0.934950
0.966142 1.000003 0.933999
0.975874 1.000003 0.932853
0.991034 1.000003 0.933070
1.000003 1.000003 0.943074
0.027376 0.006164 0.798726
0.051081 0.006168 0.802181
0.209860 0.006180 0.803923
0.485591 0.006639 0.803354
0.738442 0.011142 0.798314
0.913492 0.142081 0.778719
0.979605 0.591015 0.789194
0.999398 0.864173 0.878306
1.000003 0.963304 0.960515
0.026766 0.012361 0.811943
0.051028 0.012050 0.812018
0.212109 0.012147 0.813618
0.499767 0.013859 0.812829
0.753119 0.023458 0.808150
0.921034 0.188433 0.787951
0.982306 0.627326 0.799729
1.000003 0.877249 0.888080
1.000003 0.967688 0.965029
0.026013 0.078392 0.817028
0.047604 0.076158 0.817187
0.213286 0.073918 0.815632
0.510418 0.077716 0.815307
0.765653 0.102755 0.812062
0.926332 0.306724 0.793220
0.984311 0.668012 0.807990
1.000003 0.888492 0.895986
1.000003 0.971214 0.968627
0.036752 0.457436 0.812599
0.061370 0.455458 0.812803
0.212780 0.452693 0.811675
0.522627 0.451097 0.808189
0.775769 0.466375 0.805863
0.925998 0.531743 0.789439
0.984744 0.722729 0.809568
1.000003 0.896555 0.899174
1.000003 0.973073 0.970316
0.150870 0.785541 0.795076
0.193256 0.786241 0.795472
0.301309 0.786597 0.794874
0.536902 0.786339 0.791966
0.786313 0.786313 0.786313
0.921174 0.780143 0.770579
0.983126 0.815925 0.797596
1.000003 0.907180 0.895152
1.000003 0.973364 0.969558
0.474697 0.924932 0.731576
0.487197 0.925357 0.731124
0.523746 0.925712 0.730104
0.621310 0.925870 0.727371
0.778996 0.925632 0.721669
0.911754 0.922783 0.737098
0.979692 0.918834 0.765661
0.999910 0.935772 0.880545
1.000003 0.974664 0.966417
0.748773 0.978300 0.736702
0.751409 0.978470 0.736551
0.757557 0.978626 0.736223
0.776371 0.978747 0.735321
0.826377 0.978763 0.732931
0.907070 0.977826 0.738897
0.968917 0.976534 0.761217
0.998458 0.973956 0.857500
1.000003 0.981785 0.959228
0.893755 0.996830 0.843403
0.894490 0.996886 0.843858
0.895620 0.996939 0.844277
0.898391 0.996986 0.844598
0.906857 0.997019 0.844636
0.929551 0.996806 0.844114
0.966316 0.996459 0.845368
0.992270 0.995890 0.863995
1.000003 0.994526 0.947559
0.961099 1.000003 0.935773
0.961361 1.000003 0.936113
0.961657 1.000003 0.936441
0.962122 1.000003 0.936753
0.963247 1.000003 0.937025
0.966246 1.000003 0.936285
0.975934 1.000003 0.935362
0.991064 1.000003 0.935681
1.000003 1.000003 0.945144
0.031337 0.006529 0.918144
0.044873 0.006484 0.920118
0.123942 0.006403 0.921232
0.421899 0.006571 0.921367
0.715058 0.008312 0.919594
0.874251 0.026069 0.913665
0.973168 0.407880 0.897960
0.998027 0.828336 0.909216
1.000003 0.955657 0.959189
0.029820 0.009212 0.925806
0.043456 0.009040 0.925993
0.122246 0.008873 0.927008
0.429749 0.009260 0.927054
0.726720 0.013060 0.925153
0.882957 0.036622 0.919791
0.976286 0.455834 0.903976
0.998845 0.844427 0.915441
1.000003 0.960696 0.963403
0.027078 0.034676 0.929181
0.038497 0.033764 0.929410
0.117483 0.032593 0.928756
0.431011 0.033395 0.928853
0.735352 0.040310 0.927484
0.890536 0.075922 0.923719
0.978571 0.520642 0.909028
0.999459 0.858401 0.920766
1.000003 0.964748 0.966822
0.029438 0.254091 0.928792
0.040873 0.248774 0.929018
0.111080 0.241432 0.928510
0.435438 0.236698 0.927126
0.742037 0.253681 0.926235
0.896561 0.324215 0.923757
0.978879 0.615320 0.911834
0.999662 0.868855 0.923840
1.000003 0.966851 0.968501
0.077684 0.710522 0.922974
0.093726 0.709853 0.923277
0.166418 0.708643 0.923155
0.443486 0.706675 0.922110
0.750372 0.705706 0.919673
0.901098 0.717665 0.917975
0.976684 0.764913 0.909095
0.999328 0.884643 0.923102
1.000003 0.967232 0.967924
0.382110 0.905845 0.911527
0.396040 0.906260 0.911871
0.440542 0.906583 0.911995
0.570327 0.906668 0.911448
0.762447 0.906353 0.909486
0.906221 0.906221 0.906221
0.972980 0.903120 0.898349
0.998379 0.923990 0.916038
1.000003 0.969031 0.964832
0.727476 0.973967 0.880331
0.730467 0.974157 0.880313
0.737652 0.974331 0.880192
0.759703 0.974466 0.879732
0.816922 0.974490 0.878292
0.902918 0.974301 0.875362
0.967656 0.972891 0.883744
0.996786 0.971093 0.900940
1.000003 0.979130 0.957896
0.889662 0.996085 0.890108
0.890441 0.996148 0.890188
0.891659 0.996208 0.890236
0.894690 0.996262 0.890199
0.903954 0.996299 0.889893
0.928197 0.996287 0.888922
0.965659 0.995886 0.891738
0.992082 0.995315 0.902733
1.000003 0.994160 0.948084
0.960242 1.000003 0.942132
0.960510 1.000003 0.942359
0.960814 1.000003 0.942576
0.961302 1.000003 0.942777
0.962502 1.000003 0.942939
0.966155 1.000003 0.942990
0.975839 1.000003 0.942748
0.991017 1.000003 0.943402
1.000003 1.000003 0.951300
0.021732 0.004985 0.976463
0.027129 0.004925 0.977373
0.055245 0.004841 0.977968
0.281221 0.004769 0.977936
0.677318 0.005028 0.977428
0.863252 0.007930 0.975261
0.947313 0.056221 0.969824
0.995651 0.740413 0.958923
1.000003 0.940853 0.967584
0.019215 0.005367 0.980001
0.024650 0.005314 0.980123
0.050872 0.005201 0.980667
0.277613 0.005098 0.980586
0.687307 0.005449 0.980053
0.870750 0.009983 0.977845
0.951740 0.067019 0.972797
0.996683 0.764098 0.962019
1.000003 0.947240 0.970534
0.015884 0.009553 0.981923
0.020060 0.009238 0.982067
0.045125 0.008875 0.981897
0.265927 0.008567 0.981758
0.692172 0.010159 0.981158
0.876159 0.024396 0.978866
0.955675 0.095848 0.975072
0.997453 0.784983 0.964853
1.000003 0.952353 0.973058
0.012278 0.080289 0.980839
0.015372 0.078251 0.980977
0.034228 0.075478 0.980830
0.244984 0.071818 0.980003
0.688940 0.075009 0.979633
0.880009 0.097091 0.978517
0.958913 0.218837 0.976074
0.997664 0.801655 0.967270
1.000003 0.954891 0.974667
0.019206 0.558062 0.978860
0.023463 0.554264 0.978988
0.049177 0.548177 0.978833
0.238438 0.539228 0.978194
0.693219 0.534905 0.977237
0.882916 0.555876 0.976469
0.961253 0.628238 0.974959
0.997129 0.831545 0.968545
1.000003 0.955353 0.975105
0.162009 0.867757 0.974160
0.172905 0.867647 0.974336
0.218258 0.867375 0.974412
0.406172 0.866703 0.974210
0.704187 0.865518 0.973469
0.887306 0.865001 0.972050
0.962879 0.871882 0.971056
0.995799 0.898611 0.966915
1.000003 0.958753 0.974147
0.667516 0.964881 0.967803
0.671402 0.965078 0.967981
0.681552 0.965256 0.968118
0.713092 0.965380 0.968127
0.790452 0.965365 0.967753
0.894886 0.965132 0.966640
0.965017 0.965017 0.965017
0.993920 0.963673 0.961612
1.000003 0.973714 0.970685
0.879473 0.994172 0.954288
0.880336 0.994244 0.954335
0.881726 0.994313 0.954363
0.885264 0.994376 0.954339
0.896107 0.994420 0.954147
0.923808 0.994410 0.953477
0.963749 0.994302 0.952162
0.991504 0.993691 0.956061
1.000003 0.992953 0.964391
0.958456 1.000003 0.960781
0.958737 1.000003 0.960853
0.959061 1.000003 0.960918
0.959588 1.000003 0.960971
0.960900 1.000003 0.960988
0.964903 1.000003 0.960892
0.975266 1.000003 0.960530
0.990735 1.000003 0.961718
1.000003 1.000003 0.966395
0.006207 0.003663 0.999508
0.006680 0.003663 0.999807
0.010116 0.003663 1.000003
0.050346 0.003663 1.000003
0.580458 0.003505 0.999770
0.851874 0.003663 0.999308
0.944364 0.005277 0.997501
0.982031 0.126470 0.993328
1.000003 0.907530 0.986887
0.005302 0.003663 1.000003
0.005760 0.003663 1.000003
0.008039 0.003663 1.000003
0.041829 0.003505 1.000003
0.586688 0.003505 1.000003
0.859503 0.003663 1.000003
0.948440 0.005406 0.998442
0.984002 0.142706 0.994497
1.000003 0.916948 0.988264
0.004571 0.003721 1.000003
0.004814 0.003721 1.000003
0.006383 0.003663 1.000003
0.033152 0.003663 1.000003
0.586103 0.003663 1.000003
0.864949 0.003721 1.000003
0.951553 0.007473 0.998903
0.985774 0.174276 0.995467
1.000003 0.924396 0.989540
0.003936 0.005595 1.000003
0.004037 0.005402 1.000003
0.004643 0.005214 1.000003
0.022980 0.004985 1.000003
0.560147 0.004841 1.000003
0.863171 0.006284 1.000003
0.952600 0.042688 0.998256
0.987292 0.270102 0.996103
1.000003 0.927722 0.990707
0.003663 0.196398 0.999346
0.003721 0.191324 0.999400
0.003897 0.184943 0.999385
0.010979 0.173606 0.999100
0.508427 0.159579 0.998378
0.855211 0.172128 0.998058
0.953619 0.250269 0.997420
0.988446 0.579027 0.996131
1.000003 0.928216 0.991705
0.004705 0.801958 0.997781
0.004889 0.800702 0.997835
0.006302 0.798618 0.997808
0.043083 0.793314 0.997466
0.514377 0.786952 0.996931
0.857477 0.784781 0.996403
0.954456 0.796704 0.995950
0.989167 0.834829 0.995190
1.000003 0.935838 0.992208
0.395009 0.948083 0.994742
0.401290 0.948102 0.994816
0.426687 0.948085 0.994872
0.516473 0.947966 0.994869
0.695083 0.947602 0.994712
0.865461 0.946955 0.994289
0.956382 0.946693 0.993589
0.989617 0.950054 0.993099
1.000003 0.962655 0.991401
0.851696 0.990364 0.991680
0.852724 0.990444 0.991753
0.854542 0.990520 0.991820
0.859523 0.990586 0.991866
0.874921 0.990627 0.991848
0.912090 0.990597 0.991643
0.960329 0.990465 0.991104
0.990396 0.990396 0.990396
1.000003 0.989874 0.989097
0.954144 1.000003 0.986469
0.954451 1.000003 0.986502
0.954811 1.000003 0.986530
0.955411 1.000003 0.986551
0.956942 1.000003 0.986550
0.961622 1.000003 0.986475
0.973451 1.000003 0.986195
0.989955 1.000003 0.985664
1.000003 1.000003 0.987236
0.003505 0.003505 1.000003
0.003505 0.003505 1.000003
0.003505 0.003505 1.000003
0.003663 0.003505 1.000003
0.028333 0.003505 1.000003
0.834699 0.003505 1.000003
0.949801 0.003505 1.000003
0.983437 0.003663 1.000003
0.996588 0.339917 1.000003
0.003505 0.003505 1.000003
0.003505 0.003505 1.000003
0.003505 0.003505 1.000003
0.003505 0.003505 1.000003
0.018978 0.003505 1.000003
0.843789 0.003505 1.000003
0.954476 0.003505 1.000003
0.985396 0.003505 1.000003
0.997365 0.386498 1.000003
0.003505 0.003505 1.000003
0.003505 0.003505 1.000003
0.003505 0.003505 1.000003
0.003505 0.003505 1.000003
0.011714 0.003505 1.000003
0.850741 0.003505 1.000003
0.958342 0.003505 1.000003
0.986973 0.003663 1.000003
0.998065 0.446881 1.000003
0.003505 0.003505 1.000003
0.003505 0.003505 1.000003
0.003505 0.003505 1.000003
0.003505 0.003505 1.000003
0.006644 0.003505 1.000003
0.850480 0.003505 1.000003
0.959969 0.003505 1.000003
0.987568 0.004037 1.000003
0.998679 0.539440 1.000003
0.003505 0.003505 1.000003
0.003505 0.003505 1.000003
0.003505 0.003505 1.000003
0.003505 0.003505 1.000003
0.004104 0.003505 1.000003
0.820005 0.003505 1.000003
0.953274 0.003663 1.000003
0.986236 0.080340 1.000003
0.999179 0.674917 1.000003
0.003505 0.603952 1.000003
0.003505 0.596410 1.000003
0.003505 0.586678 1.000003
0.003505 0.569031 1.000003
0.003505 0.518237 1.000003
0.757116 0.443491 1.000003
0.942148 0.494339 1.000003
0.986163 0.646438 1.000003
0.999516 0.828832 1.000003
0.003505 0.927755 1.000003
0.003505 0.927490 1.000003
0.003505 0.926966 1.000003
0.003505 0.925434 1.000003
0.017406 0.919802 1.000003
0.767071 0.915139 1.000003
0.943019 0.914132 1.000003
0.986238 0.919788 1.000003
0.999676 0.936726 1.000003
0.717244 0.983906 1.000003
0.717887 0.983933 1.000003
0.721500 0.983953 1.000003
0.736276 0.983955 1.000003
0.781987 0.983902 1.000003
0.868132 0.983721 1.000003
0.947525 0.983409 1.000003
0.986964 0.983287 1.000003
0.999755 0.984686 1.000003
0.942834 1.000003 1.000003
0.943187 1.000003 1.000003
0.943618 1.000003 1.000003
0.944405 1.000003 1.000003
0.946546 1.000003 1.000003
0.953133 1.000003 1.000003
0.968869 1.000003 1.000003
0.988678 1.000003 1.000003
1.000003 1.000003 1.000003
