3DLUTS/RED_IPP2CubesSDRCoreV1_13/REC2020/RWG_Log3G10 to REC2020_BT1886 with HIGH_CONTRAST and R_2_Medium size_33 v1.13.cube
# RED Digital Cinema Output Transform LUT for IPP2
# LUT Name = RWG_Log3G10 to REC2020_BT1886 with HIGH_CONTRAST and R_2_Medium size_33 v1.13
# Generated by version 1.13
# Settings used in creation of this LUT are:
# Development Color Space = REC2020
# Output Gamma Curve = BT1886
# Output Tonemap = HIGH_CONTRAST
# Highlight Rolloff = Rolloff 2 - medium
# Resolution = 33 x 33 x 33
TITLE "RED IPP2 LUT to map REDWideGamutRGB/Log3G10 to REC2020/BT1886/HIGH_CONTRAST/Rolloff 2 - medium"
LUT_3D_SIZE 33
0.000000 0.000000 0.000000
0.000001 0.000000 0.000000
0.000008 0.000000 0.000000
0.013580 0.003505 0.003505
0.049586 0.003505 0.003505
0.081294 0.003505 0.003505
0.117495 0.004021 0.003761
0.163671 0.007795 0.005848
0.221401 0.018614 0.012462
0.292081 0.032677 0.022513
0.378005 0.049126 0.034418
0.490063 0.069776 0.049457
0.614266 0.097653 0.069771
0.717171 0.134178 0.096179
0.799908 0.184554 0.133355
0.862939 0.246292 0.188696
0.908791 0.321773 0.262796
0.941105 0.414804 0.351877
0.963126 0.525937 0.459748
0.977549 0.627811 0.574454
0.987099 0.713567 0.672457
0.993202 0.781077 0.749882
0.997004 0.831541 0.807771
0.999435 0.869458 0.851212
1.000003 0.896938 0.882634
1.000003 0.917569 0.906175
1.000003 0.932655 0.923356
1.000003 0.944109 0.936377
1.000003 0.952697 0.946126
1.000003 0.959091 0.953374
1.000003 0.964092 0.959037
1.000003 0.968194 0.963678
1.000003 0.971972 0.967948
0.000000 0.000001 0.000000
0.000001 0.000001 0.000000
0.000010 0.000001 0.000000
0.017613 0.003505 0.003505
0.050407 0.003505 0.003505
0.081738 0.003505 0.003505
0.117797 0.004717 0.003721
0.163909 0.010312 0.005691
0.221621 0.021692 0.012115
0.292312 0.035595 0.022151
0.378272 0.051764 0.034080
0.490435 0.072114 0.049170
0.614588 0.099720 0.069540
0.717448 0.136071 0.096011
0.800135 0.186026 0.133264
0.863117 0.247379 0.188709
0.908925 0.322656 0.262947
0.941202 0.415596 0.352150
0.963195 0.526631 0.460149
0.977597 0.628339 0.574868
0.987133 0.713973 0.672827
0.993225 0.781395 0.750198
0.997020 0.831793 0.808035
0.999446 0.869660 0.851430
1.000003 0.897104 0.882815
1.000003 0.917706 0.906327
1.000003 0.932771 0.923485
1.000003 0.944209 0.936489
1.000003 0.952784 0.946223
1.000003 0.959169 0.953462
1.000003 0.964162 0.959116
1.000003 0.968258 0.963750
1.000003 0.972029 0.968013
0.000000 0.000040 0.000000
0.000001 0.000037 0.000000
0.000013 0.000033 0.000000
0.021588 0.003505 0.003505
0.051488 0.003505 0.003505
0.082333 0.004298 0.003505
0.118203 0.007522 0.003721
0.164230 0.015600 0.005495
0.221917 0.026673 0.011646
0.292623 0.040001 0.021658
0.378631 0.055585 0.033623
0.490937 0.075430 0.048781
0.615022 0.102621 0.069225
0.717821 0.138708 0.095782
0.800441 0.188030 0.133137
0.863357 0.248863 0.188724
0.909106 0.323862 0.263148
0.941334 0.416675 0.352518
0.963288 0.527574 0.460689
0.977662 0.629054 0.575425
0.987178 0.714524 0.673327
0.993256 0.781825 0.750623
0.997041 0.832133 0.808390
0.999461 0.869934 0.851723
1.000003 0.897327 0.883059
1.000003 0.917892 0.906532
1.000003 0.932928 0.923660
1.000003 0.944343 0.936639
1.000003 0.952902 0.946354
1.000003 0.959274 0.953579
1.000003 0.964257 0.959222
1.000003 0.968344 0.963846
1.000003 0.972108 0.968100
0.003505 0.039311 0.003505
0.003505 0.038904 0.003505
0.003505 0.038343 0.003505
0.025681 0.037577 0.003505
0.052882 0.034841 0.003505
0.083116 0.028580 0.003505
0.118740 0.022921 0.003663
0.164655 0.026650 0.005256
0.222308 0.035130 0.011031
0.293036 0.046779 0.021005
0.379110 0.061176 0.033014
0.491603 0.080155 0.048260
0.615597 0.106688 0.068800
0.718316 0.142373 0.095470
0.800847 0.190726 0.132961
0.863676 0.250869 0.188736
0.909345 0.325491 0.263412
0.941508 0.418131 0.353006
0.963412 0.528836 0.461407
0.977749 0.630010 0.576166
0.987237 0.715258 0.673990
0.993297 0.782396 0.751189
0.997070 0.832587 0.808861
0.999481 0.870298 0.852113
1.000003 0.897625 0.883384
1.000003 0.918139 0.906804
1.000003 0.933137 0.923891
1.000003 0.944522 0.936839
1.000003 0.953058 0.946529
1.000003 0.959413 0.953734
1.000003 0.964382 0.959362
1.000003 0.968459 0.963974
1.000003 0.972211 0.968216
0.003505 0.064060 0.003505
0.003505 0.063848 0.003505
0.003505 0.063559 0.003505
0.016877 0.063170 0.003505
0.054596 0.062675 0.003505
0.084100 0.059736 0.003505
0.119419 0.055412 0.003663
0.165191 0.050480 0.004985
0.222804 0.049725 0.010273
0.293559 0.057120 0.020188
0.379716 0.069205 0.032242
0.492446 0.086703 0.047593
0.616323 0.112210 0.068253
0.718940 0.147269 0.095063
0.801360 0.194194 0.132727
0.864078 0.253464 0.188739
0.909648 0.327600 0.263738
0.941729 0.420009 0.353619
0.963568 0.530452 0.462314
0.977858 0.631230 0.577101
0.987313 0.716191 0.674830
0.993349 0.783122 0.751904
0.997106 0.833161 0.809458
0.999507 0.870758 0.852606
1.000003 0.898002 0.883794
1.000003 0.918451 0.907148
1.000003 0.933401 0.924184
1.000003 0.944749 0.937091
1.000003 0.953256 0.946750
1.000003 0.959589 0.953931
1.000003 0.964541 0.959540
1.000003 0.968603 0.964136
1.000003 0.972342 0.968363
0.003505 0.096290 0.003505
0.003663 0.096159 0.003505
0.004270 0.095982 0.003505
0.011990 0.095744 0.003505
0.048742 0.095442 0.003505
0.086295 0.094778 0.003505
0.120942 0.091650 0.003505
0.166393 0.088160 0.004516
0.223908 0.085867 0.008782
0.294723 0.086485 0.018421
0.381062 0.091621 0.030530
0.494307 0.103902 0.046092
0.617920 0.126149 0.067000
0.720314 0.158264 0.094114
0.802488 0.202102 0.132156
0.864963 0.259441 0.188692
0.910315 0.332456 0.264430
0.942214 0.424311 0.354959
0.963912 0.534099 0.464316
0.978099 0.633966 0.579165
0.987479 0.718275 0.676681
0.993463 0.784736 0.753482
0.997186 0.834436 0.810775
0.999564 0.871779 0.853695
1.000003 0.898836 0.884701
1.000003 0.919142 0.907908
1.000003 0.933985 0.924830
1.000003 0.945250 0.937647
1.000003 0.953693 0.947237
1.000003 0.959978 0.954365
1.000003 0.964892 0.959932
1.000003 0.968922 0.964492
1.000003 0.972631 0.968686
0.004393 0.136233 0.003505
0.005038 0.136139 0.003505
0.006854 0.136011 0.003505
0.014000 0.135839 0.003505
0.036649 0.135620 0.003505
0.080526 0.135137 0.003505
0.123742 0.134292 0.003505
0.168587 0.130608 0.003990
0.225902 0.127721 0.006880
0.296807 0.126791 0.015454
0.383464 0.128894 0.027505
0.497593 0.136190 0.043347
0.620715 0.152002 0.064637
0.722716 0.178047 0.092261
0.804462 0.217008 0.130955
0.866514 0.270916 0.188414
0.911485 0.341781 0.265533
0.943067 0.432492 0.357265
0.964517 0.540838 0.467836
0.978522 0.638955 0.582790
0.987771 0.722035 0.679943
0.993664 0.787628 0.756267
0.997326 0.836710 0.813100
0.999663 0.873593 0.855618
1.000003 0.900315 0.886302
1.000003 0.920366 0.909249
1.000003 0.935018 0.925971
1.000003 0.946135 0.938630
1.000003 0.954466 0.948097
1.000003 0.960665 0.955132
1.000003 0.965512 0.960623
1.000003 0.969485 0.965122
1.000003 0.973142 0.969258
0.008525 0.189471 0.003761
0.010315 0.189393 0.003761
0.013584 0.189287 0.003761
0.019607 0.189145 0.003761
0.031132 0.188963 0.003761
0.071786 0.188560 0.003761
0.117166 0.187839 0.003825
0.172407 0.186689 0.003850
0.229281 0.182290 0.005103
0.300265 0.179587 0.011183
0.387407 0.179244 0.022711
0.502850 0.182711 0.038717
0.625109 0.192690 0.060423
0.726488 0.211873 0.088751
0.807568 0.244029 0.128422
0.868961 0.292312 0.187319
0.913337 0.359207 0.266892
0.944419 0.447543 0.360731
0.965477 0.552613 0.473385
0.979195 0.647473 0.588531
0.988235 0.728333 0.685145
0.993983 0.792403 0.760722
0.997550 0.840430 0.816825
0.999820 0.876544 0.858700
1.000003 0.902712 0.888867
1.000003 0.922343 0.911398
1.000003 0.936684 0.927800
1.000003 0.947562 0.940205
1.000003 0.955709 0.949476
1.000003 0.961771 0.956360
1.000003 0.966507 0.961732
1.000003 0.970390 0.966131
1.000003 0.973962 0.970173
0.019457 0.258551 0.004385
0.021468 0.258478 0.004385
0.024559 0.258379 0.004393
0.029431 0.258245 0.004393
0.037129 0.258076 0.004410
0.062988 0.257695 0.004426
0.110243 0.257003 0.004457
0.164955 0.255851 0.004516
0.233427 0.252779 0.005161
0.305179 0.248869 0.007121
0.392845 0.245797 0.016747
0.509681 0.245842 0.032303
0.630600 0.250780 0.054053
0.731183 0.263287 0.082963
0.811454 0.287556 0.123650
0.872045 0.328044 0.184211
0.915688 0.388512 0.267490
0.946145 0.472377 0.364524
0.966708 0.570533 0.480243
0.980061 0.659976 0.595791
0.988833 0.737276 0.691836
0.994395 0.799016 0.766499
0.997837 0.845492 0.821674
1.000003 0.880514 0.862722
1.000003 0.905911 0.892221
1.000003 0.924969 0.914210
1.000003 0.938890 0.930192
1.000003 0.949446 0.942266
1.000003 0.957349 0.951280
1.000003 0.963227 0.957968
1.000003 0.967818 0.963184
1.000003 0.971580 0.967451
1.000003 0.975040 0.971371
0.036218 0.346202 0.005811
0.038110 0.346128 0.005814
0.040864 0.346028 0.005821
0.044920 0.345894 0.005831
0.050799 0.345723 0.005841
0.067588 0.345337 0.005868
0.107457 0.344629 0.005907
0.159449 0.343415 0.005972
0.225703 0.341677 0.006069
0.310289 0.337584 0.007423
0.399441 0.332684 0.011079
0.516891 0.328903 0.025138
0.635884 0.329082 0.046020
0.735636 0.335312 0.074811
0.815180 0.351408 0.115901
0.875060 0.382497 0.177541
0.918030 0.433830 0.265399
0.947893 0.509242 0.366688
0.967970 0.595000 0.486303
0.980956 0.676281 0.602856
0.989456 0.748380 0.698654
0.994827 0.806891 0.772519
0.998139 0.851341 0.826789
1.000003 0.885005 0.866995
1.000003 0.909483 0.895798
1.000003 0.927874 0.917218
1.000003 0.941315 0.932757
1.000003 0.951508 0.944478
1.000003 0.959140 0.953219
1.000003 0.964814 0.959698
1.000003 0.969244 0.964745
1.000003 0.972874 0.968872
1.000003 0.976211 0.972661
0.060964 0.456542 0.009282
0.062665 0.456464 0.009290
0.065083 0.456359 0.009298
0.068533 0.456217 0.009312
0.073331 0.456036 0.009326
0.085994 0.455627 0.009357
0.115490 0.454872 0.009411
0.160327 0.453559 0.009484
0.220883 0.451610 0.009577
0.301236 0.449131 0.009747
0.407298 0.446435 0.010292
0.522903 0.437503 0.018649
0.639369 0.432441 0.037558
0.738343 0.432403 0.065009
0.817518 0.440270 0.105122
0.877083 0.460941 0.166115
0.919707 0.500183 0.258039
0.949213 0.557564 0.364413
0.968964 0.626469 0.488479
0.981683 0.696341 0.607371
0.989972 0.761220 0.703785
0.995190 0.815442 0.777389
0.998397 0.857370 0.831084
1.000003 0.889458 0.870662
1.000003 0.912931 0.898911
1.000003 0.930629 0.919860
1.000003 0.943589 0.935025
1.000003 0.953427 0.946444
1.000003 0.960796 0.954948
1.000003 0.966276 0.961244
1.000003 0.970556 0.966144
1.000003 0.974062 0.970148
1.000003 0.977284 0.973820
0.111532 0.552941 0.020547
0.098414 0.578530 0.016672
0.100545 0.578442 0.016680
0.103541 0.578325 0.016689
0.107626 0.578174 0.016702
0.118009 0.577833 0.016727
0.138441 0.577203 0.016765
0.172601 0.576101 0.016805
0.224076 0.574433 0.016823
0.296440 0.572217 0.016849
0.394742 0.569558 0.017106
0.521467 0.566765 0.018227
0.637461 0.557465 0.030005
0.737545 0.551887 0.055205
0.816997 0.551504 0.092544
0.876992 0.559505 0.150215
0.919923 0.579935 0.242760
0.949567 0.615598 0.354400
0.969334 0.664815 0.482895
0.982008 0.720180 0.606309
0.990233 0.775547 0.704960
0.995389 0.824196 0.779411
0.998545 0.863025 0.833270
1.000003 0.893326 0.872731
1.000003 0.915758 0.900774
1.000003 0.932794 0.921503
1.000003 0.945324 0.936473
1.000003 0.954863 0.947724
1.000003 0.962021 0.956089
1.000003 0.967349 0.962275
1.000003 0.971512 0.967086
1.000003 0.974924 0.971013
1.000003 0.978061 0.974612
0.149541 0.683698 0.028458
0.150686 0.683649 0.028461
0.152255 0.683583 0.028466
0.154383 0.683494 0.028471
0.157150 0.683381 0.028477
0.163573 0.683125 0.028489
0.176066 0.682652 0.028500
0.199749 0.681826 0.028491
0.239855 0.680576 0.028418
0.301264 0.678896 0.028274
0.389242 0.676805 0.028209
0.507173 0.674407 0.028740
0.629446 0.671866 0.031050
0.731078 0.663702 0.047195
0.813925 0.658501 0.081357
0.875080 0.657827 0.133665
0.918768 0.664466 0.220405
0.948931 0.681740 0.336335
0.969025 0.711206 0.468095
0.981884 0.749809 0.598206
0.990203 0.793040 0.701130
0.995399 0.834219 0.777876
0.998569 0.868897 0.832860
1.000003 0.896906 0.872856
1.000003 0.918099 0.901130
1.000003 0.934417 0.921951
1.000003 0.946528 0.936944
1.000003 0.955801 0.948189
1.000003 0.962785 0.956534
1.000003 0.967998 0.962698
1.000003 0.972078 0.967486
1.000003 0.975426 0.971392
1.000003 0.978507 0.974968
0.210259 0.767609 0.046465
0.210908 0.767574 0.046464
0.211805 0.767524 0.046464
0.213033 0.767459 0.046462
0.214651 0.767374 0.046460
0.218493 0.767185 0.046452
0.226290 0.766836 0.046428
0.242102 0.766230 0.046357
0.271314 0.765321 0.046183
0.320125 0.764103 0.045864
0.395154 0.762571 0.045474
0.500917 0.760756 0.045406
0.617013 0.758673 0.046620
0.718854 0.756478 0.051073
0.804700 0.749580 0.073486
0.870767 0.744985 0.120645
0.916174 0.744137 0.196954
0.947378 0.749373 0.312965
0.968125 0.763169 0.445887
0.981374 0.785762 0.583215
0.989924 0.815425 0.692335
0.995249 0.847212 0.772881
0.998488 0.876285 0.830003
1.000003 0.901107 0.871208
1.000003 0.920587 0.900150
1.000003 0.935949 0.921362
1.000003 0.947531 0.936583
1.000003 0.956493 0.947967
1.000003 0.963292 0.956400
1.000003 0.968391 0.962618
1.000003 0.972396 0.967443
1.000003 0.975690 0.971374
1.000003 0.978729 0.974971
0.278838 0.832357 0.073558
0.279234 0.832330 0.073552
0.279782 0.832294 0.073543
0.280537 0.832245 0.073532
0.281537 0.832183 0.073518
0.283937 0.832044 0.073482
0.288911 0.831789 0.073409
0.299374 0.831350 0.073255
0.319820 0.830696 0.072959
0.356481 0.829832 0.072455
0.417051 0.828752 0.071748
0.507315 0.827460 0.071100
0.611357 0.825931 0.071260
0.708478 0.824204 0.073839
0.790269 0.822356 0.081995
0.860153 0.816716 0.113391
0.911551 0.812792 0.181004
0.944690 0.811852 0.289036
0.966529 0.815737 0.418892
0.980425 0.825930 0.561146
0.989369 0.842873 0.677937
0.994925 0.864288 0.763881
0.998295 0.886352 0.824340
1.000003 0.906841 0.867571
1.000003 0.923872 0.897705
1.000003 0.937835 0.919660
1.000003 0.948644 0.935342
1.000003 0.957159 0.947032
1.000003 0.963701 0.955668
1.000003 0.968650 0.962024
1.000003 0.972562 0.966948
1.000003 0.975795 0.970955
1.000003 0.978788 0.974618
0.358057 0.880791 0.114119
0.358304 0.880772 0.114105
0.358646 0.880745 0.114086
0.359120 0.880709 0.114060
0.359749 0.880664 0.114027
0.361272 0.880562 0.113950
0.364477 0.880376 0.113803
0.371395 0.880058 0.113527
0.385443 0.879590 0.113058
0.411965 0.878980 0.112324
0.458556 0.878229 0.111281
0.530000 0.877338 0.110065
0.616183 0.876274 0.109212
0.703571 0.875035 0.110065
0.781916 0.873628 0.115241
0.845495 0.872112 0.129777
0.900741 0.867611 0.175334
0.940379 0.864321 0.273199
0.964108 0.863370 0.393535
0.978997 0.866009 0.534562
0.988524 0.873390 0.658475
0.994421 0.885326 0.750761
0.997987 0.899835 0.815654
1.000003 0.915010 0.861780
1.000003 0.928740 0.893700
1.000003 0.940688 0.916800
1.000003 0.950330 0.933208
1.000003 0.958151 0.945386
1.000003 0.964284 0.954352
1.000003 0.968992 0.960934
1.000003 0.972753 0.966022
1.000003 0.975886 0.970157
1.000003 0.978805 0.973931
0.449915 0.916209 0.176133
0.450066 0.916194 0.176105
0.450276 0.916175 0.176069
0.450567 0.916149 0.176019
0.450957 0.916116 0.175955
0.451912 0.916041 0.175810
0.453957 0.915905 0.175540
0.458495 0.915674 0.175060
0.468039 0.915339 0.174302
0.486790 0.914907 0.173206
0.519582 0.914385 0.171702
0.568925 0.913776 0.169833
0.634048 0.913053 0.167923
0.706874 0.912203 0.167070
0.777771 0.911211 0.169570
0.838948 0.910085 0.179765
0.887206 0.908869 0.206043
0.930237 0.905315 0.269152
0.960387 0.902609 0.378270
0.976951 0.901699 0.509345
0.987343 0.903427 0.636271
0.993719 0.908442 0.734166
0.997555 0.916281 0.803990
0.999933 0.925945 0.853726
1.000003 0.935781 0.888020
1.000003 0.945102 0.912698
1.000003 0.953102 0.930128
1.000003 0.959883 0.943000
1.000003 0.965376 0.952438
1.000003 0.969690 0.959343
1.000003 0.973194 0.964669
1.000003 0.976151 0.968987
1.000003 0.978937 0.972921
0.550259 0.941851 0.271268
0.550329 0.941841 0.271225
0.550427 0.941826 0.271168
0.550563 0.941807 0.271092
0.550749 0.941783 0.270994
0.551213 0.941729 0.270775
0.552239 0.941630 0.270372
0.554607 0.941462 0.269673
0.559767 0.941221 0.268621
0.570120 0.940913 0.267185
0.589125 0.940549 0.265309
0.619997 0.940133 0.262968
0.664753 0.939645 0.260248
0.720242 0.939075 0.257835
0.779805 0.938402 0.257448
0.835513 0.937620 0.262344
0.882141 0.936734 0.277170
0.918385 0.935767 0.307230
0.951213 0.933008 0.372269
0.973819 0.930831 0.493991
0.985677 0.929965 0.615797
0.992762 0.930972 0.715924
0.996976 0.934078 0.789904
0.999570 0.939061 0.843459
1.000003 0.945043 0.880562
1.000003 0.951415 0.907230
1.000003 0.957378 0.925995
1.000003 0.962764 0.939790
1.000003 0.967337 0.949864
1.000003 0.971055 0.957207
1.000003 0.974154 0.962852
1.000003 0.976822 0.967418
1.000003 0.979378 0.971568
0.638408 0.960147 0.377154
0.638430 0.960139 0.377105
0.638461 0.960129 0.377037
0.638505 0.960115 0.376947
0.638568 0.960097 0.376832
0.638735 0.960057 0.376573
0.639138 0.959985 0.376102
0.640168 0.959864 0.375298
0.642628 0.959689 0.374123
0.647932 0.959469 0.372591
0.658297 0.959213 0.370699
0.676299 0.958925 0.368433
0.704612 0.958595 0.365749
0.743285 0.958215 0.362900
0.789291 0.957766 0.360696
0.836603 0.957239 0.361021
0.879366 0.956628 0.367089
0.914531 0.955934 0.383435
0.941355 0.955177 0.415178
0.965484 0.953103 0.483172
0.983121 0.951309 0.603331
0.991422 0.950529 0.699574
0.996198 0.950989 0.775062
0.999092 0.952802 0.831630
1.000003 0.955697 0.871522
1.000003 0.959349 0.900403
1.000003 0.963194 0.920754
1.000003 0.966982 0.935691
1.000003 0.970416 0.946566
1.000003 0.973347 0.954470
1.000003 0.975882 0.960528
1.000003 0.978129 0.965415
1.000003 0.980337 0.969845
0.710743 0.972885 0.490538
0.710741 0.972879 0.490480
0.710740 0.972872 0.490401
0.710741 0.972861 0.490296
0.710745 0.972848 0.490161
0.710769 0.972819 0.489860
0.710868 0.972766 0.489312
0.711226 0.972677 0.488385
0.712285 0.972549 0.487046
0.714866 0.972390 0.485341
0.720315 0.972206 0.483304
0.730395 0.972003 0.480953
0.747369 0.971776 0.478215
0.772548 0.971519 0.475161
0.805497 0.971219 0.472140
0.842875 0.970865 0.470214
0.879775 0.970451 0.471506
0.912338 0.969971 0.479409
0.938496 0.969430 0.498079
0.957866 0.968850 0.529548
0.976042 0.967255 0.590040
0.989390 0.965821 0.689512
0.995123 0.965150 0.762302
0.998466 0.965277 0.819830
1.000003 0.966219 0.861736
1.000003 0.967867 0.892636
1.000003 0.969937 0.914610
1.000003 0.972233 0.930799
1.000003 0.974503 0.942594
1.000003 0.976569 0.951156
1.000003 0.978446 0.957708
1.000003 0.980177 0.962983
1.000003 0.981936 0.967755
0.770138 0.981960 0.596910
0.770127 0.981956 0.596859
0.770112 0.981950 0.596791
0.770093 0.981943 0.596699
0.770072 0.981933 0.596583
0.770030 0.981912 0.596322
0.769986 0.981873 0.595850
0.770018 0.981807 0.595055
0.770364 0.981713 0.593914
0.771499 0.981597 0.592486
0.774217 0.981465 0.590823
0.779631 0.981321 0.588960
0.789336 0.981162 0.586844
0.804776 0.980986 0.584464
0.826748 0.980784 0.581889
0.854136 0.980548 0.579528
0.883839 0.980271 0.578398
0.912313 0.979945 0.580326
0.936735 0.979572 0.587886
0.955703 0.979160 0.603368
0.970013 0.978710 0.628654
0.983130 0.977531 0.674160
0.993418 0.976397 0.754011
0.997565 0.975806 0.809594
0.999901 0.975723 0.852059
1.000003 0.976138 0.884338
1.000003 0.976959 0.907727
1.000003 0.978076 0.925147
1.000003 0.979331 0.937912
1.000003 0.980582 0.947203
1.000003 0.981795 0.954319
1.000003 0.982975 0.960047
1.000003 0.984231 0.965224
0.816901 0.988259 0.680693
0.816887 0.988256 0.680650
0.816867 0.988252 0.680592
0.816842 0.988246 0.680515
0.816811 0.988239 0.680416
0.816745 0.988223 0.680196
0.816644 0.988194 0.679798
0.816532 0.988145 0.679127
0.816542 0.988076 0.678172
0.816955 0.987990 0.676987
0.818242 0.987893 0.675628
0.821088 0.987789 0.674143
0.826533 0.987676 0.672500
0.835732 0.987553 0.670686
0.849759 0.987414 0.668683
0.868735 0.987255 0.666620
0.891230 0.987067 0.664926
0.914739 0.986847 0.664503
0.936465 0.986590 0.666840
0.954345 0.986303 0.673627
0.968419 0.985982 0.686650
0.978179 0.985207 0.701850
0.987762 0.984807 0.737729
0.996123 0.983886 0.802700
0.999130 0.983392 0.843996
1.000003 0.983206 0.876564
1.000003 0.983319 0.900817
1.000003 0.983685 0.919207
1.000003 0.984225 0.932839
1.000003 0.984848 0.942832
1.000003 0.985515 0.950518
1.000003 0.986212 0.956719
1.000003 0.987000 0.962331
0.852460 0.992545 0.744070
0.852445 0.992543 0.744034
0.852425 0.992540 0.743985
0.852399 0.992535 0.743920
0.852366 0.992530 0.743837
0.852295 0.992518 0.743652
0.852176 0.992496 0.743316
0.852011 0.992459 0.742754
0.851876 0.992406 0.741954
0.851945 0.992342 0.740965
0.852510 0.992269 0.739845
0.853998 0.992191 0.738641
0.857076 0.992108 0.737336
0.862574 0.992019 0.735925
0.871441 0.991921 0.734375
0.884255 0.991809 0.732714
0.900652 0.991680 0.731112
0.919223 0.991527 0.729994
0.937736 0.991348 0.730182
0.953969 0.991147 0.732776
0.967389 0.990918 0.739089
0.977575 0.990669 0.749929
0.984394 0.990067 0.760810
0.991210 0.989814 0.786955
0.997818 0.989093 0.837388
1.000003 0.988671 0.870283
1.000003 0.988461 0.894677
1.000003 0.988432 0.913600
1.000003 0.988554 0.927853
1.000003 0.988780 0.938415
1.000003 0.989074 0.946598
1.000003 0.989420 0.953235
1.000003 0.989849 0.959263
0.879923 0.995544 0.792652
0.879909 0.995542 0.792621
0.879890 0.995539 0.792580
0.879865 0.995536 0.792525
0.879833 0.995532 0.792455
0.879765 0.995523 0.792299
0.879646 0.995506 0.792017
0.879469 0.995477 0.791543
0.879277 0.995437 0.790870
0.879184 0.995387 0.790043
0.879377 0.995332 0.789111
0.880132 0.995273 0.788119
0.881876 0.995210 0.787063
0.885182 0.995144 0.785940
0.890783 0.995072 0.784725
0.899326 0.994992 0.783412
0.910977 0.994900 0.782059
0.925149 0.994793 0.780860
0.940339 0.994666 0.780253
0.954559 0.994523 0.780916
0.966965 0.994358 0.783725
0.976780 0.994178 0.789436
0.983995 0.993990 0.798147
0.989256 0.993797 0.809662
0.993505 0.993384 0.823916
0.998883 0.992815 0.862602
1.000003 0.992458 0.889606
1.000003 0.992250 0.908609
1.000003 0.992159 0.923195
1.000003 0.992160 0.934150
1.000003 0.992229 0.942720
1.000003 0.992351 0.949721
1.000003 0.992535 0.956117
0.900492 0.997600 0.828749
0.900479 0.997598 0.828723
0.900462 0.997596 0.828688
0.900439 0.997594 0.828641
0.900410 0.997590 0.828582
0.900347 0.997583 0.828448
0.900236 0.997570 0.828207
0.900062 0.997547 0.827803
0.899855 0.997516 0.827230
0.899693 0.997477 0.826527
0.899702 0.997433 0.825739
0.900068 0.997387 0.824906
0.901076 0.997338 0.824028
0.903124 0.997287 0.823110
0.906754 0.997233 0.822129
0.912541 0.997173 0.821074
0.920839 0.997106 0.819960
0.931544 0.997027 0.818873
0.943768 0.996935 0.818047
0.955933 0.996830 0.817900
0.967129 0.996708 0.819001
0.976379 0.996574 0.821948
0.983403 0.996434 0.826995
0.988647 0.996287 0.834197
0.992374 0.996144 0.842895
0.995370 0.995845 0.852761
0.999506 0.995421 0.880566
1.000003 0.995104 0.904445
1.000003 0.994921 0.919208
1.000003 0.994815 0.930367
1.000003 0.994766 0.939190
1.000003 0.994762 0.946455
1.000003 0.994802 0.953138
0.916486 0.999077 0.856604
0.916474 0.999076 0.856581
0.916459 0.999074 0.856551
0.916438 0.999072 0.856511
0.916412 0.999070 0.856459
0.916354 0.999064 0.856344
0.916252 0.999053 0.856137
0.916090 0.999035 0.855789
0.915886 0.999009 0.855296
0.915697 0.998978 0.854692
0.915612 0.998943 0.854017
0.915763 0.998906 0.853308
0.916343 0.998868 0.852565
0.917632 0.998828 0.851797
0.920030 0.998786 0.850988
0.924001 0.998740 0.850125
0.929938 0.998689 0.849209
0.937978 0.998630 0.848272
0.947678 0.998561 0.847441
0.957887 0.998482 0.846973
0.967783 0.998391 0.847232
0.976329 0.998290 0.848665
0.983046 0.998183 0.851542
0.988191 0.998071 0.856008
0.991917 0.997960 0.861731
0.994679 0.997850 0.868516
0.996701 0.997641 0.874939
0.999864 0.997330 0.894211
1.000003 0.997056 0.914655
1.000003 0.996894 0.927017
1.000003 0.996788 0.935984
1.000003 0.996719 0.943431
1.000003 0.996678 0.950332
0.928599 1.000003 0.877555
0.928589 1.000003 0.877535
0.928575 1.000003 0.877509
0.928556 1.000003 0.877473
0.928533 1.000003 0.877429
0.928480 1.000003 0.877328
0.928387 1.000003 0.877146
0.928238 1.000003 0.876842
0.928043 1.000003 0.876411
0.927848 1.000003 0.875885
0.927719 1.000003 0.875296
0.927752 0.999979 0.874679
