3DLUTS/RED_IPP2CubesSDRCoreV1_13/REC2020/RWG_Log3G10 to REC2020_BT1886 with NO_CONTRAST and R_3_Soft size_33 v1.13.cube
# RED Digital Cinema Output Transform LUT for IPP2
# LUT Name = RWG_Log3G10 to REC2020_BT1886 with NO_CONTRAST and R_3_Soft size_33 v1.13
# Generated by version 1.13
# Settings used in creation of this LUT are:
# Development Color Space = REC2020
# Output Gamma Curve = BT1886
# Output Tonemap = NO_CONTRAST
# Highlight Rolloff = Rolloff 3 - soft
# Resolution = 33 x 33 x 33
TITLE "RED IPP2 LUT to map REDWideGamutRGB/Log3G10 to REC2020/BT1886/NO_CONTRAST/Rolloff 3 - soft"
LUT_3D_SIZE 33
0.000000 0.000000 0.000000
0.000000 0.000000 0.000000
0.000000 0.000000 0.000000
0.000045 0.000000 0.000000
0.114955 0.003505 0.003505
0.166558 0.003505 0.003505
0.212569 0.003505 0.003505
0.258650 0.003990 0.003721
0.306808 0.005674 0.004617
0.358568 0.010131 0.006789
0.413775 0.018131 0.011608
0.472708 0.029362 0.019444
0.533582 0.044409 0.030183
0.589648 0.062597 0.043361
0.643100 0.085707 0.060235
0.693373 0.114466 0.081197
0.739951 0.150924 0.107458
0.782761 0.197578 0.141402
0.821459 0.249018 0.186870
0.855351 0.305548 0.244119
0.885481 0.371407 0.308655
0.911386 0.441413 0.382252
0.932986 0.508824 0.456890
0.951283 0.574507 0.529634
0.966072 0.635314 0.596988
0.978221 0.692310 0.660098
0.987747 0.743154 0.716347
0.995337 0.789178 0.767201
1.000003 0.829505 0.811689
1.000003 0.863813 0.849473
1.000003 0.893524 0.882136
1.000003 0.918133 0.909142
1.000003 0.938912 0.931906
0.000000 0.000000 0.000000
0.000000 0.000000 0.000000
0.000000 0.000000 0.000000
0.029937 0.003505 0.003505
0.120527 0.003505 0.003505
0.170978 0.003505 0.003505
0.216752 0.003897 0.003505
0.262910 0.005624 0.003721
0.311322 0.010401 0.004509
0.363468 0.018450 0.006504
0.418988 0.028456 0.011068
0.478137 0.041441 0.018856
0.538672 0.057958 0.029560
0.594527 0.077431 0.042872
0.647757 0.100978 0.060075
0.697763 0.130139 0.081503
0.744031 0.167311 0.108416
0.786492 0.211768 0.143286
0.824813 0.261125 0.190137
0.858321 0.316639 0.248533
0.888062 0.381958 0.314178
0.913592 0.450488 0.388782
0.934845 0.516770 0.463449
0.952820 0.581512 0.536006
0.967328 0.641516 0.603009
0.979228 0.697777 0.665646
0.988544 0.747954 0.721359
0.995957 0.793349 0.771636
1.000003 0.833093 0.815548
1.000003 0.866875 0.852788
1.000003 0.896101 0.884936
1.000003 0.920285 0.911485
1.000003 0.940684 0.933836
0.000000 0.000000 0.000000
0.000000 0.000000 0.000000
0.000000 0.000000 0.000000
0.049439 0.003505 0.003505
0.125816 0.003505 0.003505
0.175249 0.004846 0.003505
0.220809 0.009663 0.003505
0.267051 0.018184 0.003663
0.315719 0.027647 0.004352
0.368251 0.037847 0.006103
0.424042 0.049292 0.010251
0.483410 0.063385 0.017903
0.543576 0.080474 0.028528
0.599253 0.099678 0.042068
0.652272 0.122828 0.059561
0.702024 0.151844 0.081433
0.747993 0.187395 0.108990
0.790116 0.227963 0.144791
0.828072 0.274977 0.193044
0.861208 0.329172 0.252657
0.890570 0.393358 0.319500
0.915734 0.460091 0.395087
0.936650 0.525019 0.469828
0.954313 0.588665 0.542226
0.968546 0.647770 0.608897
0.980204 0.703238 0.671073
0.989317 0.752716 0.726261
0.996556 0.797465 0.775973
1.000003 0.836621 0.819319
1.000003 0.869876 0.856025
1.000003 0.898622 0.887670
1.000003 0.922386 0.913769
1.000003 0.942411 0.935716
0.003505 0.095529 0.003505
0.003505 0.094297 0.003505
0.003505 0.093023 0.003505
0.062063 0.091731 0.003505
0.130766 0.086415 0.003505
0.179290 0.083645 0.003505
0.224655 0.082671 0.003505
0.270984 0.083304 0.003663
0.319909 0.085589 0.004154
0.372803 0.089655 0.005620
0.428858 0.095974 0.009192
0.488475 0.105601 0.016637
0.548257 0.118676 0.027203
0.603765 0.134693 0.040923
0.656587 0.154763 0.058637
0.706099 0.179601 0.080906
0.751787 0.209846 0.109071
0.793591 0.246589 0.145780
0.831201 0.290971 0.195422
0.863981 0.343485 0.256353
0.892980 0.405771 0.324494
0.917793 0.470319 0.401062
0.938384 0.533619 0.475937
0.955746 0.595981 0.548217
0.969715 0.654070 0.614586
0.981140 0.708674 0.676326
0.990058 0.757415 0.731009
0.997130 0.801502 0.780173
1.000003 0.840065 0.822970
1.000003 0.872797 0.859157
1.000003 0.901070 0.890313
1.000003 0.924423 0.915977
1.000003 0.944082 0.937532
0.003505 0.161052 0.003505
0.003505 0.160182 0.003505
0.003505 0.159267 0.003505
0.045420 0.158306 0.003505
0.135657 0.157380 0.003505
0.183256 0.153667 0.003505
0.228400 0.151501 0.003505
0.274799 0.150455 0.003505
0.323975 0.150426 0.003972
0.377185 0.151457 0.005152
0.433476 0.153876 0.008153
0.493331 0.158452 0.015209
0.552674 0.165697 0.025624
0.608019 0.175851 0.039413
0.660656 0.190189 0.057254
0.709949 0.209711 0.079839
0.755379 0.235335 0.108545
0.796888 0.268265 0.146103
0.834175 0.309686 0.197082
0.866621 0.360093 0.259474
0.895278 0.419467 0.329030
0.919758 0.481358 0.406609
0.940040 0.542689 0.481706
0.957116 0.603529 0.553929
0.970833 0.660452 0.620039
0.982035 0.714100 0.681375
0.990765 0.762057 0.735580
0.997678 0.805458 0.784220
1.000003 0.843421 0.826490
1.000003 0.875634 0.862176
1.000003 0.903440 0.892860
1.000003 0.926390 0.918103
1.000003 0.945694 0.939280
0.003505 0.215346 0.003505
0.003663 0.214517 0.003505
0.004915 0.213636 0.003505
0.038541 0.212692 0.003505
0.128956 0.211730 0.003505
0.187447 0.210840 0.003505
0.232243 0.207208 0.003505
0.278631 0.204868 0.003505
0.328000 0.203543 0.003825
0.381444 0.203145 0.004752
0.437880 0.203834 0.007215
0.497929 0.206134 0.013678
0.556766 0.210431 0.023835
0.611951 0.217218 0.037539
0.664420 0.227728 0.055381
0.713517 0.243124 0.078161
0.758718 0.264627 0.107294
0.799963 0.293718 0.145592
0.836957 0.331829 0.197793
0.869098 0.379481 0.261821
0.897439 0.434755 0.332929
0.921610 0.493431 0.411594
0.941604 0.552370 0.487030
0.958410 0.611392 0.559282
0.971890 0.666957 0.625193
0.982882 0.719534 0.686173
0.991434 0.766642 0.739936
0.998197 0.809327 0.788084
1.000003 0.846681 0.829853
1.000003 0.878374 0.865063
1.000003 0.905722 0.895296
1.000003 0.928279 0.920136
1.000003 0.947240 0.940951
0.003936 0.268855 0.003505
0.004774 0.268004 0.003505
0.009486 0.267095 0.003505
0.042136 0.266112 0.003505
0.123821 0.265085 0.003505
0.181511 0.264063 0.003505
0.235022 0.261267 0.003505
0.282563 0.259212 0.003505
0.332029 0.256539 0.003721
0.385596 0.254849 0.004418
0.442019 0.254145 0.006417
0.502186 0.254754 0.012129
0.560436 0.256926 0.021923
0.615460 0.261258 0.035342
0.667777 0.268797 0.053023
0.716709 0.280734 0.075830
0.761719 0.298454 0.105220
0.802742 0.323675 0.144075
0.839486 0.358133 0.197292
0.871361 0.401472 0.263132
0.899423 0.451904 0.335940
0.923317 0.506738 0.415813
0.943050 0.562794 0.491746
0.959610 0.619633 0.564143
0.972872 0.673606 0.629941
0.983669 0.724965 0.690633
0.992057 0.771147 0.744008
0.998680 0.813079 0.791707
1.000003 0.849813 0.833013
1.000003 0.880991 0.867780
1.000003 0.907892 0.897590
1.000003 0.930072 0.922053
1.000003 0.948704 0.942527
0.005897 0.325408 0.003505
0.008899 0.324503 0.003505
0.018724 0.323538 0.003505
0.049653 0.322493 0.003505
0.120882 0.321390 0.003505
0.176991 0.320249 0.003505
0.230284 0.319106 0.003505
0.286780 0.318012 0.003505
0.336187 0.313677 0.003663
0.389726 0.310530 0.004176
0.445891 0.308397 0.005774
0.506020 0.307426 0.010646
0.563604 0.307777 0.019927
0.618453 0.310027 0.032874
0.670635 0.315011 0.050203
0.719438 0.323858 0.072824
0.764304 0.337998 0.102235
0.805158 0.359288 0.141380
0.841705 0.389204 0.195295
0.873365 0.426466 0.263090
0.901194 0.471357 0.337767
0.924850 0.521640 0.419040
0.944356 0.574217 0.495683
0.960699 0.628419 0.568385
0.973767 0.680493 0.634189
0.984389 0.730442 0.694683
0.992629 0.775590 0.747740
0.999124 0.816716 0.795050
1.000003 0.852812 0.835941
1.000003 0.883476 0.870303
1.000003 0.909941 0.899725
1.000003 0.931759 0.923839
1.000003 0.950078 0.943997
0.012327 0.386346 0.003825
0.018560 0.385406 0.003825
0.030905 0.384405 0.003825
0.060203 0.383327 0.003825
0.121106 0.382179 0.003825
0.174417 0.380961 0.003825
0.225701 0.379691 0.003825
0.280305 0.378391 0.003825
0.340624 0.377120 0.003825
0.393914 0.372257 0.004006
0.449460 0.368511 0.005306
0.509201 0.365889 0.009342
0.566131 0.364526 0.017933
0.620768 0.364830 0.030253
0.672826 0.367466 0.047024
0.721542 0.373413 0.069204
0.766326 0.383857 0.098333
0.807080 0.400231 0.137402
0.843503 0.423763 0.191548
0.875015 0.454556 0.261297
0.902674 0.493322 0.337999
0.926150 0.538355 0.420919
0.945475 0.586805 0.498546
0.961641 0.637840 0.571769
0.974547 0.687649 0.637739
0.985020 0.735949 0.698164
0.993132 0.779933 0.751003
0.999517 0.820189 0.798006
1.000003 0.855626 0.838551
1.000003 0.885781 0.872564
1.000003 0.911826 0.901646
1.000003 0.933303 0.925451
1.000003 0.951332 0.945327
0.024194 0.446639 0.004501
0.032540 0.445754 0.004501
0.046513 0.444822 0.004494
0.073961 0.443828 0.004487
0.125455 0.442763 0.004472
0.174494 0.441619 0.004457
0.223051 0.440400 0.004442
0.275352 0.439105 0.004434
0.333456 0.437765 0.004442
0.398345 0.436433 0.004487
0.451847 0.431567 0.004960
0.511650 0.427750 0.008309
0.567887 0.424992 0.016052
0.622236 0.423540 0.027612
0.674166 0.423846 0.043619
0.722841 0.426651 0.065078
0.767616 0.432977 0.093565
0.808360 0.444164 0.132091
0.844751 0.461587 0.185844
0.876205 0.485864 0.257280
0.903779 0.518080 0.336146
0.927147 0.557205 0.421015
0.946354 0.600833 0.499980
0.962396 0.648087 0.574008
0.975181 0.695175 0.640367
0.985540 0.741524 0.700899
0.993551 0.784167 0.753657
0.999847 0.823467 0.800465
1.000003 0.858215 0.840754
1.000003 0.887864 0.874494
1.000003 0.913511 0.903299
1.000003 0.934673 0.926846
1.000003 0.952441 0.946484
0.041699 0.504380 0.006013
0.051619 0.503563 0.006010
0.066018 0.502713 0.006004
0.091633 0.501810 0.005988
0.134697 0.500841 0.005966
0.178100 0.499796 0.005930
0.223049 0.498672 0.005897
0.272457 0.497462 0.005875
0.327953 0.496179 0.005871
0.390763 0.494846 0.005920
0.455150 0.493507 0.006069
0.509181 0.488738 0.007247
0.568721 0.484863 0.014400
0.622647 0.482058 0.025105
0.674412 0.480561 0.040157
0.723087 0.480899 0.060604
0.767941 0.483872 0.088041
0.808788 0.490620 0.125468
0.845271 0.502501 0.178040
0.876786 0.520475 0.250442
0.904386 0.545934 0.331571
0.927747 0.578591 0.418719
0.946919 0.616678 0.499482
0.962906 0.659439 0.574702
0.975627 0.703241 0.641754
0.985918 0.747237 0.702638
0.993863 0.788302 0.755506
1.000003 0.826520 0.802273
1.000003 0.860534 0.842432
1.000003 0.889675 0.875999
1.000003 0.914945 0.904610
1.000003 0.935826 0.927967
1.000003 0.953369 0.947423
0.065258 0.558876 0.009379
0.075953 0.558134 0.009367
0.090258 0.557369 0.009349
0.114222 0.556558 0.009314
0.149180 0.555691 0.009258
0.186161 0.554757 0.009186
0.226652 0.553748 0.009103
0.272473 0.552652 0.009024
0.324823 0.551473 0.008975
0.384946 0.550215 0.009004
0.447786 0.548893 0.009186
0.509398 0.547568 0.009655
0.561623 0.542884 0.012141
0.620676 0.539032 0.022710
0.673007 0.536210 0.036829
0.721987 0.534715 0.056100
0.767007 0.535111 0.082081
0.808080 0.538286 0.117798
0.844806 0.545441 0.168287
0.876538 0.557687 0.240225
0.904314 0.576572 0.323603
0.927801 0.602500 0.413260
0.947053 0.634472 0.496372
0.963082 0.672042 0.573275
0.975817 0.711932 0.641427
0.986102 0.753100 0.702997
0.994030 0.792287 0.756240
1.000003 0.829263 0.803182
1.000003 0.862481 0.843385
1.000003 0.891115 0.876919
1.000003 0.916041 0.905453
1.000003 0.936685 0.928713
1.000003 0.954050 0.948067
0.096054 0.610734 0.015686
0.107193 0.610065 0.015658
0.121229 0.609377 0.015625
0.142923 0.608653 0.015568
0.169182 0.607883 0.015485
0.199598 0.607055 0.015373
0.234931 0.606163 0.015238
0.276400 0.605191 0.015094
0.324909 0.604134 0.014969
0.381598 0.602991 0.014916
0.442062 0.601758 0.015022
0.502201 0.600468 0.015422
0.561599 0.599145 0.016357
0.611866 0.594631 0.019858
0.670298 0.590819 0.034117
0.719973 0.588022 0.052216
0.765503 0.586557 0.076690
0.806907 0.587038 0.110400
0.843886 0.590417 0.158179
0.875829 0.597757 0.227648
0.903802 0.610576 0.312983
0.927470 0.629805 0.405005
0.946864 0.655235 0.490884
0.962999 0.686889 0.569904
0.975803 0.722094 0.639539
0.986131 0.759762 0.702119
0.994079 0.796593 0.755990
1.000003 0.832021 0.803310
1.000003 0.864279 0.843715
1.000003 0.892335 0.877338
1.000003 0.916901 0.905896
1.000003 0.937322 0.929142
1.000003 0.954538 0.948458
0.135789 0.659028 0.024363
0.147229 0.658426 0.024314
0.159364 0.657811 0.024259
0.174828 0.657166 0.024179
0.194402 0.656485 0.024067
0.218810 0.655757 0.023918
0.248747 0.654974 0.023735
0.285303 0.654121 0.023525
0.329313 0.653193 0.023316
0.381794 0.652180 0.023154
0.438851 0.651071 0.023126
0.496697 0.649882 0.023368
0.554704 0.648613 0.024107
0.610787 0.647316 0.025706
0.659053 0.642985 0.030559
0.716160 0.639257 0.049197
0.762686 0.636525 0.072131
0.804737 0.635112 0.103631
0.842203 0.635702 0.148292
0.874543 0.639199 0.213444
0.902849 0.646917 0.300193
0.926781 0.660039 0.394147
0.946384 0.679001 0.483094
0.962682 0.704339 0.564607
0.975607 0.734210 0.636109
0.986021 0.767685 0.700045
0.994026 0.801599 0.754819
1.000003 0.835079 0.802731
1.000003 0.866132 0.843501
1.000003 0.893484 0.877336
1.000003 0.917635 0.906013
1.000003 0.937819 0.929315
1.000003 0.954893 0.948651
0.183122 0.703769 0.035979
0.191057 0.703230 0.035899
0.199282 0.702680 0.035814
0.210256 0.702109 0.035702
0.224927 0.701508 0.035555
0.244183 0.700870 0.035365
0.268897 0.700189 0.035131
0.300262 0.699449 0.034853
0.339231 0.698644 0.034553
0.386662 0.697763 0.034270
0.439128 0.696791 0.034081
0.493645 0.695734 0.034117
0.549419 0.694579 0.034593
0.604212 0.693352 0.035845
0.656916 0.692085 0.038432
0.702769 0.687973 0.045024
0.757940 0.684358 0.068939
0.801284 0.681701 0.098259
0.839578 0.680367 0.139573
0.872518 0.681040 0.199692
0.901306 0.684737 0.285563
0.925627 0.692655 0.380496
0.945540 0.705632 0.472679
0.962089 0.724625 0.557073
0.975199 0.748697 0.630856
0.985752 0.777300 0.696540
0.993853 0.807643 0.752538
1.000003 0.838659 0.801301
1.000003 0.868168 0.842635
1.000003 0.894622 0.876830
1.000003 0.918261 0.905739
1.000003 0.938174 0.929184
1.000003 0.955105 0.948609
0.230319 0.744726 0.051262
0.235972 0.744246 0.051139
0.241844 0.743757 0.051012
0.249829 0.743252 0.050859
0.260880 0.742724 0.050668
0.275912 0.742168 0.050431
0.295906 0.741577 0.050141
0.322166 0.740939 0.049794
0.355827 0.740248 0.049401
0.397267 0.739492 0.048992
0.443989 0.738657 0.048630
0.494019 0.737741 0.048434
0.546524 0.736725 0.048600
0.599198 0.735623 0.049443
0.650715 0.734441 0.051462
0.699688 0.733215 0.055471
0.742809 0.729349 0.064354
0.795865 0.725845 0.095095
0.835716 0.723293 0.133181
0.869622 0.722065 0.188127
0.899115 0.722850 0.270510
0.923977 0.726687 0.364777
0.944310 0.734550 0.459855
0.961196 0.747614 0.547228
0.974564 0.765777 0.623625
0.985313 0.789008 0.691454
0.993557 0.815144 0.749044
0.999979 0.843103 0.798958
1.000003 0.870625 0.841081
1.000003 0.895902 0.875801
1.000003 0.918871 0.905067
1.000003 0.938441 0.928748
1.000003 0.955205 0.948333
0.279904 0.781816 0.071231
0.284057 0.781390 0.071050
0.288345 0.780957 0.070865
0.294220 0.780512 0.070656
0.302564 0.780049 0.070408
0.314217 0.779565 0.070112
0.330155 0.779055 0.069758
0.351696 0.778507 0.069335
0.379938 0.777918 0.068847
0.414318 0.777276 0.068311
0.454402 0.776567 0.067772
0.498840 0.775788 0.067333
0.546938 0.774917 0.067164
0.596482 0.773959 0.067557
0.646002 0.772910 0.068965
0.693899 0.771783 0.072108
0.738937 0.770606 0.078147
0.779518 0.766973 0.090399
0.829895 0.763604 0.130291
0.865545 0.761212 0.180373
0.896135 0.760072 0.257128
0.921763 0.760979 0.348786
0.942659 0.764836 0.445300
0.959985 0.772809 0.535307
0.973688 0.785395 0.614413
0.984697 0.803073 0.684697
0.993130 0.824490 0.744227
0.999691 0.848779 0.795615
1.000003 0.873788 0.838786
1.000003 0.897521 0.874221
1.000003 0.919590 0.903987
1.000003 0.938695 0.928004
1.000003 0.955234 0.947824
0.334061 0.815318 0.097625
0.337126 0.814942 0.097364
0.340265 0.814560 0.097099
0.344577 0.814170 0.096811
0.350850 0.813766 0.096485
0.359813 0.813347 0.096109
0.372329 0.812907 0.095672
0.389177 0.812440 0.095159
0.410943 0.811940 0.094564
0.438158 0.811399 0.093891
0.471126 0.810804 0.093169
0.509082 0.810150 0.092479
0.551654 0.809418 0.091960
0.596936 0.808606 0.091876
0.643456 0.807705 0.092638
0.689479 0.806717 0.094899
0.733544 0.805652 0.099680
0.774884 0.804525 0.108746
0.812735 0.801137 0.125919
0.859460 0.797962 0.178147
0.892012 0.795666 0.248143
0.918816 0.794650 0.334758
0.940501 0.795627 0.430185
0.958410 0.799574 0.521800
0.972544 0.807295 0.603327
0.983884 0.819623 0.676188
0.992560 0.836046 0.737957
0.999302 0.856112 0.791153
1.000003 0.878019 0.835661
1.000003 0.899737 0.872034
1.000003 0.920584 0.902462
1.000003 0.939035 0.926932
1.000003 0.955251 0.947074
0.393488 0.845276 0.133071
0.395583 0.844947 0.132693
0.397701 0.844612 0.132312
0.400599 0.844272 0.131909
0.404901 0.843922 0.131468
0.411111 0.843559 0.130976
0.419816 0.843182 0.130421
0.431798 0.842784 0.129784
0.447756 0.842361 0.129051
0.468395 0.841908 0.128218
0.494339 0.841412 0.127291
0.525384 0.840870 0.126331
0.561580 0.840263 0.125441
0.601524 0.839587 0.124852
0.643942 0.838833 0.124937
0.687121 0.837994 0.126297
0.729445 0.837073 0.129861
0.769904 0.836068 0.137178
0.807496 0.834999 0.150897
0.841761 0.831913 0.174930
0.885917 0.828844 0.246772
0.914791 0.826700 0.325473
0.937675 0.825809 0.416555
0.956392 0.826872 0.507814
0.971090 0.830732 0.590850
0.982850 0.838349 0.666045
0.991832 0.849889 0.730184
0.998801 0.865408 0.785470
1.000003 0.883673 0.831614
1.000003 0.902850 0.869170
1.000003 0.922061 0.900453
1.000003 0.939594 0.925510
1.000003 0.955333 0.946068
0.451714 0.871424 0.181169
0.452984 0.871136 0.180616
0.454261 0.870844 0.180058
0.456025 0.870548 0.179480
0.458760 0.870244 0.178862
0.462833 0.869931 0.178194
0.468699 0.869608 0.177460
0.476981 0.869269 0.176636
0.488314 0.868913 0.175708
0.503418 0.868533 0.174656
0.523051 0.868121 0.173472
0.547424 0.867674 0.172194
0.576968 0.867174 0.170887
0.610874 0.866618 0.169751
0.648249 0.865996 0.169114
0.687600 0.865299 0.169536
0.727305 0.864525 0.171892
0.766181 0.863664 0.177611
0.803001 0.862722 0.189055
0.836389 0.861729 0.209970
0.868556 0.858839 0.244226
0.908985 0.855946 0.323880
0.933906 0.853994 0.407306
0.953821 0.853224 0.495304
0.969282 0.854356 0.578138
0.981578 0.858260 0.654846
0.990938 0.865510 0.721144
0.998186 0.876581 0.778629
1.000003 0.890910 0.826639
1.000003 0.907093 0.865613
1.000003 0.924231 0.897946
1.000003 0.940523 0.923734
1.000003 0.955577 0.944811
0.508761 0.894766 0.250156
0.509451 0.894517 0.249398
0.510143 0.894265 0.248632
0.511123 0.894009 0.247845
0.512757 0.893748 0.247019
0.515305 0.893480 0.246141
0.519094 0.893204 0.245196
0.524594 0.892917 0.244157
0.532319 0.892618 0.243005
0.542905 0.892301 0.241710
0.557094 0.891961 0.240245
0.575328 0.891594 0.238622
0.598290 0.891188 0.236857
0.625732 0.890737 0.235105
0.657243 0.890233 0.233643
0.691739 0.889666 0.232990
0.727796 0.889031 0.233972
0.764189 0.888318 0.237814
0.799538 0.887523 0.246175
0.832242 0.886663 0.260766
0.862590 0.885721 0.284208
0.891883 0.883079 0.319355
0.928262 0.880391 0.405085
0.950289 0.878561 0.486214
0.966914 0.877910 0.566276
0.979956 0.879095 0.643015
0.989812 0.882826 0.710857
0.997414 0.889805 0.770456
1.000003 0.900088 0.820515
1.000003 0.912866 0.861165
1.000003 0.927428 0.894791
1.000003 0.942056 0.921498
1.000003 0.956126 0.943234
0.563160 0.915082 0.327601
0.563459 0.914867 0.326778
0.563759 0.914650 0.325946
0.564220 0.914431 0.325101
0.565115 0.914207 0.324228
0.566619 0.913979 0.323315
0.568964 0.913745 0.322354
0.572482 0.913503 0.321325
0.577566 0.913251 0.320212
0.584718 0.912988 0.318991
0.594578 0.912708 0.317632
0.607651 0.912408 0.316129
0.624703 0.912079 0.314463
0.645894 0.911717 0.312705
0.671256 0.911312 0.310989
0.700211 0.910858 0.309609
0.731713 0.910347 0.309078
0.764686 0.909769 0.310216
0.797738 0.909117 0.314249
0.829119 0.908401 0.322676
0.858851 0.907597 0.337851
0.885771 0.906725 0.362148
0.911658 0.904365 0.398179
0.945040 0.901804 0.483244
0.963696 0.900152 0.557473
0.977864 0.899598 0.631965
0.988402 0.900783 0.700092
0.996460 0.904424 0.761279
1.000003 0.910984 0.813327
1.000003 0.920252 0.855809
1.000003 0.931867 0.890947
1.000003 0.944411 0.918768
1.000003 0.957145 0.941314
0.613682 0.932361 0.407769
0.613728 0.932178 0.406930
0.613775 0.931992 0.406080
0.613909 0.931804 0.405220
0.614326 0.931613 0.404336
0.615146 0.931419 0.403424
0.616526 0.931220 0.402475
0.618697 0.931016 0.401473
0.621941 0.930805 0.400410
0.626635 0.930586 0.399265
0.633282 0.930354 0.398008
0.642345 0.930110 0.396632
0.654543 0.929843 0.395099
0.670248 0.929552 0.393433
0.689796 0.929229 0.391686
0.713065 0.928868 0.390012
0.739473 0.928461 0.388713
0.768257 0.927999 0.388309
0.798195 0.927475 0.389641
0.827536 0.926892 0.393818
0.856075 0.926228 0.402504
0.882471 0.925491 0.417404
0.905830 0.924701 0.439705
0.929652 0.922525 0.474118
0.958962 0.920174 0.553784
0.975063 0.918658 0.623461
0.986612 0.918230 0.690018
0.995287 0.919470 0.751744
1.000003 0.922994 0.805366
1.000003 0.929024 0.849641
1.000003 0.937590 0.886423
1.000003 0.947742 0.915529
1.000003 0.958792 0.939036
0.661588 0.947407 0.483869
0.661475 0.947252 0.483092
0.661359 0.947094 0.482306
0.661289 0.946935 0.481512
0.661398 0.946774 0.480703
0.661767 0.946609 0.479872
0.662501 0.946443 0.479019
0.663754 0.946271 0.478129
0.665720 0.946095 0.477200
0.668667 0.945914 0.476216
0.672962 0.945723 0.475156
0.678982 0.945524 0.474013
0.687323 0.945309 0.472750
0.698415 0.945077 0.471372
0.712739 0.944821 0.469883
0.730496 0.944537 0.468344
0.751541 0.944218 0.466895
0.775509 0.943855 0.465800
0.801516 0.943442 0.465539
0.827997 0.942980 0.466821
0.854624 0.942447 0.470731
0.879943 0.941848 0.478619
0.902848 0.941191 0.491750
0.922242 0.939240 0.506951
0.944366 0.938539 0.542752
0.970769 0.936319 0.618875
0.984122 0.934972 0.681641
0.993745 0.934631 0.742340
1.000003 0.935873 0.796744
1.000003 0.939137 0.842570
1.000003 0.944749 0.881050
1.000003 0.952293 0.911613
1.000003 0.961305 0.936269
0.705162 0.960003 0.552082
0.704956 0.959871 0.551369
0.704747 0.959738 0.550649
0.704560 0.959604 0.549923
0.704485 0.959468 0.549185
0.704576 0.959330 0.548432
0.704904 0.959190 0.547663
0.705568 0.959046 0.546869
0.706700 0.958900 0.546049
0.708483 0.958749 0.545193
0.711174 0.958592 0.544285
0.715057 0.958429 0.543321
0.720588 0.958255 0.542270
0.728161 0.958070 0.541130
0.738263 0.957867 0.539890
0.751256 0.957644 0.538565
0.767293 0.957395 0.537211
0.786372 0.957113 0.535951
0.808012 0.956790 0.535039
0.831002 0.956428 0.534899
0.855029 0.956008 0.536187
0.878660 0.955531 0.539846
0.900641 0.955001 0.546918
0.921018 0.954399 0.558939
0.938786 0.953745 0.576721
0.957654 0.951989 0.606107
0.980380 0.949971 0.676497
0.991654 0.948755 0.734383
0.999418 0.948529 0.788321
1.000003 0.949752 0.835074
1.000003 0.952876 0.875052
1.000003 0.957922 0.907108
1.000003 0.964735 0.933040
0.745669 0.970799 0.614773
0.745414 0.970689 0.614128
0.745155 0.970578 0.613474
0.744907 0.970466 0.612817
0.744726 0.970352 0.612151
0.744649 0.970237 0.611473
0.744722 0.970120 0.610785
0.745008 0.970001 0.610079
0.745594 0.969880 0.609356
0.746601 0.969756 0.608609
0.748201 0.969628 0.607826
0.750595 0.969495 0.607008
0.754108 0.969355 0.606129
0.759059 0.969207 0.605186
0.765864 0.969047 0.604164
0.774915 0.968873 0.603061
0.786519 0.968681 0.601893
0.800918 0.968463 0.600705
0.818005 0.968216 0.599615
0.837008 0.967937 0.598862
0.857764 0.967613 0.598803
0.879021 0.967242 0.600039
0.899495 0.966826 0.603315
0.919032 0.966348 0.609756
0.936470 0.965819 0.620269
0.952056 0.965222 0.636235
0.968272 0.963689 0.662327
0.988373 0.961802 0.728622
0.997636 0.960730 0.780629
1.000003 0.960582 0.827365
1.000003 0.961783 0.868417
1.000003 0.964619 0.901892
1.000003 0.969216 0.929202
0.781825 0.979697 0.670186
0.781552 0.979606 0.669606
0.781275 0.979513 0.669019
0.781002 0.979419 0.668428
0.780769 0.979325 0.667830
0.780601 0.979229 0.667225
0.780527 0.979132 0.666611
0.780587 0.979034 0.665984
0.780837 0.978934 0.665346
0.781357 0.978832 0.664692
0.782260 0.978727 0.664014
0.783681 0.978619 0.663312
