3DLUTS/RED_IPP2CubesSDRCoreV1_13/REC2020/RWG_Log3G10 to REC2020_BT1886 with HIGH_CONTRAST and R_3_Soft size_33 v1.13.cube
# RED Digital Cinema Output Transform LUT for IPP2
# LUT Name = RWG_Log3G10 to REC2020_BT1886 with HIGH_CONTRAST and R_3_Soft size_33 v1.13
# Generated by version 1.13
# Settings used in creation of this LUT are:
# Development Color Space = REC2020
# Output Gamma Curve = BT1886
# Output Tonemap = HIGH_CONTRAST
# Highlight Rolloff = Rolloff 3 - soft
# Resolution = 33 x 33 x 33
TITLE "RED IPP2 LUT to map REDWideGamutRGB/Log3G10 to REC2020/BT1886/HIGH_CONTRAST/Rolloff 3 - soft"
LUT_3D_SIZE 33
0.000000 0.000000 0.000000
0.000001 0.000000 0.000000
0.000008 0.000000 0.000000
0.013580 0.003505 0.003505
0.049586 0.003505 0.003505
0.081294 0.003505 0.003505
0.117495 0.004021 0.003761
0.163671 0.007795 0.005848
0.221401 0.018614 0.012462
0.292081 0.032677 0.022513
0.377888 0.049126 0.034418
0.474796 0.069776 0.049457
0.573609 0.097653 0.069771
0.661243 0.134178 0.096179
0.738175 0.184554 0.133355
0.803067 0.246292 0.188696
0.855793 0.321773 0.262796
0.897518 0.412407 0.351877
0.929541 0.502798 0.450881
0.953161 0.584772 0.541307
0.970756 0.658047 0.622303
0.983387 0.719987 0.690791
0.992186 0.769873 0.745913
0.998437 0.810218 0.790439
1.000003 0.841566 0.824990
1.000003 0.866661 0.852612
1.000003 0.886114 0.873999
1.000003 0.901675 0.891089
1.000003 0.913898 0.904499
1.000003 0.923371 0.914886
1.000003 0.931043 0.923290
1.000003 0.937534 0.930399
1.000003 0.943693 0.937138
0.000000 0.000001 0.000000
0.000001 0.000001 0.000000
0.000010 0.000001 0.000000
0.017613 0.003505 0.003505
0.050407 0.003505 0.003505
0.081738 0.003505 0.003505
0.117797 0.004717 0.003721
0.163909 0.010312 0.005691
0.221621 0.021692 0.012115
0.292312 0.035595 0.022151
0.378148 0.051764 0.034080
0.475085 0.072114 0.049170
0.573873 0.099720 0.069540
0.661490 0.136071 0.096011
0.738398 0.186026 0.133264
0.803261 0.247379 0.188709
0.855957 0.322656 0.262947
0.897653 0.413120 0.352150
0.929648 0.503343 0.451207
0.953245 0.585209 0.541639
0.970822 0.658407 0.622619
0.983438 0.720290 0.691081
0.992225 0.770133 0.746174
0.998468 0.810442 0.790671
1.000003 0.841762 0.825196
1.000003 0.866834 0.852796
1.000003 0.886268 0.874165
1.000003 0.901814 0.891238
1.000003 0.914024 0.904636
1.000003 0.923489 0.915013
1.000003 0.931152 0.923409
1.000003 0.937637 0.930510
1.000003 0.943789 0.937242
0.000000 0.000040 0.000000
0.000001 0.000037 0.000000
0.000013 0.000033 0.000000
0.021588 0.003505 0.003505
0.051488 0.003505 0.003505
0.082333 0.004298 0.003505
0.118203 0.007522 0.003721
0.164230 0.015600 0.005495
0.221917 0.026673 0.011646
0.292623 0.040001 0.021658
0.378499 0.055585 0.033623
0.475474 0.075430 0.048781
0.574230 0.102621 0.069225
0.661821 0.138708 0.095782
0.738697 0.188030 0.133137
0.803523 0.248863 0.188724
0.856178 0.323862 0.263148
0.897834 0.414088 0.352518
0.929793 0.504084 0.451646
0.953359 0.585801 0.542087
0.970910 0.658895 0.623047
0.983506 0.720699 0.691472
0.992278 0.770483 0.746526
0.998509 0.810744 0.790984
1.000003 0.842026 0.825474
1.000003 0.867067 0.853045
1.000003 0.886477 0.874388
1.000003 0.902002 0.891441
1.000003 0.914196 0.904821
1.000003 0.923647 0.915184
1.000003 0.931300 0.923568
1.000003 0.937775 0.930659
1.000003 0.943918 0.937383
0.003505 0.039311 0.003505
0.003505 0.038904 0.003505
0.003505 0.038343 0.003505
0.025681 0.037577 0.003505
0.052882 0.034841 0.003505
0.083116 0.028580 0.003505
0.118740 0.022921 0.003663
0.164655 0.026650 0.005256
0.222308 0.035130 0.011031
0.293036 0.046779 0.021005
0.378966 0.061176 0.033014
0.475992 0.080155 0.048260
0.574702 0.106688 0.068800
0.662262 0.142373 0.095470
0.739095 0.190726 0.132961
0.803870 0.250869 0.188736
0.856471 0.325491 0.263412
0.898074 0.415391 0.353006
0.929984 0.505077 0.452228
0.953510 0.586594 0.542682
0.971027 0.659545 0.623614
0.983597 0.721246 0.691993
0.992349 0.770949 0.746993
0.998565 0.811147 0.791400
1.000003 0.842378 0.825845
1.000003 0.867377 0.853375
1.000003 0.886754 0.874685
1.000003 0.902252 0.891710
1.000003 0.914424 0.905067
1.000003 0.923858 0.915412
1.000003 0.931496 0.923781
1.000003 0.937959 0.930859
1.000003 0.944090 0.937569
0.003505 0.064060 0.003505
0.003505 0.063848 0.003505
0.003505 0.063559 0.003505
0.016877 0.063170 0.003505
0.054596 0.062675 0.003505
0.084100 0.059736 0.003505
0.119419 0.055412 0.003663
0.165191 0.050480 0.004985
0.222804 0.049725 0.010273
0.293559 0.057120 0.020188
0.379557 0.069205 0.032242
0.476646 0.086703 0.047593
0.575298 0.112210 0.068253
0.662817 0.147269 0.095063
0.739598 0.194194 0.132727
0.804309 0.253464 0.188739
0.856842 0.327600 0.263738
0.898377 0.417065 0.353619
0.930227 0.506348 0.452963
0.953701 0.587605 0.543434
0.971176 0.660374 0.624332
0.983711 0.721939 0.692651
0.992438 0.771541 0.747585
0.998634 0.811657 0.791926
1.000003 0.842824 0.826313
1.000003 0.867770 0.853792
1.000003 0.887105 0.875061
1.000003 0.902569 0.892050
1.000003 0.914713 0.905379
1.000003 0.924125 0.915700
1.000003 0.931744 0.924049
1.000003 0.938191 0.931111
1.000003 0.944307 0.937805
0.003505 0.096290 0.003505
0.003663 0.096159 0.003505
0.004270 0.095982 0.003505
0.011990 0.095744 0.003505
0.048742 0.095442 0.003505
0.086295 0.094778 0.003505
0.120942 0.091650 0.003505
0.166393 0.088160 0.004516
0.223908 0.085867 0.008782
0.294723 0.086485 0.018421
0.380865 0.091621 0.030530
0.478092 0.103902 0.046092
0.576612 0.126149 0.067000
0.664040 0.158264 0.094114
0.740704 0.202102 0.132156
0.805276 0.259441 0.188692
0.857659 0.332456 0.264430
0.899047 0.420873 0.354959
0.930762 0.509220 0.454579
0.954123 0.589876 0.545093
0.971503 0.662225 0.625918
0.983964 0.723484 0.694106
0.992634 0.772856 0.748892
0.998788 0.812789 0.793090
1.000003 0.843812 0.827349
1.000003 0.868641 0.854717
1.000003 0.887882 0.875892
1.000003 0.903269 0.892803
1.000003 0.915351 0.906067
1.000003 0.924714 0.916337
1.000003 0.932293 0.924644
1.000003 0.938706 0.931668
1.000003 0.944788 0.938326
0.004393 0.136233 0.003505
0.005038 0.136139 0.003505
0.006854 0.136011 0.003505
0.014000 0.135839 0.003505
0.036649 0.135620 0.003505
0.080526 0.135137 0.003505
0.123742 0.134292 0.003505
0.168587 0.130608 0.003990
0.225902 0.127721 0.006880
0.296807 0.126791 0.015454
0.383191 0.128894 0.027505
0.480646 0.136190 0.043347
0.578912 0.152002 0.064637
0.666184 0.178047 0.092261
0.742646 0.217008 0.130955
0.806976 0.270916 0.188414
0.859098 0.341781 0.265533
0.900227 0.428013 0.357265
0.931706 0.514538 0.457404
0.954867 0.594029 0.548012
0.972080 0.665575 0.628719
0.984409 0.726261 0.696680
0.992981 0.775208 0.751208
0.999060 0.814808 0.795150
1.000003 0.845572 0.829184
1.000003 0.870189 0.856353
1.000003 0.889263 0.877364
1.000003 0.904513 0.894136
1.000003 0.916484 0.907286
1.000003 0.925760 0.917465
1.000003 0.933267 0.925696
1.000003 0.939618 0.932655
1.000003 0.945640 0.939249
0.008525 0.189471 0.003761
0.010315 0.189393 0.003761
0.013584 0.189287 0.003761
0.019607 0.189145 0.003761
0.031132 0.188963 0.003761
0.071786 0.188560 0.003761
0.117166 0.187839 0.003825
0.172407 0.186689 0.003850
0.229281 0.182290 0.005103
0.300265 0.179587 0.011183
0.386981 0.179244 0.022711
0.484738 0.182711 0.038717
0.582538 0.192690 0.060423
0.669559 0.211873 0.088751
0.745712 0.244029 0.128422
0.809670 0.292312 0.187319
0.861384 0.359207 0.266892
0.902107 0.440813 0.360731
0.933212 0.523868 0.461812
0.956055 0.601153 0.552648
0.973003 0.671215 0.633201
0.985123 0.730871 0.700813
0.993536 0.779077 0.754934
0.999494 0.818108 0.798468
1.000003 0.848436 0.832140
1.000003 0.872704 0.858990
1.000003 0.891501 0.879736
1.000003 0.906526 0.896284
1.000003 0.918318 0.909251
1.000003 0.927451 0.919283
1.000003 0.934841 0.927392
1.000003 0.941092 0.934245
1.000003 0.947017 0.940736
0.019457 0.258551 0.004385
0.021468 0.258478 0.004385
0.024559 0.258379 0.004393
0.029431 0.258245 0.004393
0.037129 0.258076 0.004410
0.062988 0.257695 0.004426
0.110243 0.257003 0.004457
0.164955 0.255851 0.004516
0.233427 0.252779 0.005161
0.305179 0.248869 0.007121
0.392152 0.245797 0.016747
0.490066 0.245842 0.032303
0.587083 0.250780 0.054053
0.673779 0.263287 0.082963
0.749567 0.287556 0.123650
0.813085 0.328044 0.184211
0.864307 0.388036 0.267490
0.904526 0.461015 0.364524
0.935160 0.538163 0.467184
0.957597 0.611688 0.558530
0.974203 0.679285 0.638995
0.986051 0.737303 0.706207
0.994259 0.784383 0.759818
1.000003 0.822583 0.802831
1.000003 0.852292 0.836032
1.000003 0.876071 0.862466
1.000003 0.894490 0.882864
1.000003 0.909208 0.899119
1.000003 0.920756 0.911844
1.000003 0.929697 0.921683
1.000003 0.936931 0.929631
1.000003 0.943046 0.936343
1.000003 0.948842 0.942700
0.036218 0.346202 0.005811
0.038110 0.346128 0.005814
0.040864 0.346028 0.005821
0.044920 0.345894 0.005831
0.050799 0.345723 0.005841
0.067588 0.345337 0.005868
0.107457 0.344629 0.005907
0.159449 0.343415 0.005972
0.225703 0.341677 0.006069
0.310289 0.337584 0.007423
0.398342 0.332684 0.011079
0.495704 0.328903 0.025138
0.591471 0.329082 0.046020
0.677800 0.335312 0.074811
0.753286 0.351408 0.115901
0.816445 0.382255 0.177541
0.867240 0.429169 0.265399
0.906996 0.489724 0.366688
0.937175 0.557888 0.471881
0.959208 0.625575 0.564278
0.975466 0.689412 0.644932
0.987034 0.745043 0.711867
0.995027 0.790577 0.765011
1.000003 0.827697 0.807505
1.000003 0.856639 0.840223
1.000003 0.879833 0.866221
1.000003 0.897808 0.886250
1.000003 0.912174 0.902191
1.000003 0.923445 0.914659
1.000003 0.932171 0.924289
1.000003 0.939228 0.932063
1.000003 0.945192 0.938626
1.000003 0.950845 0.944837
0.060964 0.448263 0.009282
0.062665 0.448199 0.009290
0.065083 0.448113 0.009298
0.068533 0.447997 0.009312
0.073331 0.447848 0.009326
0.085994 0.447512 0.009357
0.115490 0.446891 0.009411
0.160327 0.445810 0.009484
0.220883 0.444198 0.009577
0.301236 0.442138 0.009747
0.405596 0.439885 0.010292
0.500416 0.432323 0.018649
0.594375 0.427969 0.037558
0.680253 0.427936 0.065009
0.755630 0.434681 0.105122
0.818713 0.451850 0.166115
0.869356 0.482661 0.258039
0.908876 0.527805 0.364413
0.938775 0.583662 0.473567
0.960527 0.642914 0.567962
0.976525 0.701278 0.649424
0.987871 0.753548 0.716476
0.995689 0.797034 0.769404
1.000003 0.832823 0.811550
1.000003 0.860882 0.843901
1.000003 0.883439 0.869548
1.000003 0.900952 0.889273
1.000003 0.914962 0.904948
1.000003 0.925960 0.917193
1.000003 0.934475 0.926643
1.000003 0.941363 0.934266
1.000003 0.947185 0.940697
1.000003 0.952701 0.946778
0.111532 0.524129 0.020547
0.098414 0.544582 0.016672
0.100545 0.544512 0.016680
0.103541 0.544417 0.016689
0.107626 0.544296 0.016702
0.118009 0.544022 0.016727
0.138441 0.543516 0.016765
0.172601 0.542629 0.016805
0.224076 0.541290 0.016823
0.296440 0.539512 0.016849
0.393942 0.537382 0.017106
0.499290 0.535148 0.018227
0.592784 0.527727 0.030005
0.679529 0.523292 0.055205
0.755107 0.522988 0.092544
0.818611 0.529351 0.150215
0.869629 0.545713 0.242760
0.909381 0.574703 0.354400
0.939373 0.615791 0.469240
0.961122 0.663921 0.567095
0.977063 0.714730 0.650456
0.988333 0.762373 0.718399
0.996075 0.803161 0.771653
1.000003 0.837323 0.813847
1.000003 0.864394 0.846118
1.000003 0.886299 0.871634
1.000003 0.903374 0.891218
1.000003 0.917069 0.906756
1.000003 0.927835 0.918880
1.000003 0.936181 0.928227
1.000003 0.942934 0.935761
1.000003 0.948645 0.942112
1.000003 0.954057 0.948114
0.149541 0.631953 0.028458
0.150686 0.631911 0.028461
0.152255 0.631853 0.028466
0.154383 0.631777 0.028471
0.157150 0.631679 0.028477
0.163573 0.631458 0.028489
0.176066 0.631051 0.028500
0.199749 0.630340 0.028491
0.239855 0.629264 0.028418
0.301264 0.627820 0.028274
0.388733 0.626025 0.028209
0.488108 0.623971 0.028740
0.586126 0.621798 0.031050
0.673684 0.614846 0.047195
0.752031 0.610440 0.081357
0.816467 0.609871 0.133665
0.868169 0.615495 0.220405
0.908473 0.630265 0.336335
0.938872 0.655959 0.457611
0.960895 0.690724 0.560492
0.977000 0.731488 0.647097
0.988357 0.772632 0.716939
0.996137 0.809600 0.771231
1.000003 0.841529 0.813986
1.000003 0.867327 0.846544
1.000003 0.888460 0.872204
1.000003 0.905066 0.891853
1.000003 0.918453 0.907416
1.000003 0.929014 0.919542
1.000003 0.937219 0.928879
1.000003 0.943869 0.936400
1.000003 0.949500 0.942735
1.000003 0.954840 0.948720
0.210259 0.707248 0.046465
0.210908 0.707214 0.046464
0.211805 0.707168 0.046464
0.213033 0.707106 0.046462
0.214651 0.707027 0.046460
0.218493 0.706850 0.046452
0.226290 0.706523 0.046428
0.242102 0.705955 0.046357
0.271314 0.705104 0.046183
0.320125 0.703965 0.045864
0.394330 0.702536 0.045474
0.483233 0.700845 0.045406
0.575865 0.698910 0.046620
0.662740 0.696875 0.051073
0.742881 0.690513 0.073486
0.811667 0.686303 0.120645
0.864914 0.685528 0.196954
0.906266 0.690323 0.312965
0.937423 0.703094 0.439425
0.959964 0.724469 0.548356
0.976425 0.753531 0.639428
0.988008 0.786198 0.712209
0.995926 0.817817 0.768296
1.000003 0.846516 0.812155
1.000003 0.870470 0.845375
1.000003 0.890513 0.871454
1.000003 0.906483 0.891365
1.000003 0.919479 0.907101
1.000003 0.929798 0.919341
1.000003 0.937850 0.928756
1.000003 0.944396 0.936330
1.000003 0.949951 0.942706
1.000003 0.955230 0.948724
0.278838 0.770713 0.073558
0.279234 0.770685 0.073552
0.279782 0.770648 0.073543
0.280537 0.770598 0.073532
0.281537 0.770535 0.073518
0.283937 0.770391 0.073482
0.288911 0.770129 0.073409
0.299374 0.769677 0.073255
0.319820 0.769007 0.072959
0.356481 0.768120 0.072455
0.414424 0.767015 0.071748
0.488219 0.765695 0.071100
0.571223 0.764137 0.071260
0.653551 0.762381 0.073839
0.728807 0.760508 0.081995
0.800040 0.754825 0.113391
0.859179 0.750901 0.181004
0.902486 0.749964 0.289036
0.934877 0.753844 0.416070
0.958250 0.764136 0.530660
0.975290 0.781632 0.626996
0.987261 0.804540 0.703758
0.995427 0.829242 0.762519
1.000003 0.853419 0.808138
1.000003 0.874660 0.842473
1.000003 0.893057 0.869296
1.000003 0.908063 0.889698
1.000003 0.920472 0.905777
1.000003 0.930434 0.918257
1.000003 0.938268 0.927840
1.000003 0.944673 0.935541
1.000003 0.950131 0.942017
1.000003 0.955334 0.948124
0.358057 0.822898 0.114119
0.358304 0.822875 0.114105
0.358646 0.822845 0.114086
0.359120 0.822805 0.114060
0.359749 0.822753 0.114027
0.361272 0.822638 0.113950
0.364477 0.822427 0.113803
0.371380 0.822067 0.113527
0.385097 0.821538 0.113058
0.409845 0.820849 0.112324
0.449910 0.820002 0.111281
0.505992 0.818999 0.110065
0.575183 0.817804 0.109212
0.649237 0.816417 0.110065
0.720787 0.814846 0.115241
0.784387 0.813159 0.129777
0.846079 0.808183 0.175334
0.896522 0.804574 0.273199
0.931068 0.803537 0.392804
0.955704 0.806423 0.509585
0.973582 0.814580 0.610418
0.986110 0.828064 0.691599
0.994639 0.845000 0.753761
1.000003 0.863461 0.801806
1.000003 0.880962 0.837761
1.000003 0.896946 0.865697
1.000003 0.910476 0.886849
1.000003 0.921956 0.903460
1.000003 0.931342 0.916317
1.000003 0.938820 0.926169
1.000003 0.944991 0.934074
1.000003 0.950286 0.940711
1.000003 0.955365 0.946965
0.442792 0.864957 0.176133
0.442917 0.864939 0.176105
0.443091 0.864914 0.176069
0.443333 0.864882 0.176019
0.443657 0.864840 0.175955
0.444448 0.864747 0.175810
0.446138 0.864578 0.175540
0.449860 0.864290 0.175060
0.457566 0.863871 0.174302
0.472258 0.863333 0.173206
0.497812 0.862684 0.171702
0.536875 0.861928 0.169833
0.589944 0.861032 0.167923
0.652139 0.859982 0.167070
0.716839 0.858760 0.169570
0.777533 0.857377 0.179765
0.830223 0.855888 0.206043
0.882923 0.851571 0.269152
0.925337 0.848313 0.378147
0.952122 0.847223 0.489804
0.971235 0.849295 0.591794
0.984531 0.855367 0.676470
0.993551 0.865047 0.742181
0.999808 0.877330 0.793122
1.000003 0.890287 0.831161
1.000003 0.903062 0.860594
1.000003 0.914488 0.882780
1.000003 0.924571 0.900134
1.000003 0.933053 0.913521
1.000003 0.939950 0.923753
1.000003 0.945727 0.931944
1.000003 0.950742 0.938811
1.000003 0.955598 0.945271
0.521999 0.898546 0.271268
0.522054 0.898532 0.271225
0.522132 0.898512 0.271168
0.522241 0.898485 0.271092
0.522388 0.898452 0.270994
0.522756 0.898377 0.270775
0.523571 0.898241 0.270372
0.525453 0.898010 0.269673
0.529560 0.897678 0.268621
0.537832 0.897256 0.267185
0.553128 0.896756 0.265309
0.578321 0.896185 0.262968
0.615739 0.895519 0.260248
0.663976 0.894742 0.257835
0.718773 0.893826 0.257448
0.773969 0.892766 0.262344
0.824430 0.891569 0.277170
0.867688 0.890268 0.307230
0.911748 0.886583 0.372246
0.946775 0.883705 0.477846
0.967996 0.882566 0.574867
0.982426 0.883889 0.660136
0.992117 0.888007 0.728455
0.998805 0.894723 0.782247
1.000003 0.902980 0.822637
1.000003 0.912040 0.853892
1.000003 0.920798 0.877395
1.000003 0.928981 0.895718
1.000003 0.936161 0.909807
1.000003 0.942181 0.920543
1.000003 0.947340 0.929118
1.000003 0.951898 0.936291
1.000003 0.956379 0.943026
0.593574 0.924971 0.377056
0.593592 0.924959 0.377007
0.593617 0.924943 0.376941
0.593654 0.924922 0.376853
0.593707 0.924895 0.376740
0.593846 0.924834 0.376486
0.594182 0.924725 0.376024
0.595042 0.924541 0.375235
0.597096 0.924275 0.374078
0.601538 0.923943 0.372565
0.610268 0.923555 0.370689
0.625591 0.923120 0.368433
0.650150 0.922624 0.365749
0.684750 0.922052 0.362900
0.727864 0.921379 0.360696
0.775098 0.920590 0.361021
0.821284 0.919681 0.367089
0.862866 0.918651 0.383162
0.897862 0.917531 0.412744
0.933225 0.914490 0.469455
0.963173 0.911887 0.564664
0.979550 0.910762 0.645737
0.990238 0.911424 0.714271
0.997516 0.914050 0.769966
1.000003 0.918300 0.812504
1.000003 0.923761 0.845676
1.000003 0.929646 0.870681
1.000003 0.935596 0.890165
1.000003 0.941133 0.905119
1.000003 0.945984 0.916490
1.000003 0.950280 0.925551
1.000003 0.954176 0.933115
1.000003 0.958092 0.940202
0.655549 0.945211 0.475165
0.655548 0.945202 0.475120
0.655547 0.945189 0.475059
0.655548 0.945172 0.474977
0.655552 0.945150 0.474873
0.655573 0.945101 0.474639
0.655660 0.945013 0.474214
0.655976 0.944864 0.473495
0.656912 0.944652 0.472457
0.659198 0.944387 0.471136
0.664041 0.944082 0.469558
0.673070 0.943746 0.467735
0.688485 0.943370 0.465604
0.711895 0.942945 0.463210
0.743666 0.942450 0.460827
0.781634 0.941869 0.459300
0.821747 0.941191 0.460325
0.860149 0.940408 0.466535
0.893954 0.939528 0.481024
0.921529 0.938590 0.505636
0.950555 0.936031 0.553868
0.975332 0.933756 0.636978
0.987716 0.932698 0.702285
0.995868 0.932899 0.757957
1.000003 0.934384 0.801758
1.000003 0.937009 0.836517
1.000003 0.940353 0.862964
1.000003 0.944126 0.883663
1.000003 0.947929 0.899572
1.000003 0.951461 0.911665
1.000003 0.954732 0.921293
1.000003 0.957805 0.929320
1.000003 0.960990 0.936829
0.709623 0.961034 0.559439
0.709613 0.961026 0.559398
0.709599 0.961016 0.559342
0.709581 0.961002 0.559268
0.709561 0.960984 0.559174
0.709522 0.960945 0.558961
0.709481 0.960874 0.558578
0.709510 0.960754 0.557933
0.709836 0.960583 0.557007
0.710905 0.960371 0.555850
0.713471 0.960130 0.554502
0.718608 0.959868 0.552995
0.727907 0.959580 0.551284
0.742956 0.959262 0.549363
0.764969 0.958897 0.547287
0.793561 0.958472 0.545386
0.826364 0.957973 0.544476
0.860118 0.957391 0.546028
0.891571 0.956724 0.552126
0.918308 0.955993 0.564695
0.940477 0.955197 0.585470
0.963190 0.953131 0.623759
0.983865 0.951165 0.694594
0.993576 0.950150 0.747719
0.999720 0.950007 0.791342
1.000003 0.950720 0.826933
1.000003 0.952135 0.854497
1.000003 0.954082 0.876300
1.000003 0.956297 0.893161
1.000003 0.958533 0.906019
1.000003 0.960733 0.916269
1.000003 0.962902 0.924819
1.000003 0.965247 0.932815
0.755011 0.973052 0.629364
0.754996 0.973046 0.629327
0.754977 0.973037 0.629277
0.754951 0.973026 0.629211
0.754920 0.973012 0.629126
0.754854 0.972980 0.628937
0.754752 0.972922 0.628594
0.754640 0.972825 0.628018
0.754651 0.972687 0.627198
0.755065 0.972516 0.626181
0.756358 0.972323 0.625016
0.759226 0.972116 0.623744
0.764750 0.971892 0.622340
0.774196 0.971648 0.620790
0.788895 0.971375 0.619082
0.809420 0.971061 0.617326
0.834879 0.970693 0.615885
0.863124 0.970262 0.615526
0.891206 0.969761 0.617513
0.916307 0.969205 0.623303
0.937896 0.968583 0.634501
0.954262 0.967097 0.647729
0.972064 0.966336 0.679697
0.990060 0.964599 0.740913
0.997616 0.963676 0.782811
1.000003 0.963330 0.818130
1.000003 0.963541 0.846170
1.000003 0.964223 0.868723
1.000003 0.965236 0.886358
1.000003 0.966414 0.899901
1.000003 0.967685 0.910745
1.000003 0.969027 0.919816
1.000003 0.970561 0.928313
0.791770 0.981954 0.685466
0.791754 0.981949 0.685434
0.791733 0.981942 0.685390
0.791704 0.981933 0.685330
0.791669 0.981921 0.685254
0.791593 0.981895 0.685085
0.791467 0.981847 0.684779
0.791291 0.981767 0.684265
0.791147 0.981654 0.683536
0.791221 0.981514 0.682636
0.791823 0.981357 0.681617
0.793413 0.981190 0.680523
0.796717 0.981011 0.679340
0.802669 0.980820 0.678061
0.812413 0.980610 0.676659
0.826839 0.980372 0.675159
0.845972 0.980096 0.673715
0.868744 0.979772 0.672709
0.892923 0.979393 0.672878
0.915756 0.978968 0.675215
0.936245 0.978487 0.680931
0.953207 0.977968 0.690834
0.965554 0.976719 0.700895
0.979101 0.976199 0.725614
0.994211 0.974729 0.775912
1.000003 0.973877 0.811131
1.000003 0.973455 0.838905
1.000003 0.973397 0.861710
1.000003 0.973644 0.879805
1.000003 0.974097 0.893844
1.000003 0.974690 0.905165
1.000003 0.975395 0.914682
1.000003 0.976272 0.923631
0.821914 0.988694 0.731112
0.821898 0.988689 0.731082
0.821877 0.988684 0.731042
0.821849 0.988676 0.730989
0.821813 0.988666 0.730921
0.821735 0.988644 0.730770
0.821601 0.988605 0.730496
0.821401 0.988538 0.730038
0.821184 0.988444 0.729388
0.821080 0.988329 0.728589
0.821298 0.988199 0.727690
0.822150 0.988062 0.726734
0.824128 0.987917 0.725718
0.827899 0.987764 0.724639
0.834359 0.987599 0.723474
0.844395 0.987414 0.722217
0.858472 0.987203 0.720923
0.876303 0.986956 0.719779
0.896468 0.986667 0.719200
0.916622 0.986340 0.719832
0.935569 0.985967 0.722516
0.951827 0.985559 0.728003
0.964803 0.985138 0.736455
0.975060 0.984706 0.747787
0.984056 0.983789 0.762089
0.996960 0.982540 0.802700
1.000003 0.981765 0.832994
1.000003 0.981317 0.855572
1.000003 0.981121 0.873793
1.000003 0.981124 0.888104
1.000003 0.981271 0.899747
1.000003 0.981533 0.909602
1.000003 0.981932 0.918921
0.845782 0.993662 0.767012
0.845767 0.993659 0.766985
0.845746 0.993654 0.766950
0.845719 0.993647 0.766902
0.845685 0.993639 0.766841
0.845609 0.993620 0.766704
0.845477 0.993587 0.766458
0.845270 0.993531 0.766045
0.845024 0.993452 0.765460
0.844831 0.993354 0.764744
0.844841 0.993245 0.763941
0.845277 0.993130 0.763094
0.846480 0.993010 0.762202
0.848931 0.992884 0.761271
0.853314 0.992750 0.760278
0.860399 0.992603 0.759211
0.870790 0.992436 0.758088
0.884644 0.992243 0.756993
0.901201 0.992017 0.756162
0.918649 0.991760 0.756014
0.935830 0.991466 0.757121
0.951134 0.991141 0.760095
0.963697 0.990803 0.765220
0.973830 0.990452 0.772609
0.981584 0.990110 0.781656
0.988289 0.989401 0.792091
0.998632 0.988407 0.822642
1.000003 0.987673 0.850521
1.000003 0.987250 0.868724
1.000003 0.987006 0.883094
1.000003 0.986894 0.894898
1.000003 0.986886 0.904963
1.000003 0.986977 0.914541
0.865304 0.997475 0.796209
0.865289 0.997472 0.796184
0.865270 0.997468 0.796152
0.865244 0.997463 0.796109
0.865211 0.997455 0.796053
0.865139 0.997440 0.795930
0.865011 0.997411 0.795707
0.864809 0.997363 0.795333
0.864554 0.997295 0.794804
0.864317 0.997212 0.794157
0.864212 0.997119 0.793434
0.864400 0.997022 0.792675
0.865125 0.996920 0.791882
0.866741 0.996815 0.791063
0.869763 0.996704 0.790201
0.874826 0.996583 0.789284
0.882530 0.996449 0.788311
0.893251 0.996295 0.787319
0.906691 0.996115 0.786440
0.921560 0.995911 0.785946
0.936874 0.995675 0.786219
0.951048 0.995414 0.787735
0.963033 0.995140 0.790792
0.972916 0.994853 0.795569
0.980603 0.994571 0.801753
0.986695 0.994291 0.809179
0.991448 0.993766 0.816309
0.999616 0.992990 0.838359
1.000003 0.992315 0.863020
1.000003 0.991919 0.878719
1.000003 0.991661 0.890559
1.000003 0.991492 0.900733
1.000003 0.991393 0.910478
0.880778 1.000003 0.819243
0.880765 1.000003 0.819221
0.880747 1.000003 0.819191
0.880722 1.000003 0.819152
0.880691 1.000003 0.819101
0.880623 1.000003 0.818988
0.880502 1.000003 0.818784
0.880306 1.000003 0.818442
0.880053 1.000003 0.817959
0.879799 1.000003 0.817368
0.879631 1.000003 0.816709
0.879673 0.999937 0.816020
