3DLUTS/RED_IPP2CubesSDRCoreV1_13/REC2020/RWG_Log3G10 to REC2020_BT1886 with LOW_CONTRAST and R_4_VerySoft size_33 v1.13.cube
# RED Digital Cinema Output Transform LUT for IPP2
# LUT Name = RWG_Log3G10 to REC2020_BT1886 with LOW_CONTRAST and R_4_VerySoft size_33 v1.13
# Generated by version 1.13
# Settings used in creation of this LUT are:
# Development Color Space = REC2020
# Output Gamma Curve = BT1886
# Output Tonemap = LOW_CONTRAST
# Highlight Rolloff = Rolloff 4 - very soft
# Resolution = 33 x 33 x 33
TITLE "RED IPP2 LUT to map REDWideGamutRGB/Log3G10 to REC2020/BT1886/LOW_CONTRAST/Rolloff 4 - very soft"
LUT_3D_SIZE 5
0.000000 0.000000 0.000000
0.273703 0.023274 0.015653
0.736634 0.229414 0.171832
0.973808 0.674790 0.647655
1.000001 0.913315 0.904554
0.027079 0.322298 0.004909
0.291828 0.316778 0.005161
0.750701 0.352750 0.161672
0.979440 0.697561 0.667070
1.000001 0.922790 0.914566
0.335614 0.760551 0.103411
0.377829 0.758414 0.101871
0.720022 0.750172 0.116803
0.978877 0.773935 0.653176
1.000001 0.929699 0.918519
0.707795 0.957800 0.591860
0.707546 0.957045 0.589150
0.754944 0.954965 0.581444
0.932237 0.950211 0.611639
1.000001 0.952974 0.892539
0.894873 1.000001 0.847414
0.893875 1.000001 0.845957
0.894837 1.000001 0.842604
0.935208 1.000001 0.838939
1.000001 1.000001 0.856215
0.011016 0.004360 0.297873
0.262886 0.004494 0.297592
0.734417 0.199108 0.301195
0.973607 0.673327 0.652274
1.000001 0.913234 0.904648
0.013675 0.274175 0.280529
0.279662 0.279662 0.279662
0.747640 0.332351 0.292978
0.978975 0.695347 0.670097
1.000001 0.922287 0.914179
0.329298 0.756245 0.161682
0.375294 0.756923 0.158952
0.719905 0.748325 0.194199
0.978447 0.773098 0.655878
1.000001 0.929307 0.918183
0.705681 0.956942 0.592236
0.708296 0.957296 0.593370
0.755399 0.955187 0.586491
0.932571 0.950426 0.616183
1.000001 0.952978 0.892184
0.893752 1.000001 0.846058
0.894381 1.000001 0.846777
0.895304 1.000001 0.843455
0.935490 1.000001 0.839821
1.000001 1.000001 0.857010
0.038461 0.008275 0.727900
0.133244 0.008229 0.730377
0.672118 0.019399 0.723962
0.961719 0.613680 0.722632
1.000001 0.898436 0.894342
0.035488 0.040735 0.736687
0.131235 0.039255 0.735655
0.685028 0.063462 0.731251
0.967355 0.639269 0.733197
1.000001 0.907910 0.903566
0.217734 0.706457 0.715053
0.293768 0.707008 0.715041
0.706709 0.706709 0.706709
0.964831 0.743321 0.726800
1.000001 0.914315 0.905746
0.696204 0.951767 0.677064
0.699153 0.952156 0.677035
0.752904 0.952582 0.675018
0.932103 0.947588 0.698080
1.000001 0.948652 0.878460
0.891048 1.000001 0.848237
0.891682 1.000001 0.848817
0.896038 1.000001 0.849878
0.935872 1.000001 0.847425
1.000001 1.000001 0.863601
0.015746 0.004360 0.958872
0.026735 0.004288 0.960667
0.621199 0.004352 0.958905
0.899118 0.080825 0.938534
1.000001 0.848203 0.921701
0.012103 0.005061 0.965765
0.022171 0.004970 0.965714
0.627926 0.005121 0.963583
0.906652 0.105414 0.944400
1.000001 0.860014 0.927662
0.011281 0.524880 0.955792
0.019373 0.521034 0.955761
0.624447 0.507763 0.951139
0.918359 0.583697 0.945424
1.000001 0.867881 0.934735
0.637732 0.924769 0.930186
0.641818 0.925151 0.930529
0.719381 0.925489 0.930017
0.924755 0.924755 0.924755
1.000001 0.930602 0.925361
0.884146 1.000001 0.909950
0.884830 1.000001 0.910048
0.889857 1.000001 0.910079
0.933541 1.000001 0.908610
1.000001 1.000001 0.918053
0.003505 0.003505 1.000001
0.003505 0.003505 1.000001
0.107012 0.003505 1.000001
0.906197 0.003505 1.000001
0.986417 0.359795 1.000001
0.003505 0.003505 1.000001
0.003505 0.003505 1.000001
0.071960 0.003505 1.000001
0.914006 0.003505 1.000001
0.990029 0.409285 1.000001
0.003505 0.005188 1.000001
0.003505 0.004774 1.000001
0.012558 0.004037 1.000001
0.900743 0.037274 1.000001
0.996333 0.608196 1.000001
0.004571 0.880538 1.000001
0.004830 0.880186 1.000001
0.397534 0.874694 1.000001
0.898808 0.871614 1.000001
0.998466 0.887867 1.000001
0.858503 1.000001 1.000001
0.859267 1.000001 1.000001
0.866109 1.000001 1.000001
0.923547 1.000001 1.000001
1.000001 1.000001 1.000001
