3DLUTS/RED_IPP2CubesSDRCoreV1_13/REC2020/RWG_Log3G10 to REC2020_BT1886 with NO_CONTRAST and R_4_VerySoft size_33 v1.13.cube
# RED Digital Cinema Output Transform LUT for IPP2
# LUT Name = RWG_Log3G10 to REC2020_BT1886 with NO_CONTRAST and R_4_VerySoft size_33 v1.13
# Generated by version 1.13
# Settings used in creation of this LUT are:
# Development Color Space = REC2020
# Output Gamma Curve = BT1886
# Output Tonemap = NO_CONTRAST
# Highlight Rolloff = Rolloff 4 - very soft
# Resolution = 33 x 33 x 33
TITLE "RED IPP2 LUT to map REDWideGamutRGB/Log3G10 to REC2020/BT1886/NO_CONTRAST/Rolloff 4 - very soft"
LUT_3D_SIZE 9
0.000000 0.000000 0.000000
0.114955 0.003505 0.003505
0.305900 0.005674 0.004617
0.498896 0.044409 0.030183
0.686774 0.150924 0.107458
0.840995 0.362619 0.307632
0.945035 0.588587 0.554261
1.000001 0.778293 0.759355
1.000001 0.907320 0.898123
0.003505 0.161052 0.003505
0.135657 0.157380 0.003505
0.321736 0.150426 0.003972
0.515402 0.165697 0.025624
0.701950 0.235335 0.108545
0.852584 0.402455 0.326290
0.952075 0.611523 0.574818
1.000001 0.793395 0.775058
1.000001 0.916407 0.907807
0.012327 0.374970 0.003825
0.121106 0.371522 0.003825
0.336553 0.367339 0.003825
0.527118 0.356930 0.017933
0.712851 0.372910 0.098333
0.861482 0.464484 0.334251
0.957679 0.636766 0.590784
1.000001 0.806885 0.788077
1.000001 0.924115 0.915910
0.096054 0.566489 0.015686
0.169182 0.563945 0.015485
0.322582 0.560607 0.014969
0.523165 0.556174 0.016357
0.712027 0.545039 0.076690
0.862851 0.566348 0.311663
0.959600 0.669464 0.592416
1.000001 0.816600 0.793717
1.000001 0.928565 0.920168
0.279896 0.728478 0.071231
0.301895 0.726683 0.070408
0.369669 0.724522 0.068847
0.510429 0.721487 0.067164
0.685784 0.717144 0.078147
0.853609 0.706609 0.257128
0.956375 0.732123 0.569777
1.000001 0.827433 0.788334
1.000001 0.929538 0.919302
0.477622 0.851974 0.250156
0.481034 0.850760 0.247019
0.497809 0.849416 0.243005
0.555415 0.847720 0.236857
0.674963 0.845170 0.233972
0.814693 0.841277 0.284156
0.946269 0.832182 0.527245
1.000001 0.858355 0.768685
1.000001 0.930789 0.913089
0.653283 0.936274 0.514888
0.652640 0.935512 0.512376
0.654743 0.934705 0.509660
0.668015 0.933791 0.506392
0.713819 0.932575 0.502024
0.806220 0.930623 0.501141
0.907153 0.927460 0.536387
0.998916 0.920265 0.735115
1.000001 0.943086 0.899599
0.794315 0.988129 0.711204
0.793179 0.987694 0.709360
0.792489 0.987242 0.707442
0.793916 0.986760 0.705390
0.803453 0.986200 0.702997
0.836350 0.985408 0.700023
0.901034 0.984054 0.699995
0.967679 0.981724 0.724934
1.000001 0.976548 0.876260
0.895146 1.000001 0.847776
0.894264 1.000001 0.846541
0.893430 1.000001 0.845268
0.892924 1.000001 0.843950
0.893831 1.000001 0.842549
0.900136 1.000001 0.840944
0.921845 1.000001 0.839041
0.963563 1.000001 0.839359
1.000001 1.000001 0.855844
0.003505 0.003505 0.133979
0.104308 0.003505 0.135880
0.302907 0.004037 0.126931
0.497780 0.032373 0.125507
0.686648 0.136947 0.173632
0.841300 0.358962 0.333786
0.945343 0.588742 0.559522
1.000001 0.778971 0.760764
1.000001 0.907833 0.898748
0.003505 0.123183 0.129284
0.124365 0.124365 0.124365
0.317910 0.117591 0.103186
0.513474 0.139322 0.104192
0.701153 0.221887 0.170852
0.852394 0.398526 0.349469
0.952082 0.610934 0.578714
1.000001 0.793469 0.775728
1.000001 0.916540 0.908014
0.008376 0.360366 0.028563
0.109485 0.361035 0.024830
0.333137 0.355960 0.029937
0.525414 0.346185 0.062928
0.712150 0.365533 0.145762
0.861333 0.461707 0.354761
0.957701 0.636333 0.594105
1.000001 0.806991 0.788678
1.000001 0.924257 0.916114
0.089635 0.560263 0.036228
0.164100 0.561041 0.034926
0.319837 0.557408 0.035747
0.522569 0.552851 0.039547
0.711487 0.542131 0.107423
0.862718 0.564812 0.331994
0.959628 0.669161 0.595499
1.000001 0.816721 0.794289
1.000001 0.928713 0.920374
0.275746 0.725607 0.087493
0.300904 0.726354 0.087046
0.368743 0.724097 0.086456
0.510069 0.720973 0.085509
0.686090 0.716619 0.099228
0.853563 0.706211 0.278543
0.956404 0.732042 0.572965
1.000001 0.827556 0.788910
1.000001 0.929685 0.919511
0.475040 0.850466 0.261145
0.481561 0.851044 0.262078
0.498191 0.849674 0.259045
0.555646 0.847951 0.254022
0.675255 0.845378 0.251841
0.815144 0.841486 0.299170
0.946330 0.832376 0.530747
1.000001 0.858519 0.769301
1.000001 0.930930 0.913304
0.651345 0.935429 0.514519
0.653403 0.935813 0.515713
0.655458 0.934999 0.513131
0.668624 0.934079 0.510023
0.714269 0.932856 0.505834
0.806596 0.930900 0.505012
0.907512 0.927737 0.539704
0.998970 0.920497 0.735874
1.000001 0.943233 0.899826
0.792897 0.987667 0.709658
0.793816 0.987892 0.710602
0.793113 0.987438 0.708699
0.794511 0.986954 0.706665
0.803974 0.986393 0.704295
0.836746 0.985600 0.701346
0.901333 0.984246 0.701308
0.967912 0.981918 0.726114
1.000001 0.976708 0.876550
0.894188 1.000001 0.846553
0.894709 1.000001 0.847198
0.893871 1.000001 0.845925
0.893358 1.000001 0.844608
0.894248 1.000001 0.843208
0.900506 1.000001 0.841605
0.922127 1.000001 0.839705
0.963761 1.000001 0.840011
1.000001 1.000001 0.856444
0.004472 0.003505 0.334448
0.062166 0.003505 0.337220
0.293080 0.003663 0.336818
0.491994 0.013983 0.326861
0.683015 0.103730 0.325423
0.839568 0.342802 0.395343
0.944673 0.584719 0.571005
1.000001 0.777762 0.761654
1.000001 0.907390 0.898517
0.004360 0.024126 0.342024
0.070956 0.022740 0.340399
0.307812 0.025895 0.339541
0.507332 0.073292 0.323796
0.697385 0.182437 0.325558
0.850636 0.384675 0.406796
0.951409 0.607181 0.588631
1.000001 0.792275 0.776323
1.000001 0.916089 0.907735
0.004298 0.321186 0.329550
0.071055 0.321566 0.327642
0.322030 0.322030 0.322030
0.518166 0.314461 0.302690
0.707481 0.341387 0.310922
0.859008 0.450054 0.410391
0.956726 0.632071 0.602202
1.000001 0.805210 0.788426
1.000001 0.923441 0.915418
0.071561 0.545049 0.241081
0.146465 0.545853 0.237301
0.310526 0.546078 0.230058
0.518931 0.540840 0.244862
0.707322 0.531604 0.259671
0.860455 0.558084 0.388152
0.958692 0.665877 0.602867
1.000001 0.815130 0.793962
1.000001 0.927963 0.919715
0.265916 0.719732 0.187467
0.292869 0.720509 0.184558
0.364350 0.720986 0.179194
0.507573 0.717527 0.187589
0.685327 0.713069 0.214134
0.851662 0.703526 0.339315
0.955471 0.730306 0.580707
1.000001 0.826284 0.788580
1.000001 0.928988 0.918868
0.471167 0.848163 0.305629
0.477962 0.848748 0.305642
0.497541 0.849232 0.304924
0.554974 0.847402 0.304289
0.674956 0.844736 0.305245
0.815290 0.840846 0.343679
0.945490 0.832008 0.539771
1.000001 0.857948 0.769027
1.000001 0.930345 0.912649
0.649140 0.934407 0.519703
0.651237 0.934790 0.520679
0.655954 0.935143 0.521507
0.669004 0.934197 0.519179
0.714515 0.932949 0.515826
0.806834 0.930971 0.515509
0.907799 0.927815 0.548626
0.998621 0.920586 0.736116
1.000001 0.942971 0.899128
0.791424 0.987170 0.708946
0.792342 0.987393 0.709844
0.793697 0.987606 0.710699
0.795061 0.987117 0.708782
0.804451 0.986550 0.706544
0.837101 0.985753 0.703734
0.901604 0.984395 0.703757
0.968130 0.982070 0.728249
1.000001 0.976813 0.876007
0.893214 1.000001 0.845439
0.893731 1.000001 0.846072
0.894305 1.000001 0.846686
0.893785 1.000001 0.845384
0.894656 1.000001 0.844001
0.900867 1.000001 0.842420
0.922401 1.000001 0.840541
0.963954 1.000001 0.840846
1.000001 1.000001 0.855056
0.014851 0.004617 0.519376
0.051871 0.004631 0.522688
0.264795 0.004668 0.523709
0.470369 0.005135 0.521646
0.669793 0.050485 0.507483
0.831527 0.286240 0.510962
0.940835 0.566893 0.600436
1.000001 0.770400 0.761317
1.000001 0.903862 0.895599
0.014511 0.014582 0.531406
0.053353 0.014019 0.530932
0.272753 0.014572 0.531809
0.484185 0.018698 0.529570
0.683422 0.094507 0.513089
0.842443 0.335849 0.519234
0.947602 0.590189 0.614581
1.000001 0.785030 0.775171
1.000001 0.912617 0.904751
0.014675 0.228694 0.531963
0.050264 0.226385 0.531560
0.280595 0.224651 0.528705
0.496128 0.234221 0.527051
0.692758 0.275059 0.509898
0.850597 0.412956 0.521994
0.952912 0.616407 0.625503
1.000001 0.798100 0.786622
1.000001 0.920008 0.912371
0.034522 0.507539 0.516718
0.086617 0.508102 0.516422
0.287038 0.508139 0.513976
0.508351 0.508351 0.508351
0.691638 0.501349 0.490715
0.850936 0.534706 0.510032
0.954363 0.651970 0.625618
1.000001 0.807539 0.791117
1.000001 0.924099 0.916136
0.237663 0.704998 0.444020
0.267858 0.705793 0.442671
0.349070 0.706294 0.439774
0.513833 0.697043 0.459670
0.681671 0.701205 0.448485
0.843355 0.693612 0.471301
0.951081 0.722669 0.604889
1.000001 0.820068 0.785630
1.000001 0.925303 0.915281
0.462409 0.842957 0.428268
0.469660 0.843572 0.427442
0.490784 0.844083 0.425982
0.551278 0.844299 0.422746
0.672721 0.841330 0.429386
0.814449 0.837407 0.453201
0.941399 0.829601 0.568121
1.000001 0.854771 0.766157
1.000001 0.927159 0.908923
0.645861 0.932670 0.546364
0.648019 0.933063 0.546837
0.652992 0.933424 0.547160
0.668539 0.933698 0.547009
0.714013 0.932358 0.546352
0.806572 0.930304 0.547767
0.907826 0.927168 0.576288
0.996774 0.920152 0.735068
1.000001 0.941252 0.895099
0.789746 0.986529 0.711976
0.790668 0.986753 0.712753
0.792059 0.986967 0.713489
0.778790 0.980067 0.693091
0.804755 0.986574 0.712389
0.837302 0.985757 0.710106
0.901767 0.984385 0.710422
0.968293 0.982070 0.733936
1.000001 0.976729 0.872450
0.892200 1.000001 0.844886
0.892714 1.000001 0.845493
0.893291 1.000001 0.846082
0.894183 1.000001 0.846645
0.895033 1.000001 0.845337
0.901197 1.000001 0.843840
0.922647 1.000001 0.842047
0.964126 1.000001 0.842385
1.000001 1.000001 0.858534
0.027376 0.006164 0.683914
0.051081 0.006168 0.687216
0.209860 0.006180 0.688890
0.445882 0.006639 0.688343
0.629939 0.011142 0.683523
0.813551 0.142081 0.665282
0.931713 0.517125 0.674937
0.996934 0.751738 0.768231
1.000001 0.895416 0.889907
0.026766 0.012361 0.696688
0.051028 0.012050 0.696762
0.212109 0.012147 0.698336
0.455178 0.013859 0.697559
0.642515 0.023458 0.692981
0.824282 0.188433 0.673781
0.938655 0.543113 0.684871
1.000001 0.766969 0.780151
1.000001 0.904425 0.898907
0.026013 0.078392 0.701711
0.047604 0.076158 0.701870
0.213286 0.073918 0.700326
0.462211 0.077716 0.700004
0.653522 0.102755 0.696805
0.832091 0.305821 0.678706
0.944050 0.573447 0.692826
1.000001 0.780663 0.790140
1.000001 0.912025 0.906416
0.036752 0.427112 0.697333
0.061370 0.425753 0.697533
0.212780 0.423846 0.696425
0.470328 0.422740 0.693020
0.662601 0.433184 0.690763
0.831591 0.476431 0.675166
0.945248 0.616815 0.694363
1.000001 0.790871 0.794264
1.000001 0.916179 0.910057
0.150870 0.671546 0.680454
0.193256 0.672194 0.680829
0.300705 0.672524 0.680264
0.479901 0.672285 0.677529
0.672261 0.672261 0.672261
0.824485 0.666582 0.657920
0.940836 0.700616 0.682840
1.000001 0.804886 0.789071
1.000001 0.916838 0.908414
0.438739 0.830003 0.624163
0.446931 0.830636 0.623785
0.471075 0.831164 0.622932
0.538742 0.831400 0.620657
0.665534 0.831045 0.615941
0.811138 0.826833 0.628803
0.931930 0.821106 0.653529
0.999519 0.846639 0.770923
1.000001 0.919819 0.901767
0.638757 0.928477 0.628469
0.641034 0.928895 0.628341
0.646384 0.929280 0.628065
0.663147 0.929577 0.627305
0.711115 0.929617 0.625297
0.804738 0.927319 0.630324
0.907036 0.924210 0.649597
0.992453 0.918188 0.744223
1.000001 0.937289 0.887419
0.787287 0.985338 0.728855
0.788225 0.985571 0.729342
0.789670 0.985792 0.729789
0.793246 0.985992 0.730134
0.804450 0.986127 0.730174
0.836955 0.985239 0.729615
0.901556 0.983810 0.730959
0.968258 0.981525 0.751535
1.000001 0.976289 0.866166
0.891048 1.000001 0.846640
0.891561 1.000001 0.847180
0.892143 1.000001 0.847704
0.893062 1.000001 0.848201
0.895301 1.000001 0.848638
0.901412 1.000001 0.847455
0.922789 1.000001 0.845988
0.964226 1.000001 0.846494
1.000001 1.000001 0.862024
0.031337 0.006529 0.820119
0.044873 0.006484 0.822955
0.123942 0.006403 0.824570
0.401851 0.006571 0.824766
0.610526 0.008312 0.822199
0.763414 0.026069 0.813792
0.916393 0.391367 0.792686
0.990496 0.713114 0.807652
1.000001 0.880675 0.887343
0.029820 0.009212 0.831304
0.043456 0.009040 0.831584
0.122246 0.008873 0.833105
0.407591 0.009260 0.833174
0.620116 0.013060 0.830333
0.773847 0.036622 0.822484
0.923619 0.426012 0.800588
0.994259 0.729951 0.816284
1.000001 0.890259 0.895615
0.027078 0.034676 0.836391
0.038497 0.033764 0.836740
0.117483 0.032593 0.835746
0.408505 0.033395 0.835892
0.627331 0.040310 0.833820
0.783219 0.075922 0.828209
0.929143 0.469004 0.807395
0.997233 0.745227 0.823893
1.000001 0.898333 0.902609
0.029438 0.254091 0.835800
0.040873 0.248774 0.836143
0.111080 0.241432 0.835372
0.411692 0.236698 0.833282
0.632989 0.253681 0.831946
0.790880 0.321954 0.828266
0.929905 0.534418 0.811249
0.998251 0.757112 0.828387
1.000001 0.902670 0.906147
0.077684 0.606842 0.827114
0.093726 0.606301 0.827558
0.166418 0.605324 0.827379
0.417414 0.603737 0.825849
0.640136 0.602958 0.822314
0.796781 0.612655 0.819877
0.924568 0.652865 0.807486
0.996588 0.775907 0.827302
1.000001 0.903466 0.904923
0.371276 0.803088 0.810825
0.382271 0.803645 0.811300
0.415332 0.804081 0.811471
0.502702 0.804195 0.810715
0.650682 0.803771 0.808020
0.803592 0.803592 0.803592
0.915969 0.799450 0.793192
0.992092 0.828610 0.817126
1.000001 0.907281 0.898504
0.620744 0.918214 0.770664
0.623236 0.918649 0.770642
0.629271 0.919050 0.770497
0.648265 0.919361 0.769943
0.701606 0.919417 0.768215
0.799183 0.918982 0.764727
0.904358 0.915766 0.774807
0.985157 0.911760 0.796574
1.000001 0.930525 0.884875
0.782123 0.982299 0.782682
0.783100 0.982551 0.782782
0.784633 0.982791 0.782843
0.788479 0.983009 0.782797
0.800559 0.983160 0.782413
0.834897 0.983114 0.781199
0.900199 0.981508 0.784732
0.967619 0.979278 0.798938
1.000001 0.974937 0.867077
0.889377 1.000001 0.856965
0.889896 1.000001 0.857342
0.890491 1.000001 0.857703
0.891446 1.000001 0.858039
0.893814 1.000001 0.858311
0.901224 1.000001 0.858394
0.922564 1.000001 0.857991
0.964071 1.000001 0.859085
1.000001 1.000001 0.872742
0.021732 0.004985 0.924040
0.027129 0.004925 0.926222
0.055245 0.004841 0.927666
0.281203 0.004769 0.927588
0.580595 0.005028 0.926356
0.750691 0.007930 0.921208
0.865741 0.056221 0.908988
0.980581 0.631609 0.886833
1.000001 0.854851 0.904206
0.019215 0.005367 0.932710
0.024650 0.005314 0.933019
0.050872 0.005201 0.934400
0.277613 0.005098 0.934194
0.588365 0.005449 0.932841
0.759311 0.009983 0.927366
0.873531 0.067019 0.915555
0.984730 0.652143 0.892857
1.000001 0.865615 0.910533
0.015884 0.009553 0.937649
0.020060 0.009238 0.938026
0.045125 0.008875 0.937582
0.265927 0.008567 0.937217
0.592187 0.010159 0.935663
0.765672 0.024396 0.929871
0.880709 0.095848 0.920767
0.987978 0.671031 0.898548
1.000001 0.874632 0.916144
0.012278 0.080289 0.934841
0.015372 0.078251 0.935197
0.034228 0.075478 0.934818
0.244984 0.071818 0.932714
0.589645 0.075009 0.931784
0.770276 0.097091 0.929009
0.886814 0.218837 0.923119
0.988894 0.686711 0.903545
1.000001 0.879258 0.919825
0.019206 0.494268 0.929856
0.023463 0.491673 0.930173
0.049177 0.487529 0.929790
0.238438 0.481469 0.928218
0.593014 0.478556 0.925895
0.773797 0.492774 0.924055
0.891348 0.543777 0.920504
0.986592 0.716412 0.906243
1.000001 0.880112 0.920844
0.162009 0.755844 0.918656
0.172905 0.755717 0.919062
0.218258 0.755403 0.919237
0.390068 0.754631 0.918771
0.601739 0.753273 0.917077
0.779190 0.752683 0.913882
0.894566 0.760632 0.911677
0.981161 0.793532 0.902804
1.000001 0.886507 0.918628
0.573068 0.898605 0.904668
0.576041 0.899007 0.905044
0.583876 0.899370 0.905336
0.608927 0.899626 0.905353
0.676111 0.899595 0.904561
0.788730 0.899117 0.902231
0.898881 0.898882 0.898882
0.974060 0.896156 0.892054
1.000001 0.917636 0.910864
0.769632 0.974979 0.878150
0.770670 0.975245 0.878235
0.772351 0.975501 0.878286
0.776670 0.975731 0.878243
0.790296 0.975893 0.877890
0.828340 0.975858 0.876667
0.896309 0.975459 0.874288
0.965680 0.973233 0.881426
1.000001 0.970618 0.897607
0.885939 1.000001 0.890424
0.886477 1.000001 0.890566
0.887098 1.000001 0.890694
0.888110 1.000001 0.890796
0.890657 1.000001 0.890829
0.898650 1.000001 0.890642
0.921219 1.000001 0.889936
0.963155 1.000001 0.892262
1.000001 1.000001 0.901721
0.006207 0.003663 0.997481
0.006680 0.003663 0.998989
0.010116 0.003663 1.000001
0.050346 0.003663 1.000001
0.509733 0.003505 0.998802
0.738010 0.003663 0.996489
0.860703 0.005277 0.988186
0.937933 0.126470 0.971937
1.000001 0.805359 0.951341
0.005302 0.003663 1.000001
0.005760 0.003663 1.000001
0.008039 0.003663 1.000001
0.041829 0.003505 1.000001
0.514087 0.003505 1.000001
0.746462 0.003663 1.000001
0.867696 0.005406 0.992381
0.943204 0.142706 0.976181
1.000001 0.818415 0.955426
0.004571 0.003721 1.000001
0.004814 0.003721 1.000001
0.006383 0.003663 1.000001
0.033152 0.003663 1.000001
0.513678 0.003663 1.000001
0.752623 0.003721 1.000001
0.873196 0.007473 0.994535
0.948137 0.174276 0.979862
1.000001 0.829210 0.959347
0.003936 0.005595 1.000001
0.004037 0.005402 1.000001
0.004643 0.005214 1.000001
0.022980 0.004985 1.000001
0.495697 0.004841 1.000001
0.750598 0.006284 1.000001
0.875077 0.042688 0.991529
0.952525 0.270102 0.982373
1.000001 0.834180 0.963064
0.003663 0.196398 0.996674
0.003721 0.191324 0.996943
0.003897 0.184943 0.996867
0.010979 0.173606 0.995475
0.460893 0.159579 0.992083
0.741682 0.172128 0.990638
0.876926 0.250269 0.987837
0.955978 0.508737 0.982483
1.000001 0.834926 0.966349
0.004705 0.687002 0.989408
0.004889 0.685800 0.989644
0.006302 0.683812 0.989528
0.043083 0.678794 0.988035
0.464836 0.672853 0.985760
0.744197 0.670844 0.983581
0.878458 0.681995 0.981763
0.958187 0.719817 0.978795
1.000001 0.846743 0.968045
0.381468 0.867074 0.977097
0.386331 0.867107 0.977375
0.405363 0.867079 0.977585
0.466228 0.866872 0.977574
0.594487 0.866240 0.976982
0.753208 0.865123 0.975409
0.882025 0.864672 0.972865
0.959588 0.870530 0.971129
1.000001 0.894118 0.965337
0.737815 0.961957 0.966266
0.738942 0.962214 0.966510
0.740943 0.962458 0.966733
0.746484 0.962672 0.966890
0.764205 0.962803 0.966829
0.811603 0.962706 0.966141
0.889545 0.962280 0.964358
0.962059 0.962059 0.962059
1.000001 0.960397 0.957972
0.877885 1.000001 0.950127
0.878448 1.000001 0.950221
0.879109 1.000001 0.950304
0.880219 1.000001 0.950365
0.883074 1.000001 0.950361
0.892074 1.000001 0.950144
0.917036 1.000001 0.949338
0.960653 1.000001 0.947827
1.000001 1.000001 0.952363
0.003505 0.003505 1.000001
0.003505 0.003505 1.000001
0.003505 0.003505 1.000001
0.003663 0.003505 1.000001
0.028333 0.003505 1.000001
0.719682 0.003505 1.000001
0.870084 0.003505 1.000001
0.941672 0.003663 1.000001
0.984337 0.335934 1.000001
0.003505 0.003505 1.000001
0.003505 0.003505 1.000001
0.003505 0.003505 1.000001
0.003505 0.003505 1.000001
0.018978 0.003505 1.000001
0.729268 0.003505 1.000001
0.878494 0.003505 1.000001
0.947069 0.003505 1.000001
0.987599 0.374774 1.000001
0.003505 0.003505 1.000001
0.003505 0.003505 1.000001
0.003505 0.003505 1.000001
0.003505 0.003505 1.000001
0.011714 0.003505 1.000001
0.736772 0.003505 1.000001
0.885724 0.003505 1.000001
0.951590 0.003663 1.000001
0.990667 0.419800 1.000001
0.003505 0.003505 1.000001
0.003505 0.003505 1.000001
0.003505 0.003505 1.000001
0.003505 0.003505 1.000001
0.006644 0.003505 1.000001
0.736488 0.003505 1.000001
0.888848 0.003505 1.000001
0.953342 0.004037 1.000001
0.993478 0.481612 1.000001
0.003505 0.003505 1.000001
0.003505 0.003505 1.000001
0.003505 0.003505 1.000001
0.003505 0.003505 1.000001
0.004104 0.003505 1.000001
0.704682 0.003505 1.000001
0.876298 0.003663 1.000001
0.949456 0.080340 1.000001
0.995861 0.578743 1.000001
0.003505 0.526280 1.000001
0.003505 0.520930 1.000001
0.003505 0.514080 1.000001
0.003505 0.501808 1.000001
0.003505 0.467402 1.000001
0.645998 0.417418 1.000001
0.856992 0.451610 1.000001
0.949246 0.557186 1.000001
0.997522 0.713622 1.000001
0.003505 0.834229 1.000001
0.003505 0.833829 1.000001
0.003505 0.833041 1.000001
0.003505 0.830750 1.000001
0.017406 0.822499 1.000001
0.654784 0.815858 1.000001
0.858443 0.814445 1.000001
0.949462 0.822479 1.000001
0.998323 0.848159 1.000001
0.612311 0.942943 1.000001
0.612837 0.943017 1.000001
0.615802 0.943072 1.000001
0.628109 0.943077 1.000001
0.668271 0.942931 1.000001
0.756276 0.942441 1.000001
0.866107 0.941596 1.000001
0.951566 0.941267 1.000001
0.998727 0.945085 1.000001
0.858135 1.000000 1.000001
0.858724 1.000001 1.000001
0.859447 1.000001 1.000001
0.860772 1.000001 1.000001
0.864419 1.000001 1.000001
0.876042 1.000001 1.000001
0.906934 1.000001 1.000001
0.956683 1.000001 1.000001
1.000001 1.000001 1.000001
