3DLUTS/RED_IPP2CubesSDRCoreV1_13/REC2020/RWG_Log3G10 to REC2020_BT1886 with NO_CONTRAST and R_2_Medium size_33 v1.13.cube
# RED Digital Cinema Output Transform LUT for IPP2
# LUT Name = RWG_Log3G10 to REC2020_BT1886 with NO_CONTRAST and R_2_Medium size_33 v1.13
# Generated by version 1.13
# Settings used in creation of this LUT are:
# Development Color Space = REC2020
# Output Gamma Curve = BT1886
# Output Tonemap = NO_CONTRAST
# Highlight Rolloff = Rolloff 2 - medium
# Resolution = 33 x 33 x 33
TITLE "RED IPP2 LUT to map REDWideGamutRGB/Log3G10 to REC2020/BT1886/NO_CONTRAST/Rolloff 2 - medium"
LUT_3D_SIZE 33
0.000000 0.000000 0.000000
0.000000 0.000000 0.000000
0.000000 0.000000 0.000000
0.000045 0.000000 0.000000
0.114955 0.003505 0.003505
0.166558 0.003505 0.003505
0.212569 0.003505 0.003505
0.258650 0.003990 0.003721
0.306808 0.005674 0.004617
0.358568 0.010131 0.006789
0.416326 0.018131 0.011608
0.487370 0.029362 0.019444
0.564807 0.044409 0.030183
0.633691 0.062597 0.043361
0.696554 0.085707 0.060235
0.752688 0.114466 0.081197
0.801721 0.150924 0.107458
0.843949 0.197578 0.141402
0.879520 0.249018 0.186870
0.908428 0.305548 0.244119
0.932176 0.371422 0.308655
0.950962 0.448262 0.382494
0.965333 0.533596 0.467194
0.976466 0.615360 0.559859
0.984668 0.687590 0.642498
0.990790 0.751533 0.715881
0.995136 0.804977 0.777253
0.998260 0.850025 0.828934
1.000003 0.886581 0.870788
1.000003 0.915292 0.903575
1.000003 0.938179 0.929637
1.000003 0.955585 0.949400
1.000003 0.969049 0.964645
0.000000 0.000000 0.000000
0.000000 0.000000 0.000000
0.000000 0.000000 0.000000
0.029937 0.003505 0.003505
0.120527 0.003505 0.003505
0.170978 0.003505 0.003505
0.216752 0.003897 0.003505
0.262910 0.005624 0.003721
0.311322 0.010401 0.004509
0.363468 0.018450 0.006504
0.422178 0.028456 0.011068
0.494365 0.041441 0.018856
0.571168 0.057958 0.029560
0.639551 0.077431 0.042872
0.701882 0.100978 0.060075
0.757437 0.130139 0.081503
0.805867 0.167311 0.108416
0.847490 0.211768 0.143286
0.882478 0.261125 0.190137
0.910855 0.316639 0.248533
0.934119 0.382189 0.314178
0.952486 0.459266 0.389294
0.966509 0.543660 0.475464
0.977353 0.623867 0.567839
0.985328 0.694736 0.649684
0.991270 0.757452 0.722114
0.995480 0.809830 0.782515
0.998500 0.853938 0.833253
1.000003 0.889691 0.874258
1.000003 0.917739 0.906320
1.000003 0.940071 0.931765
1.000003 0.957034 0.951031
1.000003 0.970140 0.965872
0.000000 0.000000 0.000000
0.000000 0.000000 0.000000
0.000000 0.000000 0.000000
0.049439 0.003505 0.003505
0.125816 0.003505 0.003505
0.175249 0.004846 0.003505
0.220809 0.009663 0.003505
0.267051 0.018184 0.003663
0.315719 0.027647 0.004352
0.368251 0.037847 0.006103
0.427924 0.049292 0.010251
0.501145 0.063385 0.017903
0.577279 0.080474 0.028528
0.645205 0.099678 0.042068
0.707025 0.122828 0.059561
0.762021 0.151844 0.081433
0.809869 0.187395 0.108990
0.850908 0.227963 0.144791
0.885333 0.274977 0.193044
0.913195 0.329172 0.252657
0.935992 0.394122 0.319500
0.953954 0.471211 0.395961
0.967642 0.554061 0.483653
0.978207 0.632507 0.575598
0.985962 0.701898 0.656674
0.991730 0.763323 0.728175
0.995809 0.814611 0.787628
0.998730 0.857770 0.837447
1.000003 0.892725 0.877622
1.000003 0.920119 0.908980
1.000003 0.941906 0.933825
1.000003 0.958437 0.952608
1.000003 0.971195 0.967057
0.003505 0.095529 0.003505
0.003505 0.094297 0.003505
0.003505 0.093023 0.003505
0.062063 0.091731 0.003505
0.130766 0.086415 0.003505
0.179290 0.083645 0.003505
0.224655 0.082671 0.003505
0.270984 0.083304 0.003663
0.319909 0.085589 0.004154
0.372832 0.089655 0.005620
0.433470 0.095974 0.009192
0.507643 0.105601 0.016637
0.583093 0.118676 0.027203
0.650583 0.134693 0.040923
0.711916 0.154763 0.058637
0.766384 0.179601 0.080906
0.813681 0.209846 0.109071
0.854164 0.246589 0.145780
0.888054 0.290971 0.195422
0.915427 0.343485 0.256353
0.937778 0.407489 0.324494
0.955354 0.484287 0.402371
0.968722 0.564853 0.491533
0.979021 0.641293 0.583044
0.986566 0.709066 0.663396
0.992168 0.769128 0.734006
0.996122 0.819293 0.792546
0.998947 0.861501 0.841479
1.000003 0.895664 0.880856
1.000003 0.922416 0.911534
1.000003 0.943674 0.935801
1.000003 0.959786 0.954120
1.000003 0.972206 0.968193
0.003505 0.161052 0.003505
0.003505 0.160182 0.003505
0.003505 0.159267 0.003505
0.045420 0.158306 0.003505
0.135657 0.157380 0.003505
0.183256 0.153667 0.003505
0.228400 0.151501 0.003505
0.274799 0.150455 0.003505
0.323975 0.150426 0.003972
0.377286 0.151457 0.005152
0.438854 0.153876 0.008153
0.513858 0.158452 0.015209
0.588563 0.165697 0.025624
0.655635 0.175851 0.039413
0.716510 0.190189 0.057254
0.770484 0.209711 0.079839
0.817268 0.235335 0.108545
0.857235 0.268265 0.146103
0.890624 0.309686 0.197082
0.917537 0.360093 0.259474
0.939469 0.422718 0.329030
0.956680 0.498509 0.408406
0.969745 0.576174 0.498955
0.979791 0.650302 0.590115
0.987138 0.716280 0.669805
0.992582 0.774882 0.739578
0.996418 0.823885 0.797250
0.999153 0.865129 0.845336
1.000003 0.898506 0.883949
1.000003 0.924630 0.913976
1.000003 0.945371 0.937689
1.000003 0.961078 0.955564
1.000003 0.973174 0.969276
0.003505 0.215346 0.003505
0.003663 0.214517 0.003505
0.004915 0.213636 0.003505
0.038541 0.212692 0.003505
0.128956 0.211730 0.003505
0.187447 0.210840 0.003505
0.232243 0.207208 0.003505
0.278631 0.204868 0.003505
0.328000 0.203543 0.003825
0.381658 0.203145 0.004752
0.444049 0.203834 0.007215
0.519731 0.206134 0.013678
0.593617 0.210431 0.023835
0.660286 0.217218 0.037539
0.720740 0.227728 0.055381
0.774265 0.243124 0.078161
0.820585 0.264627 0.107294
0.860081 0.293718 0.145592
0.893013 0.331829 0.197793
0.919504 0.379638 0.261821
0.941047 0.440357 0.332929
0.957920 0.513986 0.413900
0.970703 0.588188 0.505790
0.980514 0.659626 0.596717
0.987675 0.723582 0.675834
0.992971 0.780602 0.744843
0.996695 0.828387 0.801705
0.999346 0.868650 0.848994
1.000003 0.901245 0.886884
1.000003 0.926751 0.916294
1.000003 0.946993 0.939481
1.000003 0.962309 0.956934
1.000003 0.974094 0.970304
0.003936 0.268855 0.003505
0.004774 0.268004 0.003505
0.009486 0.267095 0.003505
0.042136 0.266112 0.003505
0.123821 0.265085 0.003505
0.181511 0.264063 0.003505
0.235022 0.261267 0.003505
0.282563 0.259212 0.003505
0.332029 0.256539 0.003721
0.385963 0.254849 0.004418
0.448988 0.254145 0.006417
0.525158 0.254754 0.012129
0.598137 0.256926 0.021923
0.664424 0.261258 0.035342
0.724499 0.268797 0.053023
0.777634 0.280734 0.075830
0.823552 0.298454 0.105220
0.862641 0.323675 0.144075
0.895172 0.358133 0.197292
0.921289 0.402815 0.263132
0.942486 0.461006 0.335940
0.959055 0.530947 0.418604
0.971582 0.601035 0.511831
0.981178 0.669329 0.602691
0.988169 0.730991 0.681363
0.993329 0.786279 0.749710
0.996951 0.832779 0.805843
0.999524 0.872040 0.852402
1.000003 0.903857 0.889622
1.000003 0.928762 0.918459
1.000003 0.948523 0.941157
1.000003 0.963468 0.958215
1.000003 0.974959 0.971265
0.005897 0.325408 0.003505
0.008899 0.324503 0.003505
0.018724 0.323538 0.003505
0.049653 0.322493 0.003505
0.120882 0.321390 0.003505
0.176991 0.320249 0.003505
0.230284 0.319106 0.003505
0.286780 0.318012 0.003505
0.336187 0.313677 0.003663
0.390286 0.310530 0.004176
0.453657 0.308397 0.005774
0.530036 0.307426 0.010646
0.602030 0.307777 0.019927
0.667944 0.310027 0.032874
0.727687 0.315011 0.050203
0.780502 0.323858 0.072824
0.826096 0.337998 0.102235
0.864854 0.359288 0.141380
0.897056 0.389737 0.195295
0.922860 0.430707 0.263090
0.943763 0.485627 0.337767
0.960068 0.549807 0.422236
0.972372 0.615007 0.516865
0.981777 0.679593 0.607889
0.988616 0.738607 0.686288
0.993655 0.791960 0.754107
0.997184 0.837078 0.809615
0.999686 0.875302 0.855525
1.000003 0.906340 0.892142
1.000003 0.930658 0.920456
1.000003 0.949957 0.942705
1.000003 0.964550 0.959400
1.000003 0.975764 0.972155
0.012327 0.386745 0.003825
0.018560 0.385765 0.003825
0.030905 0.384724 0.003825
0.060203 0.383606 0.003825
0.121106 0.382417 0.003825
0.174417 0.381161 0.003825
0.225701 0.379854 0.003825
0.280305 0.378520 0.003825
0.340624 0.377220 0.003825
0.394712 0.372280 0.004006
0.458006 0.368511 0.005306
0.534074 0.365889 0.009342
0.605129 0.364526 0.017933
0.670660 0.364830 0.030253
0.730125 0.367466 0.047024
0.782707 0.373449 0.069204
0.828078 0.384155 0.098333
0.866608 0.401473 0.137402
0.898575 0.427605 0.191548
0.924148 0.464287 0.261297
0.944825 0.513847 0.337999
0.960921 0.570773 0.424364
0.973043 0.630265 0.520519
0.982292 0.690506 0.612022
0.989003 0.746456 0.690389
0.993938 0.797629 0.757869
0.997387 0.841249 0.812895
0.999828 0.878395 0.858271
1.000003 0.908654 0.894374
1.000003 0.932403 0.922234
1.000003 0.951268 0.944088
1.000003 0.965534 0.960463
1.000003 0.976494 0.972954
0.024194 0.454564 0.004501
0.032540 0.453491 0.004501
0.046513 0.452363 0.004494
0.073961 0.451163 0.004487
0.125455 0.449881 0.004472
0.174494 0.448508 0.004457
0.223051 0.447049 0.004442
0.275352 0.445505 0.004434
0.333456 0.443912 0.004442
0.399445 0.442335 0.004487
0.460937 0.436620 0.004960
0.537181 0.432188 0.008309
0.607278 0.429012 0.016052
0.672379 0.427350 0.027612
0.731613 0.427699 0.043619
0.784064 0.430920 0.065078
0.829340 0.438269 0.093565
0.867772 0.451568 0.132091
0.899626 0.473101 0.185844
0.925073 0.504294 0.257280
0.945613 0.545315 0.336146
0.961573 0.594159 0.424473
0.973568 0.647091 0.522347
0.982701 0.702260 0.614752
0.989316 0.754640 0.693416
0.994169 0.803322 0.760814
0.997555 0.845286 0.815551
0.999947 0.881293 0.860545
1.000003 0.910768 0.896250
1.000003 0.933971 0.923743
1.000003 0.952430 0.945271
1.000003 0.966401 0.961376
1.000003 0.977135 0.973645
0.041699 0.527950 0.006013
0.051619 0.526911 0.006010
0.066018 0.525830 0.006004
0.091633 0.524679 0.005988
0.134697 0.523444 0.005966
0.178100 0.522113 0.005930
0.223049 0.520680 0.005897
0.272457 0.519136 0.005875
0.327953 0.517498 0.005871
0.391378 0.515796 0.005920
0.465024 0.514084 0.006069
0.534049 0.507980 0.007247
0.608299 0.503010 0.014400
0.672859 0.499408 0.025105
0.731886 0.497484 0.040157
0.784321 0.497918 0.060604
0.829657 0.501738 0.088041
0.868161 0.510391 0.125468
0.900063 0.525559 0.178040
0.925524 0.548338 0.250442
0.946045 0.580210 0.331571
0.961963 0.620326 0.421873
0.973904 0.665858 0.521713
0.982977 0.715138 0.615597
0.989534 0.763327 0.695010
0.994337 0.809108 0.762681
0.997680 0.849200 0.817395
1.000003 0.883976 0.862210
1.000003 0.912650 0.897671
1.000003 0.935325 0.924913
1.000003 0.953415 0.946205
1.000003 0.967127 0.962106
1.000003 0.977668 0.974203
0.065258 0.596217 0.009379
0.075953 0.595304 0.009367
0.090258 0.594360 0.009349
0.114222 0.593360 0.009314
0.149180 0.592290 0.009258
0.186161 0.591137 0.009186
0.226652 0.589891 0.009103
0.272473 0.588537 0.009024
0.324823 0.587077 0.008975
0.385286 0.585520 0.009004
0.455961 0.583881 0.009186
0.534324 0.582238 0.009655
0.599596 0.576417 0.012141
0.670552 0.571618 0.022710
0.730326 0.568094 0.036829
0.783172 0.566225 0.056100
0.828744 0.566719 0.082081
0.867518 0.570687 0.117798
0.899673 0.579597 0.168287
0.925331 0.594752 0.240225
0.945994 0.617873 0.323603
0.961998 0.649078 0.415752
0.973983 0.686616 0.517745
0.983072 0.729253 0.613859
0.989627 0.772588 0.694633
0.994418 0.814994 0.763065
0.997746 0.852944 0.818125
1.000003 0.886370 0.863045
1.000003 0.914221 0.898476
1.000003 0.936397 0.925626
1.000003 0.954164 0.946802
1.000003 0.967664 0.962591
1.000003 0.978058 0.974584
0.096054 0.658848 0.015686
0.107193 0.658057 0.015658
0.121229 0.657244 0.015625
0.142923 0.656386 0.015568
0.169182 0.655473 0.015485
0.199598 0.654492 0.015373
0.234931 0.653433 0.015238
0.276400 0.652278 0.015094
0.324909 0.651023 0.014969
0.381818 0.649662 0.014916
0.449039 0.648194 0.015022
0.525177 0.646656 0.015422
0.599568 0.645077 0.016357
0.660187 0.639676 0.019858
0.727311 0.635100 0.034117
0.781063 0.631733 0.052216
0.827272 0.629966 0.076690
0.866451 0.630547 0.110400
0.898898 0.634617 0.158179
0.924781 0.643419 0.227648
0.945630 0.658662 0.312983
0.961783 0.681205 0.406653
0.973871 0.710387 0.510728
0.983028 0.745626 0.609745
0.989621 0.783284 0.692462
0.994430 0.821619 0.762124
0.997766 0.856961 0.817877
1.000003 0.888765 0.863162
1.000003 0.915666 0.898754
1.000003 0.937301 0.925951
1.000003 0.954750 0.947117
1.000003 0.968062 0.962868
1.000003 0.978336 0.974814
0.135789 0.714675 0.024363
0.147229 0.713995 0.024314
0.159364 0.713300 0.024259
0.174828 0.712572 0.024179
0.194402 0.711801 0.024067
0.218810 0.710978 0.023918
0.248747 0.710091 0.023735
0.285303 0.709124 0.023525
0.329313 0.708071 0.023316
0.382020 0.706920 0.023154
0.445203 0.705660 0.023126
0.518160 0.704306 0.023368
0.591072 0.702859 0.024107
0.658911 0.701379 0.025706
0.714702 0.696423 0.030559
0.777056 0.692138 0.049197
0.824504 0.688989 0.072131
0.864469 0.687356 0.103631
0.897477 0.688038 0.148292
0.923781 0.692071 0.213444
0.944950 0.700924 0.300193
0.961334 0.715814 0.394960
0.973586 0.736963 0.500739
0.982856 0.764503 0.603261
0.989525 0.795844 0.688508
0.994382 0.829407 0.759895
0.997744 0.861590 0.816711
1.000003 0.891402 0.862631
1.000003 0.917148 0.898574
1.000003 0.938150 0.925949
1.000003 0.955247 0.947199
1.000003 0.968371 0.962980
1.000003 0.978538 0.974928
0.183122 0.763892 0.035979
0.191057 0.763315 0.035899
0.199282 0.762726 0.035814
0.210256 0.762113 0.035702
0.224927 0.761468 0.035555
0.244183 0.760783 0.035365
0.268897 0.760050 0.035131
0.300262 0.759253 0.034853
0.339231 0.758386 0.034553
0.387075 0.757436 0.034270
0.445533 0.756387 0.034081
0.514260 0.755245 0.034117
0.584533 0.753994 0.034593
0.651115 0.752665 0.035845
0.712289 0.751289 0.038432
0.762821 0.746811 0.045024
0.819813 0.742855 0.068939
0.861299 0.739938 0.098259
0.895250 0.738468 0.139573
0.922197 0.739210 0.199692
0.943843 0.743270 0.285563
0.960579 0.751909 0.380682
0.973082 0.765885 0.487333
0.982535 0.785925 0.593996
0.989325 0.810578 0.682426
0.994263 0.838724 0.756116
0.997676 0.867120 0.814433
1.000003 0.894467 0.861316
1.000003 0.918767 0.897842
1.000003 0.938987 0.925557
1.000003 0.955671 0.947005
1.000003 0.968592 0.962895
1.000003 0.978658 0.974903
0.230319 0.806571 0.051262
0.235972 0.806085 0.051139
0.241844 0.805589 0.051012
0.249829 0.805077 0.050859
0.260880 0.804542 0.050668
0.275912 0.803976 0.050431
0.295906 0.803375 0.050141
0.322166 0.802727 0.049794
0.355827 0.802023 0.049401
0.398289 0.801253 0.048992
0.451357 0.800400 0.048630
0.514739 0.799464 0.048434
0.580943 0.798424 0.048600
0.645140 0.797294 0.049443
0.705255 0.796081 0.051462
0.759511 0.794820 0.055471
0.804628 0.790830 0.064354
0.856284 0.787194 0.095095
0.891949 0.784536 0.133181
0.919918 0.783253 0.188127
0.942263 0.784073 0.270510
0.959492 0.788070 0.364777
0.972344 0.796193 0.470914
0.982049 0.809488 0.581817
0.989011 0.827541 0.674003
0.994068 0.849865 0.750603
0.997558 0.873895 0.810927
0.999994 0.898237 0.859153
1.000003 0.920710 0.896527
1.000003 0.939926 0.924759
1.000003 0.956083 0.946529
1.000003 0.968758 0.962613
1.000003 0.978714 0.974741
0.279904 0.843048 0.071231
0.284057 0.842642 0.071050
0.288345 0.842228 0.070865
0.294220 0.841803 0.070656
0.302564 0.841361 0.070408
0.314217 0.840897 0.070112
0.330155 0.840408 0.069758
0.351696 0.839884 0.069335
0.380108 0.839318 0.068847
0.416932 0.838701 0.068311
0.464096 0.838019 0.067772
0.520894 0.837269 0.067333
0.581456 0.836428 0.067164
0.641893 0.835503 0.067557
0.699878 0.834488 0.068965
0.753258 0.833396 0.072108
0.800686 0.832253 0.078147
0.840852 0.828711 0.090399
0.886921 0.825408 0.130291
0.916679 0.823051 0.180373
0.940096 0.821925 0.257128
0.958022 0.822822 0.348786
0.971345 0.826618 0.452942
0.981385 0.834391 0.566965
0.988577 0.846451 0.663191
0.993793 0.862944 0.743226
0.997386 0.882194 0.806065
0.999891 0.902997 0.856052
1.000003 0.923191 0.894576
1.000003 0.941106 0.923530
1.000003 0.956567 0.945761
1.000003 0.968915 0.962130
1.000003 0.978731 0.974441
0.334061 0.874051 0.097625
0.337126 0.873714 0.097364
0.340265 0.873372 0.097099
0.344577 0.873021 0.096811
0.350850 0.872659 0.096485
0.359813 0.872281 0.096109
0.372353 0.871886 0.095672
0.389709 0.871465 0.095159
0.413179 0.871014 0.094564
0.444379 0.870526 0.093891
0.485329 0.869988 0.093169
0.533923 0.869396 0.092479
0.587302 0.868733 0.091960
0.642437 0.867995 0.091876
0.696962 0.867177 0.092638
0.748454 0.866277 0.094899
0.795159 0.865306 0.099680
0.836396 0.864276 0.108746
0.871730 0.861164 0.125919
0.911779 0.858230 0.178147
0.937063 0.856099 0.248143
0.956046 0.855152 0.334758
0.970028 0.856062 0.435010
0.980514 0.859722 0.550008
0.988005 0.866804 0.650062
0.993427 0.877893 0.733853
0.997156 0.892232 0.799684
0.999751 0.909052 0.851881
1.000003 0.926477 0.891902
1.000003 0.942713 0.921817
1.000003 0.957234 0.944673
1.000003 0.969125 0.961433
1.000003 0.978741 0.973996
0.394260 0.900067 0.133071
0.396489 0.899790 0.132693
0.398753 0.899509 0.132312
0.401871 0.899223 0.131909
0.406539 0.898928 0.131468
0.413365 0.898622 0.130976
0.423114 0.898304 0.130421
0.436890 0.897968 0.129784
0.455923 0.897611 0.129051
0.481803 0.897227 0.128218
0.515147 0.896807 0.127291
0.554521 0.896348 0.126331
0.599544 0.895832 0.125441
0.647914 0.895258 0.124852
0.697519 0.894615 0.124937
0.745880 0.893900 0.126297
0.790930 0.893112 0.129861
0.831571 0.892251 0.137178
0.866987 0.891333 0.150897
0.897103 0.888671 0.174930
0.932506 0.886006 0.246772
0.953310 0.884133 0.325473
0.968282 0.883353 0.419437
0.979385 0.884284 0.532315
0.987269 0.887648 0.635137
0.992957 0.894202 0.722560
0.996859 0.903921 0.791694
0.999568 0.916569 0.846523
1.000003 0.930807 0.888412
1.000003 0.944950 0.919561
1.000003 0.958221 0.943230
1.000003 0.969470 0.960502
1.000003 0.978787 0.973398
0.460772 0.921338 0.181169
0.462339 0.921112 0.180616
0.463921 0.920882 0.180058
0.466114 0.920649 0.179480
0.469536 0.920409 0.178862
0.474682 0.920162 0.178194
0.482195 0.919907 0.177460
0.492877 0.919639 0.176636
0.507437 0.919357 0.175708
0.526726 0.919056 0.174656
0.551584 0.918729 0.173472
0.582060 0.918374 0.172194
0.618354 0.917977 0.170887
0.659014 0.917535 0.169751
0.702445 0.917039 0.169114
0.746404 0.916483 0.169536
0.788712 0.915863 0.171892
0.827936 0.915173 0.177611
0.862879 0.914415 0.189055
0.892527 0.913615 0.209970
0.919074 0.911275 0.244226
0.949289 0.908915 0.323880
0.965917 0.907314 0.409170
0.977927 0.906680 0.516380
0.986343 0.907611 0.619775
0.992371 0.910804 0.709946
0.996490 0.916651 0.782290
0.999342 0.925365 0.840000
1.000003 0.936245 0.884080
1.000003 0.947962 0.916733
1.000003 0.959659 0.941415
1.000003 0.970041 0.959331
1.000003 0.978925 0.972645
0.533517 0.939093 0.250156
0.534392 0.938910 0.249398
0.535270 0.938725 0.248632
0.536513 0.938537 0.247845
0.538583 0.938344 0.247019
0.541807 0.938147 0.246141
0.546595 0.937943 0.245196
0.553526 0.937732 0.244157
0.563226 0.937510 0.243005
0.576443 0.937276 0.241710
0.594021 0.937024 0.240245
0.616360 0.936753 0.238622
0.644055 0.936451 0.236857
0.676463 0.936116 0.235105
0.712659 0.935741 0.233643
0.750914 0.935319 0.232990
0.789221 0.934845 0.233972
0.825983 0.934311 0.237814
0.859690 0.933715 0.246175
0.888956 0.933068 0.260766
0.914309 0.932358 0.284208
0.936967 0.930356 0.319355
0.962298 0.928303 0.406740
0.975888 0.926895 0.504744
0.985111 0.926393 0.605306
0.991614 0.927307 0.696456
0.996019 0.930163 0.771448
0.999054 0.935422 0.832107
1.000003 0.942966 0.878684
1.000003 0.951986 0.913160
1.000003 0.961756 0.939111
1.000003 0.970979 0.957846
1.000003 0.979235 0.971694
0.601485 0.953509 0.327601
0.601852 0.953362 0.326778
0.602220 0.953213 0.325946
0.602786 0.953063 0.325101
0.603883 0.952909 0.324228
0.605726 0.952753 0.323315
0.608596 0.952591 0.322354
0.612892 0.952425 0.321325
0.619080 0.952252 0.320212
0.627745 0.952070 0.318991
0.639612 0.951877 0.317632
0.655199 0.951670 0.316129
0.675263 0.951442 0.314463
0.699754 0.951192 0.312705
0.728379 0.950911 0.310989
0.760074 0.950596 0.309609
0.793273 0.950240 0.309078
0.826470 0.949837 0.310216
0.858023 0.949382 0.314249
0.886245 0.948880 0.322676
0.911285 0.948316 0.337851
0.932396 0.947701 0.362148
0.951151 0.946031 0.399266
0.972782 0.944201 0.500931
0.983403 0.943013 0.594488
0.990619 0.942613 0.683713
0.995419 0.943467 0.759946
0.998693 0.946072 0.823117
1.000003 0.950684 0.872264
1.000003 0.957011 0.908803
1.000003 0.964620 0.936272
1.000003 0.972405 0.956014
1.000003 0.979808 0.970526
0.662329 0.964935 0.409679
0.662384 0.964818 0.408758
0.662439 0.964699 0.407827
0.662598 0.964579 0.406887
0.663089 0.964457 0.405923
0.664055 0.964333 0.404930
0.665679 0.964206 0.403900
0.668230 0.964075 0.402815
0.672034 0.963940 0.401667
0.677516 0.963799 0.400433
0.685239 0.963650 0.399083
0.695688 0.963492 0.397609
0.709602 0.963321 0.395972
0.727256 0.963133 0.394202
0.748799 0.962924 0.392352
0.773788 0.962691 0.390586
0.801233 0.962427 0.389221
0.829965 0.962127 0.388798
0.858447 0.961786 0.390196
0.884864 0.961406 0.394610
0.909021 0.960972 0.403932
0.929893 0.960489 0.420391
0.947070 0.959969 0.446220
0.963197 0.958529 0.489188
0.980820 0.956959 0.589936
0.989258 0.955939 0.673812
0.994642 0.955650 0.749040
0.998241 0.956486 0.813638
1.000003 0.958841 0.865045
1.000003 0.962792 0.903715
1.000003 0.968229 0.932887
1.000003 0.974392 0.953814
1.000003 0.980726 0.969126
0.717559 0.974193 0.501734
0.717431 0.974102 0.500736
0.717301 0.974008 0.499727
0.717222 0.973914 0.498707
0.717345 0.973818 0.497666
0.717760 0.973720 0.496598
0.718585 0.973621 0.495500
0.719992 0.973518 0.494355
0.722197 0.973414 0.493159
0.725492 0.973305 0.491891
0.730276 0.973192 0.490526
0.736941 0.973072 0.489053
0.746100 0.972943 0.487425
0.758140 0.972804 0.485647
0.773443 0.972651 0.483724
0.792016 0.972480 0.481737
0.813434 0.972288 0.479871
0.837000 0.972070 0.478466
0.861513 0.971820 0.478132
0.885267 0.971540 0.479776
0.907832 0.971217 0.484820
0.927959 0.970852 0.494986
0.944949 0.970451 0.511837
0.958341 0.969252 0.531218
0.972377 0.968818 0.576253
0.987106 0.967436 0.668440
0.993534 0.966589 0.739870
0.997633 0.966375 0.804151
1.000003 0.967156 0.857101
1.000003 0.969188 0.897787
1.000003 0.972608 0.928808
1.000003 0.977050 0.951120
1.000003 0.982108 0.967405
0.765383 0.981395 0.587830
0.765162 0.981322 0.586949
0.764939 0.981249 0.586057
0.764739 0.981175 0.585158
0.764659 0.981100 0.584243
0.764757 0.981023 0.583309
0.765107 0.980946 0.582356
0.765816 0.980867 0.581371
0.767025 0.980785 0.580353
0.768925 0.980702 0.579289
0.771784 0.980615 0.578160
0.775893 0.980525 0.576961
0.781708 0.980428 0.575654
0.789600 0.980324 0.574234
0.799998 0.980211 0.572688
0.813148 0.980087 0.571034
0.829024 0.979948 0.569345
0.847377 0.979790 0.567771
0.867457 0.979609 0.566630
0.887882 0.979405 0.566455
0.908164 0.979169 0.568065
0.926972 0.978900 0.572633
0.943365 0.978599 0.581431
0.957524 0.978256 0.596294
0.968972 0.977883 0.618053
0.980093 0.976874 0.653366
0.991813 0.975702 0.734196
0.996786 0.974989 0.796022
0.999793 0.974856 0.849218
1.000003 0.975574 0.891397
1.000003 0.977385 0.924177
1.000003 0.980242 0.947971
1.000003 0.983958 0.965367
0.807525 0.987121 0.663616
0.807266 0.987065 0.662855
0.807005 0.987009 0.662085
0.806754 0.986951 0.661309
0.806571 0.986893 0.660522
0.806493 0.986834 0.659722
0.806567 0.986774 0.658909
0.806856 0.986713 0.658074
0.807449 0.986651 0.657218
0.808466 0.986587 0.656333
0.810079 0.986521 0.655406
0.812485 0.986453 0.654435
0.816001 0.986381 0.653392
0.820923 0.986305 0.652272
0.827625 0.986222 0.651058
0.836427 0.986132 0.649746
0.847515 0.986032 0.648355
0.860962 0.985920 0.646938
0.876453 0.985791 0.645638
0.893056 0.985646 0.644739
0.910400 0.985477 0.644668
0.927250 0.985283 0.646144
0.942538 0.985065 0.650049
0.956192 0.984813 0.657692
0.967531 0.984534 0.670075
0.976912 0.984218 0.688654
0.985820 0.983399 0.718389
0.995406 0.982379 0.790077
0.999137 0.981794 0.841914
1.000003 0.981713 0.884715
1.000003 0.982369 0.918964
1.000003 0.983897 0.944264
1.000003 0.986309 0.962907
0.843057 0.991492 0.727187
0.842796 0.991449 0.726540
0.842532 0.991405 0.725886
0.842271 0.991360 0.725225
0.842049 0.991316 0.724558
0.841888 0.991270 0.723881
0.841817 0.991225 0.723194
0.841874 0.991178 0.722493
0.842114 0.991130 0.721778
0.842610 0.991082 0.721044
0.843471 0.991032 0.720284
0.844825 0.990980 0.719496
