3DLUTS/RED_IPP2CubesSDRCoreV1_13/REC2020/RWG_Log3G10 to REC2020_BT1886 with LOW_CONTRAST and R_4_VerySoft size_33 v1.13.cube
# RED Digital Cinema Output Transform LUT for IPP2
# LUT Name = RWG_Log3G10 to REC2020_BT1886 with LOW_CONTRAST and R_4_VerySoft size_33 v1.13
# Generated by version 1.13
# Settings used in creation of this LUT are:
# Development Color Space = REC2020
# Output Gamma Curve = BT1886
# Output Tonemap = LOW_CONTRAST
# Highlight Rolloff = Rolloff 4 - very soft
# Resolution = 33 x 33 x 33
TITLE "RED IPP2 LUT to map REDWideGamutRGB/Log3G10 to REC2020/BT1886/LOW_CONTRAST/Rolloff 4 - very soft"
LUT_3D_SIZE 9
0.000000 0.000000 0.000000
0.073460 0.003505 0.003505
0.273703 0.023274 0.015653
0.514926 0.086202 0.061315
0.736634 0.229414 0.171832
0.890863 0.463451 0.418781
0.973808 0.674790 0.647655
1.000001 0.821311 0.805698
1.000001 0.913315 0.904554
0.003505 0.091562 0.003505
0.079280 0.089014 0.003505
0.276641 0.080698 0.012129
0.517936 0.117567 0.058345
0.739301 0.244807 0.171649
0.892690 0.469733 0.422302
0.974832 0.678527 0.651171
1.000001 0.823844 0.808338
1.000001 0.914992 0.906338
0.027079 0.322298 0.004909
0.059939 0.321434 0.004945
0.291828 0.316778 0.005161
0.530598 0.307514 0.040248
0.750701 0.352750 0.161672
0.900797 0.509054 0.436234
0.979440 0.697561 0.667070
1.000001 0.835838 0.820478
1.000001 0.922790 0.914566
0.133020 0.569252 0.024467
0.150767 0.568735 0.024497
0.281973 0.565624 0.024318
0.528481 0.560205 0.026555
0.752003 0.549541 0.122105
0.903873 0.595426 0.426573
0.981991 0.722967 0.673955
1.000001 0.846257 0.828229
1.000001 0.928784 0.920398
0.335614 0.760551 0.103411
0.338952 0.760229 0.103238
0.377829 0.758414 0.101871
0.518976 0.755154 0.098974
0.720022 0.750172 0.116803
0.894274 0.740113 0.372540
0.978877 0.773935 0.653176
1.000001 0.855303 0.822016
1.000001 0.929699 0.918519
0.544902 0.886089 0.357685
0.545182 0.885890 0.357145
0.551271 0.884820 0.354106
0.592502 0.883151 0.348508
0.711009 0.880589 0.343892
0.852256 0.876587 0.387569
0.969015 0.868103 0.609771
1.000001 0.886773 0.800122
1.000001 0.933226 0.909457
0.707795 0.957800 0.591860
0.707607 0.957680 0.591429
0.707546 0.957045 0.589150
0.715147 0.956142 0.585813
0.754944 0.954965 0.581444
0.844580 0.953075 0.580496
0.932237 0.950211 0.611639
1.000001 0.943601 0.768303
1.000001 0.952974 0.892539
0.819825 0.995991 0.746033
0.819614 0.995920 0.745709
0.818713 0.995543 0.744021
0.819258 0.995027 0.741714
0.828785 0.994439 0.739095
0.865275 0.993607 0.736083
0.926510 0.992277 0.737490
0.977607 0.990359 0.759333
1.000001 0.985416 0.870517
0.894873 1.000001 0.847414
0.894704 1.000001 0.847179
0.893875 1.000001 0.845957
0.893196 1.000001 0.844320
0.894837 1.000001 0.842604
0.905713 1.000001 0.840691
0.935208 1.000001 0.838939
0.973668 1.000001 0.841206
1.000001 1.000001 0.856215
0.003505 0.003505 0.083310
0.068098 0.003505 0.082895
0.272694 0.017502 0.056118
0.514600 0.081017 0.082716
0.736573 0.226829 0.186406
0.890893 0.463042 0.421818
0.973841 0.674830 0.648236
1.000001 0.821402 0.805884
1.000001 0.913389 0.904650
0.003505 0.073802 0.076676
0.074292 0.074292 0.074292
0.275432 0.064339 0.046815
0.517445 0.110255 0.079451
0.739113 0.242076 0.186510
0.892639 0.469146 0.425217
0.974822 0.678423 0.651604
1.000001 0.823830 0.808412
1.000001 0.914997 0.906359
0.025000 0.318198 0.009614
0.056086 0.318287 0.009232
0.290738 0.313375 0.011098
0.530150 0.304440 0.053284
0.750532 0.351041 0.173854
0.900754 0.508598 0.438739
0.979433 0.697479 0.667433
1.000001 0.835832 0.820544
1.000001 0.922798 0.914588
0.131500 0.567950 0.029314
0.149510 0.568080 0.029117
0.281199 0.564895 0.029327
0.528313 0.559423 0.032278
0.751863 0.548921 0.129650
0.903836 0.595165 0.428897
0.981987 0.722911 0.674276
1.000001 0.846258 0.828291
1.000001 0.928796 0.920421
0.334951 0.760061 0.106855
0.338836 0.760191 0.106823
0.377687 0.758357 0.105734
0.518903 0.755074 0.103121
0.720079 0.750086 0.121766
0.894249 0.740060 0.375023
0.978873 0.773921 0.653510
1.000001 0.855308 0.822080
1.000001 0.929712 0.918544
0.544464 0.885853 0.358614
0.545309 0.885948 0.358840
0.551379 0.884874 0.355944
0.592572 0.883199 0.350559
0.711069 0.880632 0.346114
0.852334 0.876630 0.389416
0.969016 0.868143 0.610168
1.000001 0.886797 0.800194
1.000001 0.933241 0.909483
0.707463 0.957669 0.591641
0.707747 0.957730 0.591854
0.707680 0.957094 0.589595
0.715265 0.956190 0.586288
0.755030 0.955012 0.581953
0.844646 0.953120 0.581020
0.932296 0.950257 0.612099
1.000001 0.943641 0.768410
1.000001 0.952999 0.892569
0.819576 0.995916 0.745743
0.819726 0.995952 0.745908
0.818824 0.995575 0.744223
0.819363 0.995060 0.741921
0.828877 0.994471 0.739308
0.865341 0.993639 0.736301
0.926560 0.992309 0.737707
0.977646 0.990391 0.759530
1.000001 0.985445 0.870568
0.894691 1.000001 0.847182
0.894789 1.000001 0.847303
0.893958 1.000001 0.846081
0.893277 1.000001 0.844444
0.894914 1.000001 0.842729
0.905778 1.000001 0.840818
0.935255 1.000001 0.839066
0.973702 1.000001 0.841331
1.000001 1.000001 0.856331
0.011016 0.004360 0.297873
0.029488 0.004377 0.298158
0.262886 0.004494 0.297592
0.510141 0.046010 0.280752
0.734417 0.199108 0.301195
0.890140 0.456538 0.449261
0.973607 0.673327 0.652274
1.000001 0.820951 0.806336
1.000001 0.913234 0.904648
0.010359 0.008131 0.298076
0.030238 0.008014 0.297501
0.265522 0.008997 0.296798
0.512944 0.064147 0.278920
0.736945 0.215824 0.301248
0.891884 0.462803 0.452138
0.974586 0.676935 0.655514
1.000001 0.823378 0.808835
1.000001 0.914839 0.906350
0.013675 0.274175 0.280529
0.027115 0.279148 0.285187
0.279662 0.279662 0.279662
0.524655 0.273905 0.257968
0.747640 0.332351 0.292978
0.899573 0.502303 0.463253
0.978975 0.695347 0.670097
1.000001 0.834856 0.820297
1.000001 0.922287 0.914179
0.114893 0.556142 0.171846
0.134208 0.556280 0.170828
0.272799 0.556634 0.163146
0.524599 0.548741 0.198509
0.749259 0.541708 0.235379
0.902712 0.591434 0.451964
0.981564 0.721232 0.676508
1.000001 0.845409 0.828018
1.000001 0.928345 0.920048
0.329298 0.756245 0.161682
0.333441 0.756379 0.161381
0.375294 0.756923 0.158952
0.517482 0.753386 0.162050
0.719905 0.748325 0.194199
0.893275 0.738882 0.400127
0.978447 0.773098 0.655878
1.000001 0.854654 0.821813
1.000001 0.929307 0.918183
0.541798 0.884370 0.373924
0.542679 0.884465 0.374061
0.551579 0.884911 0.374516
0.592593 0.883175 0.371467
0.711155 0.880554 0.368939
0.852626 0.876552 0.408482
0.968628 0.868150 0.613291
1.000001 0.886608 0.799958
1.000001 0.932956 0.909110
0.705681 0.956942 0.592236
0.705969 0.957002 0.592430
0.708296 0.957296 0.593370
0.715793 0.956379 0.590430
0.755399 0.955187 0.586491
0.844938 0.953286 0.585771
0.932571 0.950426 0.616183
1.000001 0.943802 0.768578
1.000001 0.952978 0.892184
0.818282 0.995512 0.744590
0.818432 0.995549 0.744749
0.819375 0.995731 0.745548
0.819888 0.995212 0.743313
0.829327 0.994620 0.740777
0.865667 0.993786 0.737843
0.926806 0.992455 0.739255
0.977840 0.990540 0.760907
1.000001 0.985582 0.870415
0.893752 1.000001 0.846058
0.893849 1.000001 0.846177
0.894381 1.000001 0.846777
0.893691 1.000001 0.845155
0.895304 1.000001 0.843455
0.906103 1.000001 0.841561
0.935490 1.000001 0.839821
0.973876 1.000001 0.842071
1.000001 1.000001 0.857010
0.029113 0.006849 0.533658
0.038494 0.006854 0.534197
0.219994 0.006942 0.535587
0.484563 0.008938 0.533112
0.720232 0.104055 0.514653
0.882962 0.417348 0.540284
0.970459 0.659293 0.665568
1.000001 0.814006 0.803892
1.000001 0.909318 0.901348
0.028609 0.009230 0.535571
0.038578 0.009163 0.535390
0.220976 0.009365 0.536745
0.487075 0.012766 0.534262
0.722641 0.115645 0.515570
0.884695 0.424371 0.542160
0.971447 0.662993 0.668317
1.000001 0.816452 0.806281
1.000001 0.910935 0.903035
0.026951 0.147660 0.538653
0.035880 0.146924 0.538495
0.226514 0.144073 0.536251
0.498905 0.160706 0.534471
0.732693 0.251645 0.515568
0.892288 0.469200 0.549272
0.975865 0.681998 0.680735
1.000001 0.828022 0.817240
1.000001 0.918429 0.910794
0.057314 0.513422 0.522193
0.070028 0.513514 0.522094
0.239486 0.513664 0.520336
0.513827 0.513827 0.513827
0.732779 0.508849 0.495316
0.894370 0.569165 0.542145
0.978020 0.708541 0.685361
1.000001 0.837972 0.823768
1.000001 0.923985 0.916015
0.305627 0.742702 0.437411
0.310457 0.742843 0.437132
0.358503 0.743423 0.434924
0.509118 0.743462 0.428389
0.716820 0.737881 0.446733
0.885664 0.730840 0.499515
0.974797 0.766308 0.665468
1.000001 0.848642 0.817441
1.000001 0.925223 0.914122
0.534895 0.880272 0.460583
0.535845 0.880371 0.460519
0.545491 0.880838 0.459960
0.590148 0.881198 0.457773
0.709664 0.878296 0.462255
0.852233 0.874283 0.489675
0.965105 0.866653 0.626880
1.000001 0.884009 0.795531
1.000001 0.929807 0.904809
0.702661 0.955510 0.607239
0.702959 0.955571 0.607364
0.705404 0.955871 0.607951
0.715880 0.956191 0.608372
0.755332 0.954925 0.606587
0.844957 0.952965 0.607171
0.932739 0.950127 0.634459
1.000001 0.943667 0.766379
1.000001 0.951835 0.887590
0.816443 0.994873 0.746058
0.816594 0.994910 0.746199
0.817556 0.995093 0.746902
0.820426 0.995309 0.747717
0.829763 0.994698 0.745648
0.865961 0.993847 0.743166
0.927038 0.992507 0.744720
0.978043 0.990602 0.765604
1.000001 0.985680 0.867078
0.892491 1.000001 0.845274
0.892588 1.000001 0.845388
0.893121 1.000001 0.845959
0.894190 1.000001 0.846662
0.895768 1.000001 0.845067
0.906483 1.000001 0.843283
0.935762 1.000001 0.841633
0.974078 1.000001 0.843875
1.000001 1.000001 0.858597
0.038461 0.008275 0.727900
0.043557 0.008268 0.728461
0.133244 0.008229 0.730377
0.450235 0.009093 0.730136
0.672118 0.019399 0.723962
0.864033 0.271020 0.702669
0.961719 0.613680 0.722632
1.000001 0.793745 0.806313
1.000001 0.898436 0.894342
0.038023 0.009598 0.730081
0.043440 0.009557 0.730058
0.133107 0.009510 0.731957
0.451756 0.010683 0.731669
0.674368 0.022176 0.725617
0.865768 0.281952 0.704228
0.962754 0.617788 0.724510
1.000001 0.796315 0.808371
1.000001 0.900117 0.895987
0.035488 0.040735 0.736687
0.040180 0.040509 0.736686
0.131235 0.039255 0.735655
0.457879 0.041583 0.735646
0.685028 0.063462 0.731251
0.873273 0.352355 0.710753
0.967355 0.639269 0.733197
1.000001 0.808507 0.817900
1.000001 0.907910 0.903566
0.046655 0.408299 0.734041
0.051894 0.407925 0.734054
0.132272 0.405655 0.733439
0.466570 0.403552 0.729982
0.696119 0.419563 0.727214
0.874486 0.500256 0.710955
0.969340 0.671661 0.737937
1.000001 0.819217 0.823821
1.000001 0.913612 0.908598
0.217734 0.706457 0.715053
0.224673 0.706572 0.715122
0.293768 0.707008 0.715041
0.500006 0.703150 0.708549
0.706709 0.706709 0.706709
0.865493 0.702444 0.693150
0.964831 0.743321 0.726800
1.000001 0.831722 0.817782
1.000001 0.914315 0.905746
0.513785 0.868135 0.658308
0.514867 0.868240 0.658249
0.525942 0.868734 0.657764
0.576649 0.869128 0.655929
0.702656 0.868808 0.651170
0.849229 0.864542 0.665130
0.955609 0.859185 0.697067
1.000001 0.876163 0.797429
1.000001 0.921411 0.895986
0.696204 0.951767 0.677064
0.696521 0.951833 0.677068
0.699153 0.952156 0.677035
0.710557 0.952503 0.676642
0.752904 0.952582 0.675018
0.843450 0.950378 0.679493
0.932103 0.947588 0.698080
0.998581 0.942099 0.774048
1.000001 0.948652 0.878460
0.813801 0.993642 0.762543
0.813954 0.993681 0.762630
0.814950 0.993872 0.763054
0.817999 0.994096 0.763509
0.829503 0.994240 0.763607
0.865651 0.993308 0.763055
0.926869 0.991915 0.765348
0.978016 0.990047 0.783303
1.000001 0.985474 0.861565
0.891048 1.000001 0.848237
0.891144 1.000001 0.848334
0.891682 1.000001 0.848817
0.892789 1.000001 0.849405
0.896038 1.000001 0.849878
0.906669 1.000001 0.848626
0.935872 1.000001 0.847425
0.974170 1.000001 0.849719
1.000001 1.000001 0.863601
0.033314 0.006741 0.868278
0.035719 0.006725 0.868741
0.073181 0.006609 0.870484
0.386782 0.006652 0.870749
0.649837 0.009186 0.867536
0.809890 0.039718 0.857228
0.947217 0.500956 0.834927
1.000001 0.752371 0.845177
1.000001 0.879515 0.894972
0.032752 0.007126 0.870121
0.035352 0.007106 0.870151
0.072597 0.006975 0.871880
0.387480 0.007029 0.872117
0.651518 0.010004 0.868847
0.811658 0.042039 0.858682
0.948323 0.506296 0.836286
1.000001 0.755277 0.846619
1.000001 0.881345 0.896402
0.029115 0.016657 0.876421
0.031258 0.016563 0.876468
0.068520 0.016024 0.875993
0.387345 0.016443 0.876051
0.658394 0.024363 0.872707
0.820198 0.066939 0.864806
0.953203 0.535156 0.842837
1.000001 0.769091 0.853530
1.000001 0.889817 0.903083
0.027685 0.170945 0.875766
0.029554 0.170135 0.875814
0.062053 0.164932 0.875441
0.385635 0.158878 0.873151
0.664699 0.175129 0.871534
0.829265 0.287074 0.866892
0.954877 0.584015 0.849023
1.000001 0.781499 0.859532
1.000001 0.895886 0.907927
0.088941 0.635776 0.866137
0.092004 0.635661 0.866209
0.131802 0.634829 0.866287
0.400002 0.632883 0.864988
0.672107 0.631647 0.861234
0.835478 0.643593 0.858493
0.949164 0.692409 0.846894
1.000001 0.799513 0.859154
1.000001 0.896933 0.906417
0.450874 0.841782 0.848923
0.452318 0.841875 0.849005
0.467519 0.842306 0.849312
0.535328 0.842581 0.848942
0.686603 0.842163 0.846357
0.841878 0.841878 0.841878
0.939978 0.838258 0.832840
0.997777 0.858177 0.848765
1.000001 0.906976 0.898495
0.679137 0.941875 0.813804
0.679487 0.941944 0.813809
0.682444 0.942286 0.813791
0.695491 0.942654 0.813467
0.743202 0.942753 0.811970
0.838165 0.942300 0.808621
0.929520 0.939455 0.817599
0.991063 0.935846 0.831200
1.000001 0.942645 0.883360
0.808081 0.990253 0.820749
0.808242 0.990295 0.820765
0.809300 0.990505 0.820831
0.812605 0.990754 0.820819
0.825156 0.990919 0.820425
0.863374 0.990832 0.819073
0.925425 0.989259 0.822964
0.977261 0.987471 0.834297
1.000001 0.983962 0.871701
0.888785 1.000001 0.865622
0.888884 1.000001 0.865676
0.889437 1.000001 0.865945
0.890598 1.000001 0.866259
0.894076 1.000001 0.866458
0.906147 1.000001 0.866318
0.935398 1.000001 0.866626
0.973862 1.000001 0.869174
1.000001 1.000001 0.880386
0.015746 0.004360 0.958872
0.016457 0.004352 0.959219
0.026735 0.004288 0.960667
0.206380 0.004188 0.960528
0.621199 0.004352 0.958905
0.798989 0.007597 0.952080
0.899118 0.080825 0.938534
0.991317 0.673664 0.917462
1.000001 0.848203 0.921701
0.015185 0.004385 0.960270
0.016013 0.004385 0.960312
0.026054 0.004316 0.961750
0.204976 0.004208 0.961585
0.622626 0.004377 0.959937
0.800471 0.007885 0.953040
0.900397 0.083346 0.939586
0.991985 0.677253 0.918457
1.000001 0.850309 0.922720
0.012103 0.005061 0.965765
0.012716 0.005052 0.965817
0.022171 0.004970 0.965714
0.194822 0.004774 0.965403
0.627926 0.005121 0.963583
0.806895 0.013865 0.956174
0.906652 0.105414 0.944400
0.994953 0.694353 0.923422
1.000001 0.860014 0.927662
0.007451 0.052191 0.962381
0.007722 0.051859 0.962440
0.012977 0.049936 0.962406
0.166799 0.046104 0.959994
0.622665 0.049913 0.958513
0.811805 0.078379 0.954692
0.913607 0.226378 0.947900
0.996286 0.710146 0.929365
1.000001 0.866596 0.932536
0.011281 0.524880 0.955792
0.011754 0.524383 0.955838
0.019373 0.521034 0.955761
0.165570 0.512241 0.953777
0.624447 0.507763 0.951139
0.815292 0.525946 0.949025
0.918359 0.583697 0.945424
0.993497 0.739832 0.932804
1.000001 0.867881 0.934735
0.223797 0.800293 0.943098
0.226052 0.800281 0.943164
0.255593 0.800149 0.943413
0.408996 0.799551 0.943171
0.638109 0.798140 0.941488
0.820349 0.797440 0.938223
0.921181 0.804608 0.936176
0.987373 0.826634 0.928950
1.000001 0.883903 0.932958
0.637732 0.924769 0.930186
0.638140 0.924834 0.930247
0.641818 0.925151 0.930529
0.658910 0.925474 0.930686
0.719381 0.925489 0.930017
0.829171 0.924989 0.927708
0.924755 0.924755 0.924755
0.980957 0.922061 0.919109
1.000001 0.930602 0.925361
0.795329 0.982897 0.909263
0.795501 0.982942 0.909284
0.796649 0.983163 0.909375
0.800371 0.983425 0.909413
0.814661 0.983598 0.909108
0.857203 0.983517 0.907808
0.921793 0.983101 0.905588
0.975285 0.981348 0.910836
1.000001 0.979108 0.915784
0.884146 1.000001 0.909950
0.884249 1.000001 0.909967
0.884830 1.000001 0.910048
0.886071 1.000001 0.910121
0.889857 1.000001 0.910079
0.902979 1.000001 0.909658
0.933541 1.000001 0.908610
0.972644 1.000001 0.911415
1.000001 1.000001 0.918053
0.004592 0.003505 1.000001
0.004624 0.003505 1.000001
0.005214 0.003505 1.000001
0.023408 0.003505 1.000001
0.566936 0.003505 1.000001
0.794018 0.003505 1.000001
0.895957 0.006360 0.999189
0.953289 0.165059 0.984531
1.000001 0.798132 0.965788
0.004494 0.003505 1.000001
0.004544 0.003505 1.000001
0.005085 0.003505 1.000001
0.022297 0.003505 1.000001
0.567977 0.003505 1.000001
0.795553 0.003505 1.000001
0.897114 0.006434 0.999845
0.954180 0.169005 0.985230
1.000001 0.800678 0.966479
0.004079 0.003505 1.000001
0.004092 0.003505 1.000001
0.004509 0.003505 1.000001
0.016778 0.003505 1.000001
0.571047 0.003505 1.000001
0.802337 0.003505 1.000001
0.902308 0.008372 1.000001
0.958569 0.198124 0.988544
1.000001 0.812312 0.969955
0.003663 0.003990 1.000001
0.003721 0.003990 1.000001
0.003793 0.003917 1.000001
0.009356 0.003850 1.000001
0.557214 0.003793 1.000001
0.803041 0.004377 1.000001
0.905574 0.047759 1.000001
0.963625 0.311783 0.991625
1.000001 0.819494 0.974398
0.003505 0.255265 1.000001
0.003505 0.253943 1.000001
0.003505 0.246241 1.000001
0.004571 0.228779 1.000001
0.512351 0.202986 1.000001
0.792366 0.227429 0.999156
0.907882 0.361610 0.996203
0.967326 0.564262 0.991643
1.000001 0.821196 0.978323
0.004711 0.753145 0.997465
0.004746 0.752996 0.997501
0.005422 0.751889 0.997513
0.037058 0.747679 0.996077
0.526765 0.742101 0.993558
0.794995 0.740259 0.991208
0.909331 0.749653 0.989419
0.969282 0.774759 0.987129
1.000001 0.848132 0.979398
0.517330 0.901900 0.985045
0.517801 0.901917 0.985091
0.523694 0.901987 0.985301
0.556341 0.901950 0.985402
0.658127 0.901488 0.984871
0.803599 0.900487 0.983210
0.912429 0.900128 0.980812
0.970396 0.903985 0.979504
1.000001 0.912895 0.975224
0.768981 0.972452 0.976388
0.769165 0.972494 0.976429
0.770460 0.972709 0.976628
0.775062 0.972956 0.976827
0.793188 0.973098 0.976770
0.844746 0.972956 0.975956
0.917042 0.972527 0.974177
0.972379 0.972379 0.972379
1.000001 0.970576 0.968927
0.875351 1.000001 0.963767
0.875459 1.000001 0.963787
0.876072 1.000001 0.963884
0.877429 1.000001 0.963984
0.881695 1.000001 0.963982
0.896469 1.000001 0.963634
0.929960 1.000001 0.962580
0.970326 1.000001 0.961199
1.000001 1.000001 0.964272
0.003505 0.003505 1.000001
0.003505 0.003505 1.000001
0.003505 0.003505 1.000001
0.003663 0.003505 1.000001
0.107012 0.003505 1.000001
0.795793 0.003505 1.000001
0.906197 0.003505 1.000001
0.954207 0.005907 1.000001
0.986417 0.359795 1.000001
0.003505 0.003505 1.000001
0.003505 0.003505 1.000001
0.003505 0.003505 1.000001
0.003663 0.003505 1.000001
0.100707 0.003505 1.000001
0.797625 0.003505 1.000001
0.907571 0.003505 1.000001
0.955067 0.005888 1.000001
0.987025 0.367412 1.000001
0.003505 0.003505 1.000001
0.003505 0.003505 1.000001
0.003505 0.003505 1.000001
0.003505 0.003505 1.000001
0.071960 0.003505 1.000001
0.806078 0.003505 1.000001
0.914006 0.003505 1.000001
0.958981 0.006546 1.000001
0.990029 0.409285 1.000001
0.003505 0.003505 1.000001
0.003505 0.003505 1.000001
0.003505 0.003505 1.000001
0.003505 0.003505 1.000001
0.041097 0.003505 1.000001
0.809795 0.003505 1.000001
0.918032 0.003505 1.000001
0.961070 0.032244 1.000001
0.993559 0.483999 1.000001
0.003505 0.005188 1.000001
0.003505 0.005116 1.000001
0.003505 0.004774 1.000001
0.003505 0.004410 1.000001
0.012558 0.004037 1.000001
0.774365 0.004334 1.000001
0.900743 0.037274 1.000001
0.962359 0.206598 1.000001
0.996333 0.608196 1.000001
0.003505 0.690377 1.000001
0.003505 0.690019 1.000001
0.003505 0.687741 1.000001
0.003505 0.681307 1.000001
0.006403 0.656075 1.000001
0.750389 0.640056 1.000001
0.896654 0.655572 1.000001
0.962949 0.697462 1.000001
0.997900 0.764604 1.000001
0.004571 0.880538 1.000001
0.004564 0.880508 1.000001
0.004830 0.880186 1.000001
0.016753 0.878377 1.000001
0.397534 0.874694 1.000001
0.759086 0.872386 1.000001
0.898808 0.871614 1.000001
0.963415 0.876382 1.000001
0.998466 0.887867 1.000001
0.700337 0.959537 1.000001
0.700455 0.959557 1.000001
0.701730 0.959655 1.000001
0.708767 0.959742 1.000001
0.738761 0.959684 1.000001
0.814179 0.959266 1.000001
0.903359 0.958590 1.000001
0.965251 0.958419 1.000001
0.998871 0.960554 1.000001
0.858503 1.000001 1.000001
0.858615 1.000001 1.000001
0.859267 1.000001 1.000001
0.860835 1.000001 1.000001
0.866109 1.000001 1.000001
0.884339 1.000001 1.000001
0.923547 1.000001 1.000001
0.967731 1.000001 1.000001
1.000001 1.000001 1.000001
