3DLUTS/RED_IPP2CubesSDRCoreV1_13/REC2020/RWG_Log3G10 to REC2020_BT1886 with MEDIUM_CONTRAST and R_3_Soft size_33 v1.13.cube
# RED Digital Cinema Output Transform LUT for IPP2
# LUT Name = RWG_Log3G10 to REC2020_BT1886 with MEDIUM_CONTRAST and R_3_Soft size_33 v1.13
# Generated by version 1.13
# Settings used in creation of this LUT are:
# Development Color Space = REC2020
# Output Gamma Curve = BT1886
# Output Tonemap = MEDIUM_CONTRAST
# Highlight Rolloff = Rolloff 3 - soft
# Resolution = 33 x 33 x 33
TITLE "RED IPP2 LUT to map REDWideGamutRGB/Log3G10 to REC2020/BT1886/MEDIUM_CONTRAST/Rolloff 3 - soft"
LUT_3D_SIZE 33
0.000000 0.000000 0.000000
0.000000 0.000000 0.000000
0.000004 0.000000 0.000000
0.014493 0.003505 0.003505
0.057505 0.003505 0.003505
0.096039 0.003505 0.003505
0.138706 0.004617 0.004104
0.188202 0.010319 0.007104
0.244448 0.021325 0.014346
0.308409 0.034005 0.023424
0.381261 0.048039 0.033582
0.459512 0.064612 0.045647
0.540363 0.085751 0.061067
0.612592 0.110665 0.079185
0.678433 0.142424 0.102058
0.737213 0.182875 0.131936
0.788604 0.229659 0.172372
0.832948 0.284555 0.226507
0.870434 0.349397 0.289333
0.901075 0.421254 0.361294
0.926478 0.493081 0.440163
0.946840 0.561150 0.515212
0.962700 0.622859 0.583391
0.975296 0.679193 0.645684
0.984927 0.728225 0.699896
0.992495 0.771746 0.747980
0.998235 0.808822 0.788899
1.000003 0.841181 0.824566
1.000003 0.868793 0.854957
1.000003 0.891927 0.880385
1.000003 0.911917 0.902327
1.000003 0.928798 0.920831
1.000003 0.943606 0.937043
0.000000 0.000000 0.000000
0.000000 0.000000 0.000000
0.000005 0.000000 0.000000
0.018996 0.003505 0.003505
0.058341 0.003505 0.003505
0.096494 0.003663 0.003505
0.139032 0.005798 0.004051
0.188481 0.013574 0.006875
0.244721 0.024800 0.013946
0.308701 0.037353 0.023011
0.381582 0.051160 0.033187
0.459863 0.067465 0.045297
0.540696 0.088342 0.060768
0.612910 0.113058 0.078941
0.678731 0.144687 0.101877
0.737488 0.184685 0.131829
0.788852 0.231075 0.172358
0.833168 0.285728 0.226623
0.870624 0.350429 0.289571
0.901238 0.422102 0.361650
0.926613 0.493769 0.440563
0.946952 0.561722 0.515623
0.962792 0.623346 0.583794
0.975370 0.679612 0.646065
0.984987 0.728590 0.700249
0.992543 0.772063 0.748299
0.998273 0.809099 0.789185
1.000003 0.841423 0.824821
1.000003 0.869003 0.855182
1.000003 0.892110 0.880582
1.000003 0.912076 0.902499
1.000003 0.928935 0.920980
1.000003 0.943724 0.937171
0.000000 0.000025 0.000000
0.000000 0.000023 0.000000
0.000007 0.000020 0.000000
0.023374 0.003505 0.003505
0.059440 0.003505 0.003505
0.097101 0.004899 0.003505
0.139468 0.010107 0.003972
0.188853 0.019532 0.006582
0.245085 0.030409 0.013412
0.309092 0.042448 0.022452
0.382012 0.055720 0.032656
0.460334 0.071549 0.044825
0.541141 0.092003 0.060361
0.613335 0.116412 0.078608
0.679130 0.147841 0.101628
0.737857 0.187141 0.131678
0.789185 0.233003 0.172333
0.833462 0.287327 0.226775
0.870879 0.351833 0.289888
0.901455 0.423252 0.362124
0.926795 0.494699 0.441099
0.947102 0.562494 0.516175
0.962915 0.624001 0.584334
0.975470 0.680175 0.646577
0.985068 0.729080 0.700722
0.992608 0.772489 0.748729
0.998325 0.809471 0.789571
1.000003 0.841748 0.825163
1.000003 0.869286 0.855483
1.000003 0.892356 0.880846
1.000003 0.912290 0.902729
1.000003 0.929120 0.921180
1.000003 0.943883 0.937344
0.003505 0.042620 0.003505
0.003505 0.042177 0.003505
0.003505 0.041571 0.003505
0.027842 0.040748 0.003505
0.060854 0.037272 0.003505
0.097896 0.029385 0.003505
0.140040 0.026109 0.003897
0.189343 0.031380 0.006225
0.245565 0.039898 0.012707
0.309608 0.050354 0.021715
0.382580 0.062476 0.031952
0.460955 0.077436 0.044195
0.541729 0.097186 0.059816
0.613895 0.121111 0.078159
0.679657 0.152192 0.101289
0.738342 0.190430 0.131468
0.789623 0.235599 0.172289
0.833850 0.289481 0.226967
0.871215 0.353724 0.290302
0.901741 0.424791 0.362747
0.927035 0.495939 0.441805
0.947300 0.563521 0.516903
0.963077 0.624871 0.585048
0.975601 0.680923 0.647251
0.985174 0.729728 0.701346
0.992693 0.773053 0.749296
0.998393 0.809964 0.790080
1.000003 0.842177 0.825614
1.000003 0.869659 0.855881
1.000003 0.892681 0.881195
1.000003 0.912572 0.903033
1.000003 0.929364 0.921444
1.000003 0.944092 0.937571
0.003505 0.073106 0.003505
0.003505 0.072888 0.003505
0.003505 0.072592 0.003505
0.016822 0.072198 0.003505
0.062900 0.071610 0.003505
0.099069 0.068073 0.003505
0.140888 0.063733 0.003761
0.190068 0.060216 0.005760
0.246276 0.059720 0.011694
0.310373 0.065081 0.020634
0.383421 0.074302 0.030908
0.461875 0.087344 0.043251
0.542596 0.105686 0.058992
0.614722 0.128696 0.077474
0.680434 0.158707 0.100764
0.739059 0.195407 0.131135
0.790271 0.239554 0.172201
0.834423 0.292769 0.227234
0.871711 0.356603 0.290903
0.902165 0.427114 0.363664
0.927389 0.497806 0.442845
0.947592 0.565061 0.517978
0.963317 0.626172 0.586102
0.975796 0.682036 0.648250
0.985331 0.730693 0.702271
0.992818 0.773892 0.750135
0.998493 0.810695 0.790833
1.000003 0.842813 0.826282
1.000003 0.870213 0.856470
1.000003 0.893163 0.881712
1.000003 0.912989 0.903484
1.000003 0.929725 0.921835
1.000003 0.944402 0.937907
0.003663 0.113141 0.003505
0.003825 0.113007 0.003505
0.004774 0.112824 0.003505
0.013363 0.112582 0.003505
0.055841 0.112221 0.003505
0.101775 0.111414 0.003505
0.142844 0.107882 0.003663
0.191732 0.104842 0.004960
0.247900 0.103337 0.009577
0.312114 0.104013 0.018255
0.385325 0.107467 0.028540
0.463949 0.115000 0.041069
0.544541 0.128547 0.057051
0.616575 0.147711 0.075830
0.682177 0.173673 0.099473
0.740668 0.207167 0.130271
0.791727 0.249020 0.171890
0.835711 0.300661 0.227750
0.872828 0.363493 0.292205
0.903118 0.432581 0.365701
0.928187 0.502164 0.445173
0.948251 0.568628 0.520395
0.963857 0.629167 0.588479
0.976233 0.684587 0.650504
0.985684 0.732894 0.704357
0.993101 0.775798 0.752030
0.998718 0.812355 0.792535
1.000003 0.844256 0.827793
1.000003 0.871467 0.857800
1.000003 0.894254 0.882879
1.000003 0.913934 0.904501
1.000003 0.930542 0.922718
1.000003 0.945103 0.938666
0.005179 0.161027 0.003505
0.006177 0.160925 0.003505
0.008819 0.160786 0.003505
0.016837 0.160601 0.003505
0.043114 0.160324 0.003505
0.095295 0.159698 0.003505
0.146233 0.158690 0.003663
0.194568 0.154823 0.004176
0.250623 0.152228 0.007091
0.315006 0.151277 0.014608
0.388455 0.152311 0.024690
0.467327 0.156283 0.037375
0.547672 0.164867 0.053644
0.619554 0.178667 0.072844
0.684980 0.199349 0.097019
0.743261 0.228195 0.128486
0.794076 0.266316 0.170993
0.837794 0.315169 0.228282
0.874636 0.376017 0.294123
0.904662 0.442266 0.368895
0.929481 0.509776 0.448888
0.949321 0.574767 0.524295
0.964734 0.634256 0.592337
0.976944 0.688874 0.654173
0.986258 0.736565 0.707760
0.993560 0.778959 0.755123
0.999085 0.815096 0.795314
1.000003 0.846632 0.830260
1.000003 0.873527 0.859974
1.000003 0.896042 0.884787
1.000003 0.915481 0.906162
1.000003 0.931879 0.924160
1.000003 0.946248 0.939906
0.011420 0.219005 0.003897
0.013623 0.218914 0.003897
0.017307 0.218791 0.003897
0.023849 0.218627 0.003917
0.038477 0.218381 0.003917
0.087666 0.217817 0.003917
0.139525 0.216878 0.003955
0.198790 0.215615 0.004006
0.254541 0.211200 0.005214
0.319068 0.208461 0.010262
0.392758 0.207467 0.019638
0.471854 0.208771 0.032189
0.551771 0.213532 0.048574
0.623439 0.222647 0.068162
0.688638 0.237942 0.092921
0.746654 0.261244 0.125189
0.797164 0.294264 0.168810
0.840543 0.338854 0.228163
0.877032 0.395650 0.296128
0.906714 0.457229 0.372783
0.931205 0.521299 0.453646
0.950748 0.583847 0.529410
0.965905 0.641621 0.597457
0.977894 0.694967 0.659078
0.987025 0.741709 0.712327
0.994174 0.783343 0.759286
0.999575 0.818868 0.799059
1.000003 0.849883 0.833588
1.000003 0.876335 0.862906
1.000003 0.898475 0.887361
1.000003 0.917581 0.908405
1.000003 0.933691 0.926107
1.000003 0.947800 0.941580
0.023099 0.287238 0.004624
0.025402 0.287149 0.004631
0.028912 0.287028 0.004637
0.034408 0.286868 0.004643
0.044826 0.286627 0.004656
0.082234 0.286070 0.004681
0.133773 0.285124 0.004722
0.191606 0.283785 0.004780
0.259559 0.282262 0.004873
0.324018 0.277027 0.006906
0.397782 0.273753 0.014422
0.476832 0.272578 0.026268
0.556070 0.274140 0.042302
0.627466 0.279275 0.061960
0.692431 0.289626 0.087066
0.750195 0.307230 0.119955
0.800413 0.334305 0.164561
0.843461 0.373253 0.226294
0.879594 0.422574 0.297088
0.908924 0.477537 0.376151
0.933071 0.536579 0.458344
0.952300 0.595532 0.534740
0.967183 0.650812 0.602938
0.978933 0.702361 0.664407
0.987866 0.747813 0.717334
0.994848 0.788454 0.763875
1.000003 0.823210 0.803203
1.000003 0.853592 0.837279
1.000003 0.879518 0.866165
1.000003 0.901219 0.890224
1.000003 0.919944 0.910903
1.000003 0.935725 0.928277
1.000003 0.949538 0.943445
0.039159 0.367320 0.006103
0.041351 0.367229 0.006113
0.044553 0.367106 0.006119
0.049291 0.366942 0.006131
0.057581 0.366696 0.006143
0.084114 0.366124 0.006177
0.131654 0.365139 0.006225
0.186531 0.363701 0.006293
0.251522 0.361945 0.006388
0.328450 0.357893 0.007804
0.403274 0.353766 0.010000
0.481616 0.349771 0.020530
0.559794 0.348217 0.035579
0.630835 0.349696 0.054748
0.695593 0.355488 0.079666
0.753185 0.367516 0.112636
0.803208 0.387746 0.157641
0.846021 0.417480 0.221395
0.881884 0.456797 0.295660
0.910929 0.503307 0.377592
0.934786 0.555612 0.461726
0.953740 0.609633 0.539170
0.968379 0.661492 0.607794
0.979912 0.710628 0.669298
0.988663 0.754411 0.722024
0.995488 0.793828 0.768231
1.000003 0.827684 0.807168
1.000003 0.857355 0.840833
1.000003 0.882712 0.869317
1.000003 0.903954 0.893003
1.000003 0.922285 0.913332
1.000003 0.937734 0.930391
1.000003 0.951251 0.945267
0.060786 0.452333 0.009216
0.062808 0.452256 0.009226
0.065699 0.452151 0.009236
0.069854 0.452011 0.009250
0.076824 0.451801 0.009268
0.097236 0.451311 0.009310
0.136278 0.450459 0.009369
0.185766 0.449190 0.009437
0.246414 0.447578 0.009520
0.320581 0.445741 0.009692
0.409376 0.443866 0.010178
0.484955 0.437488 0.015633
0.562293 0.433212 0.029257
0.632796 0.431298 0.047287
0.697373 0.432473 0.071289
0.754927 0.438052 0.103496
0.804936 0.449744 0.147869
0.847701 0.469381 0.212113
0.883469 0.498044 0.290395
0.912379 0.534726 0.375541
0.936072 0.578648 0.462423
0.954851 0.626256 0.541527
0.969322 0.673588 0.611026
0.980697 0.719553 0.672900
0.989310 0.761206 0.725672
0.996015 0.799131 0.771734
1.000003 0.831948 0.810430
1.000003 0.860848 0.843801
1.000003 0.885621 0.871978
1.000003 0.906411 0.895368
1.000003 0.924372 0.915413
1.000003 0.939514 0.932211
1.000003 0.952764 0.946842
0.089416 0.530976 0.015038
0.091266 0.530910 0.015045
0.093881 0.530822 0.015055
0.097585 0.530703 0.015067
0.103661 0.530525 0.015084
0.120426 0.530109 0.015118
0.149801 0.529385 0.015161
0.191655 0.528300 0.015193
0.246206 0.526896 0.015208
0.315035 0.525238 0.015269
0.399541 0.523411 0.015556
0.485780 0.521593 0.016438
0.560015 0.515418 0.023604
0.632601 0.511140 0.040554
0.697004 0.509013 0.062930
0.754681 0.509843 0.093414
0.804930 0.514934 0.135851
0.847931 0.526006 0.197858
0.883877 0.544659 0.279990
0.912889 0.571142 0.368327
0.936623 0.605578 0.458907
0.955394 0.645431 0.540480
0.969826 0.687064 0.611497
0.981145 0.728980 0.674258
0.989698 0.767946 0.727472
0.996343 0.804056 0.773710
1.000003 0.835681 0.812415
1.000003 0.863755 0.845700
1.000003 0.887950 0.873742
1.000003 0.908326 0.896976
1.000003 0.925966 0.916857
1.000003 0.940858 0.933495
1.000003 0.953899 0.947968
0.128057 0.602696 0.023435
0.129766 0.602640 0.023440
0.132159 0.602565 0.023446
0.135392 0.602465 0.023454
0.140294 0.602314 0.023465
0.151923 0.601964 0.023485
0.172871 0.601354 0.023500
0.206144 0.600440 0.023485
0.252968 0.599252 0.023421
0.314932 0.597824 0.023346
0.393514 0.596194 0.023412
0.476383 0.594451 0.023939
0.556729 0.592692 0.025518
0.625509 0.586898 0.034266
0.694335 0.582664 0.055747
0.752726 0.580406 0.084016
0.803434 0.580917 0.123486
0.846820 0.585488 0.181380
0.883093 0.595705 0.264521
0.912397 0.612610 0.355449
0.936364 0.637162 0.450399
0.955298 0.668174 0.535299
0.969831 0.702846 0.608593
0.981209 0.739600 0.672876
0.989790 0.775082 0.727033
0.996444 0.808859 0.773847
1.000003 0.839002 0.812874
1.000003 0.866112 0.846330
1.000003 0.889686 0.874443
1.000003 0.909658 0.897691
1.000003 0.927019 0.917550
1.000003 0.941714 0.934145
1.000003 0.954605 0.948565
0.174418 0.666123 0.035088
0.175493 0.666076 0.035090
0.176971 0.666013 0.035092
0.178986 0.665928 0.035095
0.182106 0.665801 0.035098
0.189808 0.665505 0.035098
0.204605 0.664992 0.035080
0.229999 0.664227 0.035012
0.268439 0.663235 0.034864
0.322269 0.662037 0.034651
0.393207 0.660647 0.034489
0.470632 0.659110 0.034653
0.548010 0.657457 0.035648
0.620620 0.655795 0.038324
0.684411 0.650409 0.049411
0.748710 0.646319 0.076814
0.800503 0.644030 0.112960
0.844636 0.644314 0.165917
0.881497 0.648417 0.246370
0.911244 0.657570 0.339014
0.935561 0.673144 0.437983
0.954762 0.695181 0.526730
0.969486 0.722080 0.602882
0.981001 0.752622 0.669243
0.989672 0.783685 0.724799
0.996385 0.814412 0.772554
1.000003 0.842603 0.812181
1.000003 0.868456 0.846025
1.000003 0.891248 0.874379
1.000003 0.910740 0.897771
1.000003 0.927794 0.917716
1.000003 0.942295 0.934357
1.000003 0.955054 0.948797
0.223643 0.721827 0.051119
0.224350 0.721787 0.051117
0.225327 0.721733 0.051114
0.226667 0.721662 0.051110
0.228764 0.721554 0.051102
0.234037 0.721304 0.051078
0.244529 0.720873 0.051019
0.263473 0.720235 0.050888
0.293886 0.719411 0.050650
0.338931 0.718421 0.050300
0.400485 0.717267 0.049913
0.470069 0.715972 0.049716
0.542522 0.714534 0.050138
0.612603 0.713002 0.051910
0.677740 0.711437 0.056278
0.736004 0.706500 0.070435
0.795348 0.702608 0.105685
0.840950 0.700338 0.153407
0.878781 0.700444 0.227262
0.909230 0.703981 0.319969
0.934095 0.712280 0.421612
0.953715 0.726152 0.514440
0.968750 0.745162 0.593997
0.980494 0.768761 0.663029
0.989326 0.794487 0.720503
0.996152 0.821318 0.769630
1.000003 0.846920 0.810187
1.000003 0.871081 0.844677
1.000003 0.892823 0.873472
1.000003 0.911688 0.897161
1.000003 0.928362 0.917315
1.000003 0.942642 0.934100
1.000003 0.955269 0.948643
0.277702 0.770113 0.072968
0.278184 0.770080 0.072961
0.278853 0.770034 0.072951
0.279775 0.769973 0.072937
0.281224 0.769882 0.072915
0.284912 0.769671 0.072859
0.292408 0.769308 0.072746
0.306402 0.768775 0.072539
0.329870 0.768094 0.072200
0.366355 0.767280 0.071710
0.416750 0.766336 0.071105
0.476357 0.765272 0.070557
0.541684 0.764072 0.070422
0.607471 0.762758 0.071338
0.670474 0.761343 0.074360
0.728140 0.759885 0.081264
0.780598 0.755413 0.099603
0.835139 0.751729 0.146199
0.874733 0.749536 0.211723
0.906288 0.749486 0.301257
0.931945 0.752587 0.402780
0.952150 0.759889 0.499018
0.967618 0.771759 0.582044
0.979687 0.788341 0.654159
0.988752 0.808128 0.714042
0.995750 0.830266 0.764999
1.000003 0.852558 0.806857
1.000003 0.874456 0.842284
1.000003 0.894756 0.871737
1.000003 0.912748 0.895887
1.000003 0.928895 0.916377
1.000003 0.942874 0.933405
1.000003 0.955333 0.948133
0.337933 0.811495 0.102719
0.338267 0.811467 0.102705
0.338732 0.811428 0.102685
0.339373 0.811376 0.102658
0.340388 0.811299 0.102617
0.342991 0.811121 0.102517
0.348372 0.810815 0.102332
0.358669 0.810369 0.102022
0.376423 0.809804 0.101557
0.403803 0.809138 0.100907
0.442253 0.808370 0.100078
0.490661 0.807508 0.099189
0.546908 0.806532 0.098513
0.606442 0.805447 0.098608
0.665740 0.804247 0.100395
0.721635 0.802952 0.105385
0.772104 0.801607 0.116118
0.819195 0.797568 0.140955
0.868674 0.794122 0.204786
0.902156 0.792066 0.286894
0.929017 0.791900 0.384296
0.950037 0.794555 0.481916
0.966079 0.800727 0.567670
0.978576 0.811004 0.642841
0.987951 0.824828 0.705430
0.995179 0.841771 0.758611
1.000003 0.860087 0.802136
1.000003 0.879087 0.838809
1.000003 0.897443 0.869164
1.000003 0.914214 0.893954
1.000003 0.929601 0.914917
1.000003 0.943140 0.932293
1.000003 0.955350 0.947287
0.404380 0.846866 0.144082
0.404590 0.846842 0.144057
0.404884 0.846809 0.144023
0.405290 0.846765 0.143977
0.405936 0.846700 0.143907
0.407605 0.846549 0.143745
0.411091 0.846292 0.143453
0.417829 0.845918 0.142993
0.429551 0.845450 0.142345
0.448341 0.844903 0.141482
0.476163 0.844281 0.140386
0.513344 0.843588 0.139128
0.559278 0.842806 0.137901
0.610753 0.841931 0.137176
0.664575 0.840951 0.137770
0.717299 0.839867 0.141037
0.766304 0.838693 0.149170
0.810355 0.837456 0.166079
0.852111 0.833843 0.201313
0.896061 0.830685 0.281423
0.924994 0.828721 0.370125
0.947240 0.828471 0.465482
0.964074 0.830620 0.552089
0.977132 0.835869 0.629572
0.986905 0.844336 0.694788
0.994428 0.856067 0.750426
1.000003 0.869980 0.795939
1.000003 0.885490 0.834174
1.000003 0.901338 0.865692
1.000003 0.916442 0.891325
1.000003 0.930743 0.912919
1.000003 0.943624 0.930758
1.000003 0.955445 0.946111
0.469287 0.876800 0.203328
0.469404 0.876779 0.203286
0.469570 0.876751 0.203231
0.469799 0.876714 0.203154
0.470167 0.876659 0.203041
0.471135 0.876532 0.202777
0.473206 0.876316 0.202316
0.477339 0.876003 0.201617
0.484783 0.875613 0.200679
0.497186 0.875164 0.199485
0.516411 0.874659 0.198006
0.543514 0.874104 0.196277
0.579042 0.873482 0.194413
0.621326 0.872787 0.192799
0.668063 0.872004 0.192153
0.716066 0.871126 0.193738
0.762392 0.870155 0.199582
0.805236 0.869092 0.213122
0.843315 0.867966 0.238548
0.879128 0.864818 0.277774
0.919109 0.861851 0.365081
0.943449 0.860031 0.453156
0.961469 0.859699 0.537449
0.975296 0.861432 0.615509
0.985585 0.865669 0.682648
0.993480 0.872764 0.740614
0.999333 0.882302 0.788272
1.000003 0.893985 0.828325
1.000003 0.906836 0.861263
1.000003 0.919798 0.887955
1.000003 0.932615 0.910352
1.000003 0.944548 0.928786
1.000003 0.955773 0.944598
0.529595 0.901547 0.281604
0.529656 0.901530 0.281552
0.529741 0.901506 0.281480
0.529861 0.901475 0.281385
0.530057 0.901428 0.281243
0.530585 0.901320 0.280913
0.531764 0.901138 0.280346
0.534220 0.900875 0.279505
0.538827 0.900551 0.278415
0.546802 0.900179 0.277082
0.559669 0.899767 0.275476
0.578663 0.899320 0.273604
0.604914 0.898824 0.271484
0.638011 0.898274 0.269341
0.676771 0.897655 0.267652
0.718755 0.896956 0.267357
0.761141 0.896173 0.269950
0.801779 0.895299 0.277539
0.838899 0.894343 0.292688
0.871064 0.893341 0.317569
0.902848 0.890522 0.359099
0.938015 0.887811 0.448695
0.958018 0.886172 0.526712
0.972975 0.885786 0.602660
0.983958 0.887130 0.670226
0.992325 0.890648 0.729833
0.998503 0.896392 0.779457
1.000003 0.904375 0.821399
1.000003 0.914027 0.855931
1.000003 0.924499 0.883865
1.000003 0.935460 0.907230
1.000003 0.946124 0.926390
1.000003 0.956504 0.942765
0.586397 0.922491 0.365524
0.586422 0.922477 0.365464
0.586457 0.922457 0.365382
0.586509 0.922430 0.365274
0.586597 0.922391 0.365112
0.586848 0.922300 0.364737
0.587457 0.922147 0.364099
0.588824 0.921927 0.363170
0.591548 0.921657 0.361996
0.596485 0.921350 0.360609
0.604775 0.921014 0.359002
0.617530 0.920653 0.357177
0.636008 0.920259 0.355107
0.660587 0.919827 0.352887
0.691073 0.919341 0.350746
0.726039 0.918794 0.349235
0.763231 0.918176 0.349325
0.800502 0.917478 0.352526
0.835776 0.916700 0.360929
0.867173 0.915861 0.376653
0.894986 0.914953 0.401778
0.922225 0.912497 0.440606
0.952877 0.910054 0.522382
0.969799 0.908528 0.592857
0.981840 0.908086 0.658625
0.990866 0.909100 0.718606
0.997470 0.911853 0.769642
1.000003 0.916563 0.813343
1.000003 0.923062 0.849555
1.000003 0.930828 0.878899
1.000003 0.939590 0.903413
1.000003 0.948634 0.923457
1.000003 0.957856 0.940527
0.638178 0.939781 0.447827
0.638181 0.939769 0.447770
0.638187 0.939752 0.447693
0.638198 0.939730 0.447590
0.638220 0.939697 0.447437
0.638305 0.939621 0.447084
0.638565 0.939492 0.446485
0.639257 0.939308 0.445619
0.640786 0.939082 0.444542
0.643742 0.938828 0.443294
0.648935 0.938552 0.441885
0.657249 0.938260 0.440325
0.669802 0.937945 0.438573
0.687303 0.937604 0.436652
0.710187 0.937225 0.434639
0.737951 0.936798 0.432794
0.769161 0.936316 0.431650
0.802051 0.935768 0.432112
0.834534 0.935149 0.435530
0.864444 0.934472 0.443417
0.891637 0.933718 0.457737
0.915113 0.932913 0.479683
0.937659 0.930834 0.512350
0.965071 0.928575 0.588366
0.978973 0.927200 0.649831
0.988995 0.926710 0.708324
0.996189 0.927425 0.759701
1.000003 0.929624 0.804640
1.000003 0.933413 0.842372
1.000003 0.938591 0.873157
1.000003 0.945036 0.898933
1.000003 0.952217 0.919994
1.000003 0.959999 0.937883
0.684001 0.953749 0.519629
0.683992 0.953739 0.519576
0.683980 0.953724 0.519504
0.683968 0.953706 0.519409
0.683954 0.953678 0.519267
0.683941 0.953614 0.518939
0.683996 0.953505 0.518387
0.684283 0.953351 0.517591
0.685080 0.953162 0.516613
0.686791 0.952950 0.515498
0.689983 0.952722 0.514266
0.695311 0.952483 0.512933
0.703667 0.952229 0.511467
0.715795 0.951957 0.509867
0.732398 0.951659 0.508140
0.753597 0.951326 0.506393
0.778741 0.950950 0.504888
0.806663 0.950521 0.504121
0.835579 0.950034 0.504918
0.863283 0.949495 0.508351
0.889284 0.948887 0.515884
0.912291 0.948222 0.528825
0.931687 0.947525 0.547717
0.951077 0.945709 0.576678
0.974688 0.943690 0.645078
0.986501 0.942424 0.700454
0.994574 0.941935 0.750744
1.000003 0.942458 0.796035
1.000003 0.944213 0.834837
1.000003 0.947227 0.866897
1.000003 0.951523 0.893925
1.000003 0.956804 0.916067
1.000003 0.962984 0.934868
0.725339 0.965328 0.583724
0.725323 0.965319 0.583676
0.725303 0.965307 0.583610
0.725277 0.965291 0.583522
0.725242 0.965268 0.583392
0.725175 0.965214 0.583092
0.725109 0.965123 0.582586
0.725152 0.964993 0.581863
0.725494 0.964835 0.580978
0.726414 0.964659 0.579981
0.728300 0.964470 0.578897
0.731620 0.964274 0.577747
0.737034 0.964068 0.576506
0.745191 0.963850 0.575172
0.756817 0.963615 0.573726
0.772358 0.963354 0.572199
0.791750 0.963063 0.570709
0.814447 0.962730 0.569506
0.839180 0.962351 0.569062
0.863976 0.961928 0.570079
0.888153 0.961446 0.573540
0.910212 0.960913 0.580538
0.929252 0.960342 0.591846
0.945696 0.959725 0.608424
0.961513 0.958207 0.632341
0.982536 0.956346 0.695083
0.992342 0.955210 0.743484
0.999076 0.954712 0.787994
1.000003 0.955070 0.827189
1.000003 0.956420 0.860194
1.000003 0.958881 0.888363
1.000003 0.962367 0.911602
1.000003 0.966883 0.931391
0.761253 0.974618 0.638920
0.761235 0.974611 0.638876
0.761210 0.974601 0.638816
0.761178 0.974588 0.638736
0.761132 0.974568 0.638617
0.761036 0.974523 0.638344
0.760906 0.974446 0.637884
0.760810 0.974337 0.637228
0.760885 0.974204 0.636429
0.761324 0.974057 0.635535
0.762395 0.973900 0.634574
0.764428 0.973737 0.633570
0.767899 0.973568 0.632507
0.773316 0.973392 0.631381
0.781317 0.973204 0.630168
0.792440 0.972998 0.628873
0.806951 0.972770 0.627536
0.824781 0.972512 0.626277
0.845206 0.972216 0.625353
0.866677 0.971885 0.625198
0.888514 0.971506 0.626440
0.909157 0.971082 0.629888
0.927483 0.970623 0.636265
0.943659 0.970118 0.646481
0.957162 0.969588 0.660654
0.970723 0.968266 0.681747
0.988754 0.966608 0.737639
0.997168 0.965565 0.781440
1.000003 0.965093 0.820174
1.000003 0.965334 0.853593
1.000003 0.966430 0.882613
1.000003 0.968435 0.906829
1.000003 0.971436 0.927589
0.793333 0.982317 0.687840
0.793313 0.982311 0.687799
0.793287 0.982303 0.687744
0.793253 0.982292 0.687673
0.793203 0.982275 0.687565
0.793093 0.982237 0.687318
0.792931 0.982172 0.686902
0.792758 0.982081 0.686310
0.792674 0.981970 0.685592
0.792816 0.981846 0.684793
0.793368 0.981715 0.683940
0.794561 0.981581 0.683060
0.796725 0.981442 0.682141
0.800242 0.981299 0.681182
0.805615 0.981148 0.680163
0.813355 0.980985 0.679076
0.823858 0.980806 0.677929
0.837353 0.980605 0.676768
0.853575 0.980376 0.675726
0.871472 0.980119 0.675056
0.890523 0.979823 0.675133
0.909279 0.979490 0.676515
0.926496 0.979127 0.679774
0.942104 0.978722 0.685649
0.955406 0.978292 0.694487
0.966857 0.977825 0.706897
0.977892 0.976724 0.724237
0.993846 0.975205 0.774924
1.000003 0.974258 0.814045
1.000003 0.973812 0.847256
1.000003 0.973963 0.876738
1.000003 0.974830 0.901738
1.000003 0.976542 0.923407
0.821018 0.988502 0.729759
0.820999 0.988496 0.729723
0.820973 0.988489 0.729673
0.820938 0.988480 0.729609
0.820888 0.988466 0.729512
0.820775 0.988433 0.729289
0.820601 0.988379 0.728914
0.820390 0.988302 0.728381
0.820220 0.988208 0.727735
0.820187 0.988105 0.727019
0.820423 0.987995 0.726260
0.821089 0.987883 0.725483
