3DLUTS/RED_IPP2CubesSDRCoreV1_13/REC2020/RWG_Log3G10 to REC2020_BT1886 with LOW_CONTRAST and R_2_Medium size_33 v1.13.cube
# RED Digital Cinema Output Transform LUT for IPP2
# LUT Name = RWG_Log3G10 to REC2020_BT1886 with LOW_CONTRAST and R_2_Medium size_33 v1.13
# Generated by version 1.13
# Settings used in creation of this LUT are:
# Development Color Space = REC2020
# Output Gamma Curve = BT1886
# Output Tonemap = LOW_CONTRAST
# Highlight Rolloff = Rolloff 2 - medium
# Resolution = 33 x 33 x 33
TITLE "RED IPP2 LUT to map REDWideGamutRGB/Log3G10 to REC2020/BT1886/LOW_CONTRAST/Rolloff 2 - medium"
LUT_3D_SIZE 9
0.000000 0.000000 0.000000
0.073460 0.003505 0.003505
0.273703 0.023274 0.015653
0.587885 0.086202 0.061315
0.850614 0.229414 0.171832
0.961005 0.512290 0.445428
0.993850 0.789036 0.759008
1.000003 0.918977 0.907780
1.000003 0.971796 0.967749
0.003505 0.091562 0.003505
0.079280 0.089014 0.003505
0.276641 0.080698 0.012129
0.592167 0.117567 0.058345
0.853051 0.244807 0.171649
0.961935 0.521736 0.450468
0.994132 0.793030 0.763000
1.000003 0.920733 0.909718
1.000003 0.972547 0.968590
0.027079 0.324595 0.004909
0.059939 0.323642 0.004945
0.292059 0.318532 0.005161
0.610001 0.308529 0.040248
0.863261 0.359524 0.161672
0.965949 0.579483 0.470927
0.995358 0.812831 0.780676
1.000003 0.928817 0.918395
1.000003 0.975935 0.972357
0.133020 0.662500 0.024467
0.150767 0.661817 0.024497
0.281998 0.657703 0.024318
0.607039 0.650485 0.026555
0.864406 0.636105 0.122105
0.967426 0.696269 0.456650
0.996008 0.837841 0.788138
1.000003 0.935532 0.923733
1.000003 0.978425 0.974914
0.339551 0.871812 0.103411
0.343376 0.871537 0.103238
0.390364 0.869979 0.101871
0.593642 0.867158 0.098974
0.835025 0.862795 0.116803
0.962733 0.853789 0.383690
0.995211 0.883029 0.765262
1.000003 0.941127 0.919467
1.000003 0.978796 0.974100
0.629778 0.958534 0.365436
0.630160 0.958430 0.364786
0.638453 0.957867 0.361141
0.692571 0.956982 0.354501
0.826273 0.955611 0.349094
0.939266 0.953433 0.402901
0.992491 0.948673 0.714131
1.000003 0.958892 0.903626
1.000003 0.980205 0.970040
0.823102 0.989042 0.691756
0.822916 0.989003 0.691209
0.822855 0.988796 0.688308
0.830317 0.988501 0.684040
0.866975 0.988111 0.678416
0.934470 0.987478 0.677190
0.979814 0.986498 0.716423
1.000003 0.984147 0.878366
1.000003 0.987444 0.961858
0.917938 0.999206 0.859121
0.917790 0.999191 0.858832
0.917158 0.999114 0.857319
0.917540 0.999006 0.855240
0.924109 0.998883 0.852863
0.947043 0.998707 0.850108
0.977492 0.998420 0.851399
0.994878 0.997996 0.870768
1.000003 0.996849 0.950047
0.963033 1.000003 0.936260
0.962949 1.000003 0.936112
0.962532 1.000003 0.935342
0.962190 1.000003 0.934305
0.963015 1.000003 0.933210
0.968297 1.000003 0.931980
0.980982 1.000003 0.930846
0.993812 1.000003 0.932313
1.000003 1.000003 0.941680
0.003505 0.003505 0.083310
0.068098 0.003505 0.082895
0.272694 0.017502 0.056118
0.587420 0.081017 0.082716
0.850558 0.226829 0.186406
0.961020 0.511672 0.449772
0.993860 0.789079 0.759670
1.000003 0.919040 0.907917
1.000003 0.971829 0.967794
0.003505 0.073802 0.076676
0.074292 0.074292 0.074292
0.275432 0.064339 0.046815
0.591470 0.110255 0.079451
0.852879 0.242076 0.186510
0.961909 0.520855 0.454678
0.994129 0.792918 0.763489
1.000003 0.920723 0.909772
1.000003 0.972549 0.968600
0.025000 0.320085 0.009614
0.056086 0.320182 0.009232
0.290936 0.314833 0.011098
0.609374 0.305255 0.053284
0.863112 0.357494 0.173854
0.965928 0.578828 0.474697
0.995356 0.812747 0.781072
1.000003 0.928813 0.918441
1.000003 0.975938 0.972366
0.131500 0.660781 0.029314
0.149510 0.660953 0.029117
0.281216 0.656735 0.029327
0.606804 0.649439 0.032278
0.864283 0.635262 0.129650
0.967408 0.695939 0.460046
0.996007 0.837787 0.788484
1.000003 0.935532 0.923775
1.000003 0.978430 0.974924
0.338795 0.871393 0.106855
0.343242 0.871505 0.106823
0.390182 0.869930 0.105734
0.593539 0.867088 0.103121
0.835080 0.862718 0.121766
0.962720 0.853741 0.386811
0.995210 0.883018 0.765639
1.000003 0.941131 0.919511
1.000003 0.978801 0.974111
0.629179 0.958410 0.366557
0.630335 0.958460 0.366830
0.638600 0.957895 0.363342
0.692660 0.957008 0.356923
0.826332 0.955634 0.351689
0.939314 0.953456 0.405316
0.992491 0.948695 0.714618
1.000003 0.958905 0.903680
1.000003 0.980211 0.970052
0.822773 0.989000 0.691478
0.823054 0.989019 0.691749
0.822988 0.988813 0.688877
0.830431 0.988516 0.684650
0.867050 0.988127 0.679073
0.934512 0.987493 0.677867
0.979837 0.986514 0.716984
1.000003 0.984161 0.878455
1.000003 0.987452 0.961873
0.917764 0.999190 0.858862
0.917869 0.999198 0.859009
0.917236 0.999120 0.857500
0.917615 0.999013 0.855427
0.924171 0.998890 0.853057
0.947082 0.998713 0.850309
0.977513 0.998427 0.851596
0.994888 0.998003 0.870938
1.000003 0.996855 0.950076
0.962942 1.000003 0.936114
0.962991 1.000003 0.936190
0.962574 1.000003 0.935420
0.962231 1.000003 0.934384
0.963053 1.000003 0.933290
0.968327 1.000003 0.932062
0.981000 1.000003 0.930928
0.993821 1.000003 0.932393
1.000003 1.000003 0.941750
0.011016 0.004360 0.298339
0.029488 0.004377 0.298636
0.262886 0.004494 0.298045
0.581043 0.046010 0.280766
0.848575 0.199108 0.301825
0.960635 0.501833 0.490757
0.993795 0.787462 0.764247
1.000003 0.918725 0.908250
1.000003 0.971759 0.967794
0.010359 0.008131 0.298550
0.030238 0.008014 0.297950
0.265522 0.008997 0.297216
0.585056 0.064147 0.278923
0.850900 0.215824 0.301881
0.961525 0.511312 0.495143
0.994064 0.791333 0.767890
1.000003 0.920411 0.910081
1.000003 0.972478 0.968596
0.013675 0.274175 0.280541
0.027115 0.279152 0.285255
0.279669 0.279669 0.279669
0.601667 0.273905 0.257968
0.860552 0.335843 0.293247
0.965355 0.569748 0.511990
0.995237 0.810574 0.783972
1.000003 0.928169 0.918269
1.000003 0.975721 0.972184
0.114893 0.645034 0.171846
0.134208 0.645220 0.170828
0.272799 0.645696 0.163146
0.601589 0.635017 0.198509
0.861988 0.625396 0.235379
0.966871 0.691215 0.494879
0.995900 0.836185 0.790876
1.000003 0.934996 0.923589
1.000003 0.978246 0.974763
0.332399 0.868105 0.161682
0.337079 0.868221 0.161381
0.387153 0.868692 0.158952
0.591522 0.865617 0.162050
0.834913 0.861160 0.194199
0.962230 0.852670 0.419565
0.995099 0.882342 0.768297
1.000003 0.940733 0.919326
1.000003 0.978637 0.973954
0.625520 0.957629 0.385428
0.626730 0.957680 0.385600
0.638871 0.957915 0.386173
0.692686 0.956995 0.382349
0.826416 0.955592 0.379200
0.939494 0.953413 0.430979
0.992378 0.948700 0.718442
1.000003 0.958806 0.903502
1.000003 0.980099 0.969880
0.821002 0.988763 0.692233
0.821289 0.988782 0.692479
0.823598 0.988878 0.693671
0.830944 0.988578 0.689938
0.867371 0.988185 0.684909
0.934697 0.987549 0.683987
0.979946 0.986573 0.721962
1.000003 0.984220 0.878595
1.000003 0.987445 0.961678
0.916855 0.999107 0.857829
0.916960 0.999115 0.857973
0.917623 0.999152 0.858687
0.917982 0.999045 0.856682
0.924476 0.998921 0.854391
0.947270 0.998745 0.851721
0.977614 0.998459 0.853009
0.994939 0.998037 0.872117
1.000003 0.996888 0.949989
0.962470 1.000003 0.935406
0.962519 1.000003 0.935481
0.962786 1.000003 0.935860
0.962440 1.000003 0.934835
0.963248 1.000003 0.933754
0.968480 1.000003 0.932541
0.981091 1.000003 0.931418
0.993869 1.000003 0.932869
1.000003 1.000003 0.942159
0.029113 0.006849 0.614264
0.038494 0.006854 0.615013
0.219994 0.006942 0.616944
0.543804 0.008938 0.613505
0.835226 0.104055 0.587495
0.956882 0.443392 0.623437
0.992908 0.772106 0.779032
1.000003 0.913817 0.906443
1.000003 0.969976 0.966216
0.028609 0.009230 0.616922
0.038578 0.009163 0.616670
0.220976 0.009365 0.618549
0.547509 0.012766 0.615104
0.837530 0.115645 0.588802
0.957801 0.453453 0.626017
0.993189 0.776202 0.782036
1.000003 0.915560 0.908209
1.000003 0.970717 0.967026
0.026951 0.147660 0.621186
0.035880 0.146924 0.620969
0.226514 0.144073 0.617864
0.564820 0.160706 0.615394
0.846980 0.251645 0.588800
0.961731 0.520936 0.635740
0.994412 0.796707 0.795373
1.000003 0.923592 0.916119
1.000003 0.974061 0.970653
0.057314 0.585739 0.598196
0.070028 0.585869 0.598056
0.239486 0.586084 0.595571
0.586316 0.586316 0.586316
0.847059 0.579188 0.559593
0.962781 0.662384 0.625997
0.994987 0.823841 0.800243
1.000003 0.930216 0.920680
1.000003 0.976440 0.973001
0.306517 0.856132 0.472695
0.311684 0.856259 0.472275
0.366424 0.856782 0.468968
0.579574 0.856817 0.459302
0.831940 0.851756 0.486893
0.958311 0.845258 0.565706
0.994122 0.876694 0.778923
1.000003 0.937028 0.916261
1.000003 0.976958 0.972158
0.615984 0.955440 0.507959
0.617301 0.955493 0.507863
0.630583 0.955745 0.507016
0.689580 0.955938 0.503706
0.824949 0.954368 0.510485
0.939253 0.952159 0.551333
0.991331 0.947840 0.734817
1.000003 0.957438 0.900145
1.000003 0.978840 0.967869
0.817982 0.988292 0.711012
0.818282 0.988312 0.711166
0.820727 0.988411 0.711890
0.831029 0.988517 0.712409
0.867313 0.988098 0.710206
0.934710 0.987441 0.710927
0.980013 0.986469 0.743760
1.000003 0.984171 0.876754
1.000003 0.987057 0.959318
0.915554 0.998974 0.859143
0.915661 0.998982 0.859269
0.916342 0.999020 0.859896
0.918359 0.999065 0.860621
0.924770 0.998938 0.858776
0.947441 0.998758 0.856550
0.977710 0.998470 0.857946
0.994993 0.998050 0.876102
1.000003 0.996912 0.948085
0.961834 1.000003 0.934911
0.961883 1.000003 0.934982
0.962152 1.000003 0.935344
0.962691 1.000003 0.935787
0.963479 1.000003 0.934779
0.968658 1.000003 0.933645
0.981197 1.000003 0.932588
0.993925 1.000003 0.934022
1.000003 1.000003 0.943111
0.038461 0.008275 0.842506
0.043557 0.008268 0.843032
0.133244 0.008229 0.844826
0.492242 0.009093 0.844600
0.786159 0.019399 0.838787
0.946321 0.271020 0.817990
0.990290 0.718917 0.837521
1.000003 0.898775 0.908232
1.000003 0.964798 0.962767
0.038023 0.009598 0.844549
0.043440 0.009557 0.844527
0.133107 0.009510 0.846297
0.494562 0.010683 0.846029
0.788582 0.022176 0.840355
0.947329 0.281977 0.819552
0.990611 0.723909 0.839307
1.000003 0.900743 0.909742
1.000003 0.965619 0.963589
0.035488 0.040735 0.850663
0.040180 0.040509 0.850662
0.131235 0.039255 0.849715
0.503866 0.041583 0.849707
0.799894 0.063462 0.845640
0.951596 0.359054 0.826021
0.992005 0.749366 0.847447
1.000003 0.909841 0.916585
1.000003 0.969324 0.967280
0.046655 0.430726 0.848228
0.051894 0.430211 0.848240
0.132272 0.427087 0.847671
0.516987 0.424212 0.844456
0.811363 0.446543 0.841861
0.952272 0.566781 0.826220
0.992585 0.785666 0.851807
1.000003 0.917512 0.920717
1.000003 0.971929 0.969643
0.217734 0.821775 0.830226
0.224673 0.821889 0.830293
0.294066 0.822322 0.830213
0.566419 0.818473 0.823848
0.822024 0.822024 0.822024
0.947170 0.817764 0.808322
0.991248 0.856690 0.841471
1.000003 0.926086 0.916502
1.000003 0.972245 0.968312
0.586257 0.948691 0.771011
0.587801 0.948751 0.770945
0.603477 0.949034 0.770404
0.672194 0.949258 0.768354
0.817977 0.949075 0.762998
0.937394 0.946618 0.778552
0.988325 0.943462 0.812329
1.000003 0.953199 0.901590
1.000003 0.975348 0.963588
0.811449 0.987033 0.791470
0.811773 0.987056 0.791474
0.814446 0.987166 0.791439
0.825828 0.987284 0.791019
0.865196 0.987311 0.789281
0.933751 0.986556 0.794056
0.979760 0.985580 0.813358
0.999727 0.983595 0.883122
1.000003 0.985955 0.954458
0.913670 0.998714 0.873512
0.913780 0.998722 0.873585
0.914492 0.998763 0.873945
0.916655 0.998811 0.874331
0.924595 0.998841 0.874415
0.947262 0.998643 0.873946
0.977640 0.998341 0.875886
0.994986 0.997926 0.890603
1.000003 0.996863 0.944874
0.961099 1.000003 0.936775
0.961149 1.000003 0.936835
0.961423 1.000003 0.937137
0.961985 1.000003 0.937503
0.963614 1.000003 0.937797
0.968745 1.000003 0.937018
0.981239 1.000003 0.936266
0.993950 1.000003 0.937699
1.000003 1.000003 0.946069
0.033314 0.006741 0.948773
0.035719 0.006725 0.949037
0.073181 0.006609 0.950028
0.401876 0.006652 0.950178
0.761489 0.009186 0.948348
0.910849 0.039718 0.942290
0.985449 0.567796 0.928217
1.000003 0.864729 0.934849
1.000003 0.955031 0.963082
0.032752 0.007126 0.949823
0.035352 0.007106 0.949840
0.072597 0.006975 0.950816
0.402786 0.007029 0.950949
0.763392 0.010004 0.949098
0.912130 0.042039 0.943162
0.985839 0.575516 0.929112
1.000003 0.867265 0.935760
1.000003 0.956018 0.963795
0.029115 0.016657 0.953341
0.031258 0.016563 0.953367
0.068520 0.016024 0.953106
0.402609 0.016443 0.953138
0.771107 0.024363 0.951280
0.918200 0.066939 0.946771
0.987521 0.616346 0.933359
1.000003 0.879023 0.940048
1.000003 0.960469 0.967049
0.027685 0.170945 0.952980
0.029554 0.170135 0.953007
0.062053 0.164932 0.952801
0.400385 0.158878 0.951528
0.778079 0.175129 0.950621
0.924433 0.287179 0.947977
0.988082 0.681731 0.937266
1.000003 0.889162 0.943669
1.000003 0.963538 0.969332
0.088941 0.745301 0.947542
0.092004 0.745167 0.947584
0.131802 0.744193 0.947629
0.419396 0.741912 0.946877
0.786147 0.740458 0.944678
0.928580 0.754359 0.943048
0.986134 0.807561 0.935932
1.000003 0.903167 0.943443
1.000003 0.964058 0.968627
0.493218 0.932683 0.937204
0.495418 0.932743 0.937255
0.518413 0.933019 0.937445
0.616585 0.933195 0.937215
0.801541 0.932928 0.935594
0.932745 0.932745 0.932745
0.982805 0.930402 0.926832
0.999568 0.942860 0.937105
1.000003 0.968889 0.964827
0.793678 0.983512 0.913673
0.794049 0.983538 0.913677
0.797179 0.983664 0.913664
0.810722 0.983800 0.913431
0.856583 0.983836 0.912355
0.930342 0.983669 0.909925
0.978724 0.982608 0.916373
0.998153 0.981229 0.925736
1.000003 0.983796 0.957094
0.909530 0.997972 0.918584
0.909648 0.997982 0.918596
0.910420 0.998029 0.918641
0.912812 0.998084 0.918634
0.921635 0.998121 0.918358
0.945936 0.998101 0.917411
0.977042 0.997747 0.920124
0.994786 0.997335 0.927800
1.000003 0.996496 0.950715
0.959937 1.000003 0.947244
0.959988 1.000003 0.947276
0.960274 1.000003 0.947432
0.960870 1.000003 0.947613
0.962634 1.000003 0.947728
0.968500 1.000003 0.947647
0.981056 1.000003 0.947825
0.993865 1.000003 0.949284
1.000003 1.000003 0.955501
0.015746 0.004360 0.989388
0.016457 0.004352 0.989499
0.026735 0.004288 0.989959
0.206380 0.004188 0.989915
0.728023 0.004352 0.989398
0.902772 0.007597 0.987140
0.965132 0.080825 0.982260
0.998209 0.787826 0.973638
1.000003 0.936753 0.975472
0.015185 0.004385 0.989833
0.016013 0.004385 0.989847
0.026054 0.004316 0.990299
0.204976 0.004208 0.990248
0.729737 0.004377 0.989728
0.903889 0.007885 0.987466
0.965755 0.083346 0.982658
0.998356 0.791672 0.974073
1.000003 0.938065 0.975905
0.012103 0.005061 0.991530
0.012716 0.005052 0.991546
0.022171 0.004970 0.991515
0.194822 0.004774 0.991421
0.736058 0.005121 0.990867
0.908660 0.013865 0.988511
0.968738 0.105414 0.984438
0.998991 0.809557 0.976202
1.000003 0.943955 0.977966
0.007451 0.052191 0.990496
0.007722 0.051859 0.990514
0.012977 0.049936 0.990504
0.166799 0.046104 0.989746
0.729783 0.049913 0.989272
0.912235 0.078379 0.988020
0.971927 0.226378 0.985690
0.999267 0.825424 0.978661
1.000003 0.947807 0.979932
0.011281 0.601984 0.988385
0.011754 0.601284 0.988401
0.019373 0.596557 0.988375
0.165570 0.584050 0.987714
0.731916 0.577627 0.986818
0.914736 0.603482 0.986086
0.974030 0.681321 0.984808
0.998683 0.853534 0.980039
1.000003 0.948546 0.980797
0.223797 0.903754 0.983963
0.226052 0.903746 0.983987
0.255593 0.903646 0.984078
0.431690 0.903196 0.983990
0.748019 0.902130 0.983369
0.918305 0.901599 0.982142
0.975250 0.906974 0.981357
0.997312 0.922647 0.978493
1.000003 0.957382 0.980100
0.747581 0.976768 0.978993
0.748056 0.976796 0.979017
0.752315 0.976928 0.979131
0.771681 0.977063 0.979194
0.834409 0.977069 0.978925
0.924370 0.976860 0.977985
0.976762 0.976762 0.976762
0.995747 0.975626 0.974356
1.000003 0.979160 0.977015
0.899990 0.996234 0.969951
0.900122 0.996245 0.969960
0.900997 0.996300 0.970002
0.903813 0.996364 0.970019
0.914286 0.996407 0.969879
0.942275 0.996387 0.969277
0.975511 0.996284 0.968238
0.994255 0.995846 0.970672
1.000003 0.995271 0.972898
0.957511 1.000003 0.970266
0.957565 1.000003 0.970274
0.957872 1.000003 0.970311
0.958525 1.000003 0.970345
0.960490 1.000003 0.970326
0.966999 1.000003 0.970132
0.980329 1.000003 0.969649
0.993527 1.000003 0.970936
1.000003 1.000003 0.973897
0.004592 0.003505 1.000003
0.004624 0.003505 1.000003
0.005214 0.003505 1.000003
0.023408 0.003505 1.000003
0.659440 0.003505 1.000003
0.898985 0.003505 1.000003
0.963574 0.006360 0.999846
0.987550 0.165059 0.996635
1.000003 0.902124 0.991537
0.004494 0.003505 1.000003
0.004544 0.003505 1.000003
0.005085 0.003505 1.000003
0.022297 0.003505 1.000003
0.660817 0.003505 1.000003
0.900161 0.003505 1.000003
0.964148 0.006434 0.999973
0.987850 0.169005 0.996804
1.000003 0.904043 0.991744
0.004079 0.003505 1.000003
0.004092 0.003505 1.000003
0.004509 0.003505 1.000003
0.016778 0.003505 1.000003
0.664862 0.003505 1.000003
0.905285 0.003505 1.000003
0.966678 0.008372 1.000003
0.989290 0.198124 0.997584
1.000003 0.912601 0.992763
0.003663 0.003990 1.000003
0.003721 0.003990 1.000003
0.003793 0.003917 1.000003
0.009356 0.003850 1.000003
0.646475 0.003793 1.000003
0.905810 0.004377 1.000003
0.968231 0.047759 1.000003
0.990880 0.313112 0.998277
1.000003 0.917706 0.994013
0.003505 0.255265 1.000003
0.003505 0.253943 1.000003
0.003505 0.246241 1.000003
0.004571 0.228779 1.000003
0.584208 0.202986 1.000003
0.897712 0.227429 0.999839
0.969311 0.370191 0.999250
0.991996 0.655894 0.998281
1.000003 0.918896 0.995066
0.004711 0.865406 0.999505
0.004746 0.865275 0.999513
0.005422 0.864305 0.999515
0.037058 0.860587 0.999224
0.604633 0.855590 0.998696
0.899734 0.853921 0.998185
0.969982 0.862336 0.997784
0.992569 0.883705 0.997255
1.000003 0.936709 0.995347
0.591307 0.966481 0.996759
0.591975 0.966490 0.996771
0.600314 0.966523 0.996821
0.645301 0.966506 0.996845
0.770810 0.966283 0.996717
0.906226 0.965799 0.996311
0.971396 0.965625 0.995710
0.992890 0.967479 0.995374
1.000003 0.971607 0.994238
0.878931 0.993473 0.994553
0.879085 0.993485 0.994564
0.880161 0.993545 0.994617
0.883952 0.993614 0.994670
0.898347 0.993653 0.994655
0.934576 0.993614 0.994437
0.973454 0.993494 0.993952
0.993452 0.993452 0.993452
1.000003 0.992941 0.992465
0.952751 1.000003 0.990924
0.952811 1.000003 0.990930
0.953149 1.000003 0.990960
0.953894 1.000003 0.990990
0.956205 1.000003 0.990989
0.963828 1.000003 0.990883
0.978902 1.000003 0.990558
0.992870 1.000003 0.990127
1.000003 1.000003 0.991078
0.003505 0.003505 1.000003
0.003505 0.003505 1.000003
0.003505 0.003505 1.000003
0.003663 0.003505 1.000003
0.107012 0.003505 1.000003
0.900345 0.003505 1.000003
0.968524 0.003505 1.000003
0.987858 0.005907 1.000003
0.997087 0.367987 1.000003
0.003505 0.003505 1.000003
0.003505 0.003505 1.000003
0.003505 0.003505 1.000003
0.003663 0.003505 1.000003
0.100707 0.003505 1.000003
0.901739 0.003505 1.000003
0.969166 0.003505 1.000003
0.988145 0.005888 1.000003
0.997231 0.377309 1.000003
0.003505 0.003505 1.000003
0.003505 0.003505 1.000003
0.003505 0.003505 1.000003
0.003505 0.003505 1.000003
0.071960 0.003505 1.000003
0.908060 0.003505 1.000003
0.972106 0.003505 1.000003
0.989423 0.006546 1.000003
0.997922 0.432091 1.000003
0.003505 0.003505 1.000003
0.003505 0.003505 1.000003
0.003505 0.003505 1.000003
0.003505 0.003505 1.000003
0.041097 0.003505 1.000003
0.910780 0.003505 1.000003
0.973888 0.003505 1.000003
0.990086 0.032244 1.000003
0.998696 0.542971 1.000003
0.003505 0.005188 1.000003
0.003505 0.005116 1.000003
0.003505 0.004774 1.000003
0.003505 0.004410 1.000003
0.012558 0.004037 1.000003
0.883382 0.004334 1.000003
0.965923 0.037274 1.000003
0.990489 0.206598 1.000003
0.999276 0.712192 1.000003
0.003505 0.805464 1.000003
0.003505 0.805093 1.000003
0.003505 0.802728 1.000003
0.003505 0.795978 1.000003
0.006403 0.768518 1.000003
0.862986 0.750279 1.000003
0.963920 0.767955 1.000003
0.990672 0.812730 1.000003
0.999592 0.875258 1.000003
0.004571 0.955583 1.000003
0.004564 0.955567 1.000003
0.004830 0.955393 1.000003
0.016753 0.954412 1.000003
0.416077 0.952388 1.000003
0.870556 0.951100 1.000003
0.964981 0.950666 1.000003
0.990815 0.953320 1.000003
0.999704 0.959462 1.000003
0.815643 0.989600 1.000003
0.815763 0.989607 1.000003
0.817047 0.989638 1.000003
0.824064 0.989666 1.000003
0.852559 0.989647 1.000003
0.913941 0.989514 1.000003
0.967181 0.989297 1.000003
0.991375 0.989242 1.000003
0.999784 0.989923 1.000003
0.943055 1.000003 1.000003
0.943121 1.000003 1.000003
0.943511 1.000003 1.000003
0.944442 1.000003 1.000003
0.947526 1.000003 1.000003
0.957613 1.000003 1.000003
0.976255 1.000003 1.000003
0.992115 1.000003 1.000003
1.000003 1.000003 1.000003
