3DLUTS/RED_IPP2CubesSDRCoreV1_13/REC2020/RWG_Log3G10 to REC2020_BT1886 with NO_CONTRAST and R_4_VerySoft size_33 v1.13.cube
# RED Digital Cinema Output Transform LUT for IPP2
# LUT Name = RWG_Log3G10 to REC2020_BT1886 with NO_CONTRAST and R_4_VerySoft size_33 v1.13
# Generated by version 1.13
# Settings used in creation of this LUT are:
# Development Color Space = REC2020
# Output Gamma Curve = BT1886
# Output Tonemap = NO_CONTRAST
# Highlight Rolloff = Rolloff 4 - very soft
# Resolution = 33 x 33 x 33
TITLE "RED IPP2 LUT to map REDWideGamutRGB/Log3G10 to REC2020/BT1886/NO_CONTRAST/Rolloff 4 - very soft"
LUT_3D_SIZE 33
0.000000 0.000000 0.000000
0.000000 0.000000 0.000000
0.000000 0.000000 0.000000
0.000045 0.000000 0.000000
0.114955 0.003505 0.003505
0.166558 0.003505 0.003505
0.212569 0.003505 0.003505
0.258650 0.003990 0.003721
0.305900 0.005674 0.004617
0.351947 0.010131 0.006789
0.397720 0.018131 0.011608
0.447045 0.029362 0.019444
0.498896 0.044409 0.030183
0.547767 0.062597 0.043361
0.595653 0.085707 0.060235
0.642141 0.114466 0.081197
0.686774 0.150924 0.107458
0.729439 0.197578 0.141402
0.769688 0.249018 0.186870
0.806579 0.304715 0.244119
0.840995 0.362619 0.307632
0.872141 0.420765 0.371583
0.899529 0.477675 0.433735
0.924047 0.534446 0.495499
0.945035 0.588587 0.554261
0.963333 0.641141 0.611197
0.978590 0.689907 0.663947
0.991548 0.735992 0.713727
1.000001 0.778293 0.759355
1.000001 0.816073 0.800054
1.000001 0.850493 0.837086
1.000001 0.880541 0.869376
1.000001 0.907320 0.898123
0.000000 0.000000 0.000000
0.000000 0.000000 0.000000
0.000000 0.000000 0.000000
0.029937 0.003505 0.003505
0.120527 0.003505 0.003505
0.170978 0.003505 0.003505
0.216752 0.003897 0.003505
0.262910 0.005624 0.003721
0.310121 0.010401 0.004509
0.356050 0.018450 0.006504
0.402057 0.028456 0.011068
0.451627 0.041441 0.018856
0.503284 0.057958 0.029560
0.552081 0.077431 0.042872
0.599894 0.100978 0.060075
0.646279 0.130139 0.081503
0.690767 0.167311 0.108416
0.733243 0.211768 0.143286
0.773264 0.261125 0.190137
0.809898 0.315040 0.248533
0.844028 0.371339 0.312769
0.874872 0.428364 0.376986
0.901958 0.484465 0.439247
0.926175 0.540596 0.500985
0.946877 0.594212 0.559606
0.964903 0.646291 0.616307
0.979914 0.694620 0.668757
0.992646 0.740277 0.718180
1.000001 0.782160 0.763422
1.000001 0.819540 0.803726
1.000001 0.853568 0.840358
1.000001 0.883247 0.872263
1.000001 0.909675 0.900638
0.000000 0.000000 0.000000
0.000000 0.000000 0.000000
0.000000 0.000000 0.000000
0.049439 0.003505 0.003505
0.125816 0.003505 0.003505
0.175249 0.004846 0.003505
0.220809 0.009663 0.003505
0.267051 0.018184 0.003663
0.314192 0.027647 0.004352
0.360013 0.037847 0.006103
0.406264 0.049292 0.010251
0.456085 0.063385 0.017903
0.507521 0.080474 0.028528
0.556269 0.099678 0.042068
0.604019 0.122828 0.059561
0.650307 0.151844 0.081433
0.694658 0.187395 0.108990
0.736954 0.227963 0.144791
0.776755 0.274977 0.193044
0.813138 0.326418 0.252657
0.846988 0.380776 0.317664
0.877538 0.436424 0.382209
0.904329 0.491535 0.444617
0.928251 0.546899 0.506353
0.948674 0.599907 0.564849
0.966434 0.651457 0.621325
0.981203 0.699315 0.673480
0.993714 0.744524 0.722554
1.000001 0.785980 0.767414
1.000001 0.822956 0.807330
1.000001 0.856591 0.843566
1.000001 0.885904 0.875092
1.000001 0.911984 0.903101
0.003505 0.095529 0.003505
0.003505 0.094297 0.003505
0.003505 0.093023 0.003505
0.062063 0.091731 0.003505
0.130766 0.086415 0.003505
0.179290 0.083645 0.003505
0.224655 0.082671 0.003505
0.270984 0.083304 0.003663
0.318038 0.085589 0.004154
0.363773 0.089655 0.005620
0.410279 0.095974 0.009192
0.460374 0.105601 0.016637
0.511572 0.118676 0.027203
0.560278 0.134693 0.040923
0.607972 0.154763 0.058637
0.654172 0.179601 0.080906
0.698398 0.209846 0.109071
0.740526 0.246589 0.145780
0.780119 0.290772 0.195422
0.816264 0.339047 0.256353
0.849847 0.391070 0.322206
0.880114 0.445031 0.387162
0.906620 0.498928 0.449770
0.930256 0.553368 0.511538
0.950409 0.605666 0.569932
0.967911 0.656620 0.626199
0.982447 0.703969 0.678073
0.994745 0.748709 0.726808
1.000001 0.789727 0.771298
1.000001 0.826296 0.810834
1.000001 0.859541 0.846684
1.000001 0.888493 0.877841
1.000001 0.914229 0.905493
0.003505 0.161052 0.003505
0.003505 0.160182 0.003505
0.003505 0.159267 0.003505
0.045420 0.158306 0.003505
0.135657 0.157380 0.003505
0.183256 0.153667 0.003505
0.228400 0.151501 0.003505
0.274799 0.150455 0.003505
0.321736 0.150426 0.003972
0.367393 0.151457 0.005152
0.414133 0.153876 0.008153
0.464492 0.158452 0.015209
0.515402 0.165697 0.025624
0.564067 0.175851 0.039413
0.611711 0.190189 0.057254
0.657835 0.209711 0.079839
0.701950 0.235335 0.108545
0.743927 0.268265 0.146103
0.783329 0.308596 0.197082
0.819253 0.353228 0.259474
0.852584 0.402455 0.326290
0.882583 0.454350 0.391766
0.908818 0.506753 0.454644
0.932181 0.560068 0.516492
0.952075 0.611523 0.574818
0.969330 0.661797 0.630901
0.983642 0.708586 0.682512
0.995734 0.752828 0.730925
1.000001 0.793395 0.775058
1.000001 0.829555 0.814227
1.000001 0.862411 0.849704
1.000001 0.891006 0.880502
1.000001 0.916407 0.907807
0.003505 0.215346 0.003505
0.003663 0.214517 0.003505
0.004915 0.213636 0.003505
0.038541 0.212692 0.003505
0.128956 0.211730 0.003505
0.187447 0.210840 0.003505
0.232243 0.207208 0.003505
0.278629 0.204868 0.003505
0.325366 0.203543 0.003825
0.370914 0.203145 0.004752
0.417811 0.203834 0.007215
0.468397 0.206134 0.013678
0.518957 0.210431 0.023835
0.567576 0.217218 0.037539
0.615177 0.227728 0.055381
0.661239 0.243124 0.078161
0.705263 0.264627 0.107294
0.747111 0.293432 0.145592
0.786345 0.328791 0.197793
0.822069 0.369291 0.261821
0.855171 0.415201 0.329770
0.884921 0.464577 0.395907
0.910904 0.515139 0.459149
0.934011 0.567076 0.521146
0.953660 0.617518 0.579450
0.970680 0.667002 0.635384
0.984780 0.713167 0.686760
0.996677 0.756874 0.734872
1.000001 0.796974 0.778667
1.000001 0.832718 0.817487
1.000001 0.865188 0.852605
1.000001 0.893432 0.883060
1.000001 0.918506 0.910032
0.003936 0.268855 0.003505
0.004774 0.268004 0.003505
0.009486 0.267095 0.003505
0.042136 0.266112 0.003505
0.123821 0.265085 0.003505
0.181511 0.264063 0.003505
0.235022 0.261267 0.003505
0.282532 0.259212 0.003505
0.328969 0.256539 0.003721
0.374350 0.254849 0.004418
0.421272 0.254145 0.006417
0.472018 0.254754 0.012129
0.522151 0.256926 0.021923
0.570713 0.261258 0.035342
0.618276 0.268797 0.053023
0.664294 0.280721 0.075830
0.708250 0.297983 0.105220
0.749998 0.321464 0.144075
0.789096 0.351580 0.197292
0.824652 0.387503 0.263132
0.857555 0.429550 0.332437
0.887085 0.475896 0.399415
0.912841 0.524206 0.463147
0.935714 0.574454 0.525383
0.955139 0.623673 0.583730
0.971942 0.672229 0.639565
0.985845 0.717688 0.690744
0.997559 0.760818 0.738588
1.000001 0.800430 0.782074
1.000001 0.835754 0.820569
1.000001 0.867842 0.855351
1.000001 0.895745 0.885481
1.000001 0.920503 0.912140
0.005897 0.323033 0.003505
0.008899 0.322214 0.003505
0.018724 0.321340 0.003505
0.049653 0.320392 0.003505
0.120882 0.319388 0.003505
0.176991 0.318348 0.003505
0.230284 0.317303 0.003505
0.286683 0.316301 0.003505
0.332655 0.312306 0.003663
0.377768 0.309383 0.004176
0.424512 0.307390 0.005774
0.475285 0.306481 0.010646
0.524913 0.306810 0.019927
0.573395 0.308914 0.032874
0.620920 0.313539 0.050203
0.666911 0.321631 0.072824
0.710829 0.334251 0.102235
0.752515 0.352552 0.141380
0.791517 0.377336 0.195295
0.826947 0.408285 0.263090
0.859690 0.445906 0.334048
0.889038 0.488636 0.402099
0.914599 0.534192 0.466489
0.937268 0.582356 0.529087
0.956494 0.630078 0.587568
0.973102 0.677523 0.643374
0.986826 0.722167 0.694409
0.998374 0.764656 0.742030
1.000001 0.803753 0.785242
1.000001 0.838650 0.823443
1.000001 0.870359 0.857918
1.000001 0.897931 0.887749
1.000001 0.922387 0.914115
0.012327 0.374970 0.003825
0.018560 0.374192 0.003825
0.030905 0.373364 0.003825
0.060203 0.372472 0.003825
0.121106 0.371522 0.003825
0.174417 0.370515 0.003825
0.225701 0.369465 0.003825
0.280294 0.368390 0.003825
0.336553 0.367339 0.003825
0.381236 0.363321 0.004006
0.427502 0.360228 0.005306
0.477997 0.358061 0.009342
0.527118 0.356930 0.017933
0.575473 0.357182 0.030253
0.622950 0.359366 0.047024
0.668933 0.364276 0.069204
0.712851 0.372910 0.098333
0.754523 0.386473 0.137402
0.793485 0.406033 0.191548
0.828843 0.431775 0.261297
0.861482 0.464484 0.334251
0.890699 0.503011 0.403664
0.916111 0.545258 0.468922
0.938617 0.590876 0.532047
0.957679 0.636766 0.590784
0.974124 0.682872 0.646657
0.987694 0.726564 0.697624
0.999099 0.768338 0.745083
1.000001 0.806885 0.788077
1.000001 0.841347 0.826029
1.000001 0.872685 0.860237
1.000001 0.899942 0.889804
1.000001 0.924115 0.915910
0.024194 0.425138 0.004501
0.032540 0.424398 0.004501
0.046513 0.423617 0.004494
0.073961 0.422785 0.004487
0.125455 0.421894 0.004472
0.174494 0.420937 0.004457
0.223051 0.419918 0.004442
0.275352 0.418835 0.004434
0.330238 0.417715 0.004442
0.384909 0.416602 0.004487
0.429503 0.412539 0.004960
0.480089 0.409356 0.008309
0.528652 0.407056 0.016052
0.576791 0.405847 0.027612
0.624193 0.406101 0.043619
0.670183 0.408439 0.065078
0.714143 0.413716 0.093565
0.755862 0.423066 0.132091
0.794854 0.437681 0.185844
0.830214 0.458162 0.257280
0.862822 0.485587 0.332619
0.891977 0.519340 0.403744
0.917303 0.557672 0.470141
0.939702 0.600196 0.534009
0.958647 0.643837 0.593169
0.974970 0.688312 0.649242
0.988421 0.730871 0.700245
0.999711 0.771827 0.747632
1.000001 0.809778 0.790479
1.000001 0.843795 0.828244
1.000001 0.874772 0.862240
1.000001 0.901733 0.891590
1.000001 0.925648 0.917478
0.041699 0.473887 0.006013
0.051619 0.473191 0.006010
0.066018 0.472468 0.006004
0.091633 0.471698 0.005988
0.134697 0.470874 0.005966
0.178100 0.469985 0.005930
0.223049 0.469029 0.005897
0.272457 0.468000 0.005875
0.325325 0.466910 0.005871
0.378626 0.465779 0.005920
0.432273 0.464641 0.006069
0.477980 0.460597 0.007247
0.529381 0.457315 0.014400
0.577160 0.454941 0.025105
0.624422 0.453676 0.040157
0.670419 0.453961 0.060604
0.714469 0.456476 0.088041
0.756310 0.462193 0.125468
0.795424 0.472287 0.178040
0.830883 0.487638 0.250442
0.863560 0.509561 0.328561
0.892747 0.538030 0.401832
0.918070 0.571804 0.469718
0.940437 0.610592 0.534617
0.959330 0.651460 0.594429
0.975586 0.693915 0.650889
0.988963 0.735095 0.702076
1.000001 0.775091 0.749510
1.000001 0.812379 0.792312
1.000001 0.845930 0.829976
1.000001 0.876556 0.863833
1.000001 0.903246 0.893030
1.000001 0.926936 0.918755
0.065258 0.520793 0.009379
0.075953 0.520148 0.009367
0.090258 0.519482 0.009349
0.114222 0.518776 0.009314
0.149180 0.518023 0.009258
0.186161 0.517211 0.009186
0.226652 0.516335 0.009103
0.272473 0.515384 0.009024
0.322504 0.514360 0.008975
0.373811 0.513269 0.009004
0.426099 0.512123 0.009186
0.478165 0.510975 0.009655
0.523185 0.506922 0.012141
0.575390 0.503595 0.022710
0.623118 0.501161 0.036829
0.669360 0.499873 0.056100
0.713533 0.500213 0.082081
0.755569 0.502951 0.117798
0.794914 0.509134 0.168287
0.830597 0.519758 0.240225
0.863473 0.536257 0.321399
0.892816 0.559154 0.397292
0.918251 0.587825 0.467075
0.940692 0.622223 0.533367
0.959621 0.659726 0.594131
0.975887 0.699694 0.651229
0.989254 0.739184 0.702803
1.000001 0.778033 0.750456
1.000001 0.814570 0.793356
1.000001 0.847633 0.831037
1.000001 0.877922 0.864860
1.000001 0.904376 0.893991
1.000001 0.927885 0.919633
0.096054 0.566489 0.015686
0.107193 0.565892 0.015658
0.121229 0.565278 0.015625
0.142923 0.564632 0.015568
0.169182 0.563945 0.015485
0.199598 0.563208 0.015373
0.234931 0.562413 0.015238
0.276400 0.561547 0.015094
0.322582 0.560607 0.014969
0.371042 0.559590 0.014916
0.421308 0.558494 0.015022
0.472031 0.557349 0.015422
0.523165 0.556174 0.016357
0.567500 0.552173 0.019858
0.620607 0.548802 0.034117
0.667425 0.546332 0.052216
0.712027 0.545039 0.076690
0.754341 0.545464 0.110400
0.793905 0.548447 0.158179
0.829780 0.554943 0.227648
0.862851 0.566348 0.311663
0.892391 0.583607 0.390434
0.917995 0.606733 0.462416
0.940572 0.636054 0.530415
0.959600 0.669464 0.592416
0.975932 0.706300 0.650397
0.989339 0.743623 0.702555
1.000001 0.781003 0.750589
1.000001 0.816600 0.793717
1.000001 0.849080 0.831521
1.000001 0.878997 0.865401
1.000001 0.905216 0.894544
1.000001 0.928565 0.920168
0.135789 0.610214 0.024363
0.147229 0.609661 0.024314
0.159364 0.609096 0.024259
0.174828 0.608504 0.024179
0.194402 0.607879 0.024067
0.218810 0.607211 0.023918
0.248747 0.606494 0.023735
0.285234 0.605712 0.023525
0.326544 0.604862 0.023316
0.371204 0.603935 0.023154
0.418623 0.602921 0.023126
0.467351 0.601835 0.023368
0.517165 0.600675 0.024107
0.566536 0.599492 0.025706
0.610237 0.595548 0.030559
0.663768 0.592160 0.049197
0.709213 0.589683 0.072131
0.752075 0.588404 0.103631
0.792062 0.588938 0.148292
0.828300 0.592108 0.213444
0.861694 0.599129 0.299643
0.891507 0.611143 0.381430
0.917342 0.628688 0.455817
0.940114 0.652502 0.525788
0.959299 0.681180 0.589306
0.975753 0.714212 0.648435
0.989246 0.748809 0.701396
1.000001 0.784308 0.749987
1.000001 0.818699 0.793483
1.000001 0.850446 0.831518
1.000001 0.879915 0.865543
1.000001 0.905872 0.894766
1.000001 0.929062 0.920431
0.183122 0.651960 0.035979
0.191057 0.651450 0.035899
0.199282 0.650929 0.035814
0.210256 0.650387 0.035702
0.224927 0.649818 0.035555
0.244183 0.649215 0.035365
0.268897 0.648570 0.035131
0.299709 0.647870 0.034853
0.335333 0.647110 0.034553
0.375231 0.646278 0.034270
0.418855 0.645361 0.034081
0.464758 0.644365 0.034117
0.512579 0.643276 0.034593
0.560676 0.642121 0.035845
0.608274 0.640930 0.038432
0.651013 0.637070 0.045024
0.704490 0.633686 0.068939
0.748481 0.631205 0.098259
0.789196 0.629960 0.139573
0.825976 0.630589 0.199692
0.859826 0.634041 0.285489
0.890030 0.641466 0.370131
0.916199 0.653729 0.447021
0.939261 0.671901 0.519225
0.958676 0.695351 0.584556
0.975314 0.723896 0.645124
0.988945 0.755111 0.699140
1.000001 0.788195 0.748500
1.000001 0.821011 0.792534
1.000001 0.851802 0.830934
1.000001 0.880700 0.865209
1.000001 0.906342 0.894598
1.000001 0.929358 0.920374
0.230319 0.691449 0.051262
0.235972 0.690978 0.051139
0.241844 0.690498 0.051012
0.249829 0.690003 0.050859
0.260880 0.689487 0.050668
0.275912 0.688942 0.050431
0.295540 0.688363 0.050141
0.320094 0.687740 0.049794
0.349633 0.687065 0.049401
0.384016 0.686326 0.048992
0.422920 0.685511 0.048630
0.465076 0.684617 0.048434
0.510071 0.683628 0.048600
0.556221 0.682554 0.049443
0.602596 0.681405 0.051462
0.648096 0.680213 0.055471
0.689570 0.676465 0.064354
0.742871 0.673078 0.095095
0.784998 0.670618 0.133181
0.822666 0.669436 0.188127
0.857184 0.670191 0.270510
0.887925 0.673891 0.357138
0.914537 0.681510 0.436225
0.937979 0.694285 0.510681
0.957705 0.712301 0.578039
0.974600 0.735818 0.640337
0.988430 0.762995 0.695692
0.999956 0.793046 0.746069
1.000001 0.823811 0.790836
1.000001 0.853330 0.829747
1.000001 0.881467 0.864390
1.000001 0.906696 0.894036
1.000001 0.929497 0.919997
0.279896 0.728478 0.071231
0.284007 0.728044 0.071050
0.288214 0.727604 0.070865
0.293917 0.727152 0.070656
0.301895 0.726683 0.070408
0.312806 0.726192 0.070112
0.327297 0.725674 0.069758
0.346120 0.725119 0.069335
0.369669 0.724522 0.068847
0.398171 0.723872 0.068311
0.431646 0.723155 0.067772
0.469172 0.722367 0.067333
0.510429 0.721487 0.067164
0.553813 0.720520 0.067557
0.598295 0.719463 0.068965
0.642636 0.718328 0.072108
0.685784 0.717144 0.078147
0.726144 0.713498 0.090399
0.778713 0.710130 0.130291
0.818033 0.707744 0.180373
0.853609 0.706609 0.257128
0.885115 0.707512 0.343627
0.912317 0.711360 0.424018
0.936249 0.719361 0.500382
0.956375 0.732123 0.569777
0.973601 0.750342 0.634003
0.987690 0.772919 0.690958
0.999422 0.799288 0.742613
1.000001 0.827433 0.788334
1.000001 0.855268 0.827930
1.000001 0.882371 0.863075
1.000001 0.907032 0.893077
1.000001 0.929538 0.919302
0.330775 0.763178 0.097625
0.333484 0.762781 0.097364
0.336239 0.762379 0.097099
0.339994 0.761967 0.096811
0.345397 0.761542 0.096485
0.352993 0.761099 0.096109
0.363381 0.760636 0.095672
0.377313 0.760145 0.095159
0.395366 0.759619 0.094564
0.418043 0.759050 0.093891
0.445711 0.758425 0.093169
0.477896 0.757739 0.092479
0.514518 0.756970 0.091960
0.554215 0.756119 0.091876
0.595976 0.755176 0.092638
0.638483 0.754143 0.094899
0.680533 0.753030 0.099680
0.721453 0.751855 0.108746
0.760455 0.748329 0.125919
0.811173 0.745038 0.178147
0.848697 0.742665 0.248143
0.881398 0.741617 0.331392
0.909432 0.742625 0.411386
0.934010 0.746707 0.488773
0.954645 0.754747 0.559889
0.972288 0.767737 0.626071
0.986708 0.785355 0.684828
0.998702 0.807428 0.738018
1.000001 0.832308 0.784939
1.000001 0.857933 0.825421
1.000001 0.883624 0.861225
1.000001 0.907482 0.891701
1.000001 0.929562 0.918280
0.380884 0.795430 0.133071
0.382620 0.795068 0.132693
0.384375 0.794701 0.132312
0.386778 0.794328 0.131909
0.390348 0.793943 0.131468
0.395505 0.793546 0.130976
0.402746 0.793133 0.130421
0.412732 0.792697 0.129784
0.426074 0.792235 0.129051
0.443410 0.791739 0.128218
0.465348 0.791197 0.127291
0.491848 0.790605 0.126331
0.523148 0.789943 0.125441
0.558286 0.789206 0.124852
0.596418 0.788384 0.124937
0.636272 0.787472 0.126297
0.676558 0.786471 0.129861
0.716439 0.785380 0.137178
0.754958 0.784221 0.150897
0.791579 0.780886 0.174930
0.841506 0.777583 0.246772
0.876364 0.775283 0.323091
0.905682 0.774329 0.400032
0.931163 0.775467 0.476815
0.952460 0.779614 0.548829
0.970629 0.787857 0.616676
0.985459 0.800515 0.677273
0.997781 0.817878 0.732201
1.000001 0.838879 0.780564
1.000001 0.861695 0.822151
1.000001 0.885492 0.858795
1.000001 0.908224 0.889881
1.000001 0.929676 0.916914
0.429391 0.824723 0.181169
0.430456 0.824394 0.180616
0.431528 0.824061 0.180058
0.433008 0.823723 0.179480
0.435305 0.823376 0.178862
0.438729 0.823019 0.178194
0.443666 0.822650 0.177460
0.450651 0.822264 0.176636
0.460238 0.821858 0.175708
0.473068 0.821426 0.174656
0.489846 0.820957 0.173472
0.510851 0.820448 0.172194
0.536605 0.819880 0.170887
0.566614 0.819250 0.169751
0.600344 0.818544 0.169114
0.636721 0.817755 0.169536
0.674489 0.816878 0.171892
0.712705 0.815906 0.177611
0.750268 0.814842 0.189055
0.785729 0.813724 0.209970
0.821452 0.810478 0.244226
0.869183 0.807242 0.321651
0.900730 0.805067 0.392344
0.927566 0.804211 0.466167
0.949765 0.805470 0.537631
0.968603 0.809828 0.606376
0.983936 0.817994 0.668550
0.996656 0.830647 0.725242
1.000001 0.847390 0.775219
1.000001 0.866864 0.818110
1.000001 0.888248 0.855778
1.000001 0.909461 0.887615
1.000001 0.930018 0.915214
0.477622 0.851974 0.250156
0.478211 0.851676 0.249398
0.478802 0.851376 0.248632
0.479639 0.851071 0.247845
0.481034 0.850760 0.247019
0.483212 0.850441 0.246141
0.486455 0.850113 0.245196
0.491169 0.849772 0.244157
0.497809 0.849416 0.243005
0.506940 0.849040 0.241710
0.519242 0.848636 0.240245
0.535166 0.848201 0.238622
0.555415 0.847720 0.236857
0.579935 0.847186 0.235105
0.608574 0.846590 0.233643
0.640605 0.845920 0.232990
0.674963 0.845170 0.233972
0.710714 0.844329 0.237814
0.746671 0.843393 0.246175
0.781241 0.842382 0.260766
0.814693 0.841277 0.284156
0.848544 0.838186 0.317531
0.893410 0.835057 0.390501
0.922678 0.832935 0.458459
0.946269 0.832182 0.527245
0.966044 0.833554 0.595575
0.982035 0.837891 0.658701
0.995255 0.846083 0.716993
1.000001 0.858355 0.768685
1.000001 0.873973 0.813089
1.000001 0.892337 0.852003
1.000001 0.911509 0.884780
1.000001 0.930789 0.913089
0.524525 0.876725 0.325008
0.524786 0.876459 0.324267
0.525048 0.876188 0.323517
0.525450 0.875915 0.322755
0.526231 0.875637 0.321965
0.527544 0.875353 0.321138
0.529593 0.875063 0.320266
0.532672 0.874761 0.319329
0.537129 0.874450 0.318314
0.543418 0.874123 0.317198
0.552126 0.873776 0.315952
0.563739 0.873405 0.314570
0.579010 0.872998 0.313033
0.598196 0.872550 0.311405
0.621495 0.872050 0.309810
0.648591 0.871490 0.308523
0.678756 0.870860 0.308028
0.711210 0.870147 0.309090
0.744806 0.869346 0.312835
0.777878 0.868466 0.320558
0.810490 0.867480 0.334121
0.841336 0.866413 0.354948
0.872476 0.863536 0.384771
0.915522 0.860429 0.455944
0.941579 0.858433 0.519572
0.962779 0.857764 0.585558
0.979678 0.859193 0.648479
0.993543 0.863606 0.707811
1.000001 0.871645 0.761079
1.000001 0.883205 0.807089
1.000001 0.898072 0.847434
1.000001 0.914674 0.881338
1.000001 0.932223 0.910516
0.569123 0.898714 0.392729
0.569165 0.898476 0.392032
0.569206 0.898234 0.391327
0.569327 0.897990 0.390612
0.569699 0.897743 0.389879
0.570432 0.897490 0.389122
0.571668 0.897233 0.388334
0.573614 0.896967 0.387503
0.576526 0.896694 0.386622
0.580749 0.896410 0.385672
0.586748 0.896111 0.384630
0.594966 0.895793 0.383489
0.606099 0.895449 0.382218
0.620561 0.895073 0.380838
0.638780 0.894656 0.379391
0.660808 0.894190 0.378004
0.686307 0.893666 0.376929
0.714786 0.893071 0.376595
0.745279 0.892398 0.377697
0.776179 0.891649 0.381157
0.807386 0.890799 0.388358
0.837477 0.889856 0.400738
0.865320 0.888847 0.419337
0.895202 0.886081 0.448234
0.934793 0.883108 0.516366
0.958467 0.881200 0.577892
0.976721 0.880662 0.638988
0.991459 0.882220 0.698355
1.000001 0.886675 0.752732
1.000001 0.894392 0.800240
1.000001 0.905570 0.842100
1.000001 0.919190 0.877283
1.000001 0.934552 0.907485
0.612568 0.918734 0.456473
0.612464 0.918522 0.455816
0.612357 0.918307 0.455151
0.612293 0.918091 0.454480
0.612393 0.917872 0.453795
0.612733 0.917649 0.453093
0.613408 0.917422 0.452372
0.614563 0.917189 0.451621
0.616376 0.916951 0.450836
0.619098 0.916705 0.450005
0.623076 0.916447 0.449110
0.628670 0.916177 0.448146
0.636461 0.915886 0.447081
0.646894 0.915572 0.445919
0.660497 0.915227 0.444663
0.677576 0.914843 0.443367
0.698154 0.914413 0.442146
0.722085 0.913925 0.441225
0.748722 0.913368 0.441005
0.776674 0.912747 0.442084
0.805769 0.912033 0.445378
0.834537 0.911230 0.452035
0.861693 0.910352 0.463151
0.885721 0.907755 0.476078
0.914612 0.906825 0.506808
0.951980 0.903895 0.573774
0.972671 0.902124 0.631148
0.988758 0.901679 0.689110
1.000001 0.903308 0.743779
1.000001 0.907618 0.792463
1.000001 0.915130 0.835823
1.000001 0.925443 0.872421
1.000001 0.938135 0.903829
0.653283 0.936274 0.514888
0.653087 0.936087 0.514270
0.652888 0.935897 0.513645
0.652711 0.935705 0.513016
0.652640 0.935512 0.512376
0.652727 0.935315 0.511723
0.653037 0.935116 0.511057
0.653668 0.934913 0.510370
0.654743 0.934705 0.509660
0.656439 0.934491 0.508919
0.659003 0.934269 0.508133
0.662712 0.934038 0.507300
0.668015 0.933791 0.506392
0.675316 0.933528 0.505407
0.685127 0.933242 0.504336
0.697873 0.932927 0.503191
0.713819 0.932575 0.502024
0.733122 0.932177 0.500938
0.755498 0.931723 0.500151
0.779905 0.931213 0.500031
0.806220 0.930623 0.501141
0.833050 0.929955 0.504298
0.859023 0.929212 0.510412
0.884172 0.928371 0.520848
0.907153 0.927460 0.536387
0.932941 0.925023 0.562362
0.966711 0.922240 0.626359
0.985155 0.920574 0.681348
0.998916 0.920265 0.735115
1.000001 0.921939 0.784303
1.000001 0.926251 0.828886
1.000001 0.933319 0.866881
1.000001 0.943086 0.899599
0.692374 0.952025 0.570099
0.692123 0.951860 0.569522
0.691870 0.951694 0.568938
0.691626 0.951527 0.568349
0.691448 0.951357 0.567754
0.691373 0.951185 0.567149
0.691445 0.951011 0.566534
0.691725 0.950834 0.565904
0.692300 0.950654 0.565259
0.693289 0.950469 0.564593
0.694863 0.950278 0.563895
0.697221 0.950081 0.563165
0.700692 0.949873 0.562382
0.705602 0.949653 0.561543
0.712388 0.949416 0.560633
0.721485 0.949158 0.559652
0.733271 0.948873 0.558614
0.748101 0.948552 0.557558
0.766021 0.948186 0.556591
0.786400 0.947776 0.555923
0.809273 0.947298 0.555870
0.833468 0.946752 0.556967
0.857641 0.946141 0.559879
0.881670 0.945440 0.565616
0.904094 0.944665 0.575025
0.925114 0.943796 0.589421
0.948269 0.941569 0.613248
0.979630 0.938849 0.675761
0.995658 0.937312 0.727271
1.000001 0.937101 0.775996
1.000001 0.938822 0.821293
1.000001 0.942918 0.860535
1.000001 0.949666 0.894620
0.728487 0.965638 0.620504
0.728209 0.965494 0.619967
0.727928 0.965349 0.619424
0.727650 0.965203 0.618878
0.727413 0.965055 0.618325
0.727243 0.964905 0.617765
0.727167 0.964754 0.617198
0.727228 0.964600 0.616620
0.727483 0.964443 0.616031
0.728011 0.964284 0.615427
0.728929 0.964120 0.614802
0.730376 0.963952 0.614155
