3DLUTS/RED_IPP2CubesSDRCoreV1_13/REC2020/RWG_Log3G10 to REC2020_BT1886 with HIGH_CONTRAST and R_4_VerySoft size_33 v1.13.cube
# RED Digital Cinema Output Transform LUT for IPP2
# LUT Name = RWG_Log3G10 to REC2020_BT1886 with HIGH_CONTRAST and R_4_VerySoft size_33 v1.13
# Generated by version 1.13
# Settings used in creation of this LUT are:
# Development Color Space = REC2020
# Output Gamma Curve = BT1886
# Output Tonemap = HIGH_CONTRAST
# Highlight Rolloff = Rolloff 4 - very soft
# Resolution = 33 x 33 x 33
TITLE "RED IPP2 LUT to map REDWideGamutRGB/Log3G10 to REC2020/BT1886/HIGH_CONTRAST/Rolloff 4 - very soft"
LUT_3D_SIZE 33
0.000000 0.000000 0.000000
0.000001 0.000000 0.000000
0.000008 0.000000 0.000000
0.013580 0.003505 0.003505
0.049586 0.003505 0.003505
0.081294 0.003505 0.003505
0.117495 0.004021 0.003761
0.163671 0.007795 0.005848
0.221401 0.018614 0.012462
0.291849 0.032677 0.022513
0.367975 0.049126 0.034418
0.448807 0.069776 0.049457
0.533659 0.097653 0.069771
0.612251 0.134178 0.096179
0.685041 0.184554 0.133355
0.750336 0.246292 0.188696
0.807072 0.319737 0.262796
0.855266 0.396583 0.346274
0.895058 0.472540 0.428693
0.926647 0.543466 0.505560
0.951960 0.609313 0.576851
0.971490 0.667438 0.639714
0.986065 0.716408 0.692613
0.997114 0.757810 0.737286
1.000001 0.791365 0.773453
1.000001 0.819297 0.803531
1.000001 0.841738 0.827675
1.000001 0.860272 0.847602
1.000001 0.875252 0.863698
1.000001 0.887155 0.876481
1.000001 0.897002 0.887052
1.000001 0.905497 0.896168
1.000001 0.913706 0.904974
0.000000 0.000001 0.000000
0.000001 0.000001 0.000000
0.000010 0.000001 0.000000
0.017613 0.003505 0.003505
0.050407 0.003505 0.003505
0.081738 0.003505 0.003505
0.117797 0.004717 0.003721
0.163909 0.010312 0.005691
0.221621 0.021692 0.012115
0.292072 0.035595 0.022151
0.368190 0.051764 0.034080
0.449050 0.072114 0.049170
0.533890 0.099720 0.069540
0.612477 0.136071 0.096011
0.685258 0.186026 0.133264
0.750538 0.247379 0.188709
0.807255 0.320540 0.262947
0.855426 0.397175 0.346508
0.895197 0.473004 0.428966
0.926764 0.543851 0.505846
0.952058 0.609643 0.577135
0.971571 0.667729 0.639986
0.986132 0.716669 0.692870
0.997170 0.758045 0.737524
1.000001 0.791579 0.773674
1.000001 0.819494 0.803736
1.000001 0.841919 0.827865
1.000001 0.860441 0.847780
1.000001 0.875410 0.863865
1.000001 0.887304 0.876639
1.000001 0.897144 0.887203
1.000001 0.905632 0.896311
1.000001 0.913835 0.905111
0.000000 0.000040 0.000000
0.000001 0.000037 0.000000
0.000013 0.000033 0.000000
0.021588 0.003505 0.003505
0.051488 0.003505 0.003505
0.082333 0.004298 0.003505
0.118203 0.007522 0.003721
0.164230 0.015600 0.005495
0.221917 0.026673 0.011646
0.292374 0.040001 0.021658
0.368480 0.055585 0.033623
0.449379 0.075430 0.048781
0.534203 0.102621 0.069225
0.612783 0.138708 0.095782
0.685550 0.188030 0.133137
0.750810 0.248863 0.188724
0.807501 0.321634 0.263148
0.855644 0.397980 0.346822
0.895383 0.473635 0.429335
0.926922 0.544373 0.506233
0.952190 0.610091 0.577519
0.971680 0.668123 0.640354
0.986223 0.717020 0.693215
0.997246 0.758362 0.737845
1.000001 0.791868 0.773972
1.000001 0.819759 0.804012
1.000001 0.842164 0.828122
1.000001 0.860668 0.848020
1.000001 0.875623 0.864090
1.000001 0.887506 0.876853
1.000001 0.897335 0.887405
1.000001 0.905815 0.896505
1.000001 0.914009 0.905296
0.003505 0.039311 0.003505
0.003505 0.038904 0.003505
0.003505 0.038343 0.003505
0.025681 0.037577 0.003505
0.052882 0.034841 0.003505
0.083116 0.028580 0.003505
0.118740 0.022921 0.003663
0.164655 0.026650 0.005256
0.222308 0.035130 0.011031
0.292773 0.046779 0.021005
0.368865 0.061176 0.033014
0.449816 0.080155 0.048260
0.534617 0.106688 0.068800
0.613188 0.142373 0.095470
0.685938 0.190726 0.132961
0.751172 0.250869 0.188736
0.807829 0.323107 0.263412
0.855932 0.399063 0.347237
0.895631 0.474481 0.429823
0.927132 0.545072 0.506747
0.952366 0.610689 0.578030
0.971826 0.668647 0.640843
0.986344 0.717489 0.693675
0.997347 0.758785 0.738272
1.000001 0.792253 0.774368
1.000001 0.820111 0.804379
1.000001 0.842489 0.828463
1.000001 0.860971 0.848338
1.000001 0.875907 0.864390
1.000001 0.887774 0.877137
1.000001 0.897590 0.887676
1.000001 0.906058 0.896764
1.000001 0.914240 0.905542
0.003505 0.064060 0.003505
0.003505 0.063848 0.003505
0.003505 0.063559 0.003505
0.016877 0.063170 0.003505
0.054596 0.062675 0.003505
0.084100 0.059736 0.003505
0.119419 0.055412 0.003663
0.165191 0.050480 0.004985
0.222804 0.049725 0.010273
0.293279 0.057120 0.020188
0.369354 0.069205 0.032242
0.450368 0.086703 0.047593
0.535139 0.112210 0.068253
0.613700 0.147269 0.095063
0.686429 0.194194 0.132727
0.751629 0.253464 0.188739
0.808242 0.325007 0.263738
0.856296 0.400456 0.347759
0.895945 0.475564 0.430439
0.927398 0.545964 0.507397
0.952587 0.611451 0.578676
0.972010 0.669315 0.641462
0.986498 0.718085 0.694256
0.997475 0.759321 0.738813
1.000001 0.792741 0.774869
1.000001 0.820558 0.804843
1.000001 0.842902 0.828896
1.000001 0.861354 0.848742
1.000001 0.876266 0.864769
1.000001 0.888113 0.877496
1.000001 0.897912 0.888017
1.000001 0.906365 0.897090
1.000001 0.914533 0.905854
0.003505 0.096290 0.003505
0.003663 0.096159 0.003505
0.004270 0.095982 0.003505
0.011990 0.095744 0.003505
0.048742 0.095442 0.003505
0.086295 0.094778 0.003505
0.120942 0.091650 0.003505
0.166393 0.088160 0.004516
0.223908 0.085867 0.008782
0.294402 0.086485 0.018421
0.370436 0.091621 0.030530
0.451589 0.103902 0.046092
0.536292 0.126149 0.067000
0.614827 0.158264 0.094114
0.687510 0.202102 0.132156
0.752638 0.259441 0.188692
0.809156 0.329349 0.264430
0.857102 0.403625 0.348897
0.896638 0.478014 0.431795
0.927986 0.547969 0.508833
0.953078 0.613154 0.580103
0.972417 0.670802 0.642831
0.986836 0.719409 0.695543
0.997757 0.760512 0.740010
1.000001 0.793824 0.775979
1.000001 0.821549 0.805872
1.000001 0.843816 0.829852
1.000001 0.862204 0.849636
1.000001 0.877062 0.865609
1.000001 0.888864 0.878291
1.000001 0.898627 0.888775
1.000001 0.907047 0.897814
1.000001 0.915182 0.906543
0.004393 0.136233 0.003505
0.005038 0.136139 0.003505
0.006854 0.136011 0.003505
0.014000 0.135839 0.003505
0.036649 0.135620 0.003505
0.080526 0.135137 0.003505
0.123742 0.134292 0.003505
0.168587 0.130608 0.003990
0.225902 0.127721 0.006880
0.296406 0.126791 0.015454
0.372359 0.128894 0.027505
0.453747 0.136190 0.043347
0.538312 0.152002 0.064637
0.616804 0.178047 0.092261
0.689410 0.217008 0.130955
0.754414 0.270916 0.188414
0.810768 0.337563 0.265533
0.858523 0.409575 0.350848
0.897863 0.482556 0.434166
0.929024 0.551640 0.511360
0.953945 0.616243 0.582627
0.973135 0.673480 0.645256
0.987434 0.721781 0.697826
0.998256 0.762640 0.742133
1.000001 0.795755 0.777948
1.000001 0.823313 0.807697
1.000001 0.845444 0.831551
1.000001 0.863715 0.851222
1.000001 0.878476 0.867100
1.000001 0.890200 0.879702
1.000001 0.899895 0.890118
1.000001 0.908257 0.899097
1.000001 0.916335 0.907767
0.008525 0.189471 0.003761
0.010315 0.189393 0.003761
0.013584 0.189287 0.003761
0.019607 0.189145 0.003761
0.031132 0.188963 0.003761
0.071786 0.188560 0.003761
0.117166 0.187839 0.003825
0.172407 0.186689 0.003850
0.229281 0.182290 0.005103
0.299712 0.179587 0.011183
0.375495 0.179244 0.022711
0.457209 0.182711 0.038717
0.541499 0.192690 0.060423
0.619924 0.211873 0.088751
0.692416 0.244029 0.128422
0.757234 0.292073 0.187319
0.813336 0.352484 0.266892
0.860795 0.420263 0.353763
0.899824 0.490547 0.437870
0.930689 0.557957 0.515380
0.955337 0.621457 0.586675
0.974291 0.677939 0.649161
0.988395 0.725696 0.701509
0.999057 0.766130 0.745562
1.000001 0.798909 0.781131
1.000001 0.826189 0.810647
1.000001 0.848091 0.834297
1.000001 0.866170 0.853787
1.000001 0.880772 0.869510
1.000001 0.892367 0.881985
1.000001 0.901953 0.892291
1.000001 0.910219 0.901172
1.000001 0.918203 0.909746
0.019457 0.258551 0.004385
0.021468 0.258478 0.004385
0.024559 0.258379 0.004393
0.029431 0.258245 0.004393
0.037129 0.258076 0.004410
0.062988 0.257695 0.004426
0.110243 0.257003 0.004457
0.164955 0.255851 0.004516
0.233427 0.252779 0.005161
0.304368 0.248869 0.007121
0.379777 0.245797 0.016747
0.461722 0.245842 0.032303
0.545503 0.250780 0.054053
0.623834 0.263287 0.082963
0.696208 0.287443 0.123650
0.760823 0.325406 0.184211
0.816631 0.376369 0.267490
0.863731 0.437200 0.356928
0.902371 0.502845 0.442390
0.932860 0.567341 0.520492
0.957156 0.628953 0.591923
0.975803 0.684190 0.654275
0.989654 0.731092 0.706356
1.000001 0.770885 0.750090
1.000001 0.803177 0.785341
1.000001 0.830059 0.814554
1.000001 0.851644 0.837936
1.000001 0.869457 0.857188
1.000001 0.883841 0.872707
1.000001 0.895261 0.885013
1.000001 0.904700 0.895174
1.000001 0.912836 0.903926
1.000001 0.920692 0.912372
0.036218 0.341401 0.005811
0.038110 0.341337 0.005814
0.040864 0.341251 0.005821
0.044920 0.341135 0.005831
0.050799 0.340987 0.005841
0.067588 0.340653 0.005868
0.107457 0.340039 0.005907
0.159449 0.338986 0.005972
0.225703 0.337473 0.006069
0.309159 0.333886 0.007423
0.384906 0.329552 0.011079
0.466507 0.326176 0.025138
0.549378 0.326337 0.046020
0.627570 0.331882 0.074811
0.699878 0.345874 0.115901
0.764370 0.371586 0.177541
0.819955 0.410538 0.265399
0.866744 0.461432 0.358723
0.905022 0.519934 0.446348
0.935143 0.579795 0.525500
0.959084 0.638419 0.597320
0.977415 0.691759 0.659664
0.991001 0.737427 0.711535
1.000001 0.776352 0.754966
1.000001 0.808016 0.789899
1.000001 0.834409 0.818798
1.000001 0.855613 0.841898
1.000001 0.873115 0.860896
1.000001 0.887248 0.876199
1.000001 0.898467 0.888322
1.000001 0.907738 0.898327
1.000001 0.915728 0.906941
1.000001 0.923443 0.915248
0.060964 0.426499 0.009282
0.062665 0.426445 0.009290
0.065083 0.426373 0.009298
0.068533 0.426276 0.009312
0.073331 0.426151 0.009326
0.085994 0.425870 0.009357
0.115490 0.425350 0.009411
0.160327 0.424444 0.009484
0.220883 0.423095 0.009577
0.300636 0.421372 0.009747
0.390925 0.419487 0.010292
0.470512 0.413170 0.018649
0.551946 0.409538 0.037558
0.629855 0.409510 0.065009
0.702198 0.415139 0.105122
0.766771 0.429506 0.166115
0.822362 0.455451 0.258039
0.869049 0.493927 0.356836
0.907138 0.542488 0.447770
0.937023 0.595484 0.528718
0.960709 0.649600 0.601417
0.978797 0.700138 0.664070
0.992171 0.744078 0.715937
1.000001 0.781868 0.759209
1.000001 0.812771 0.793921
1.000001 0.838606 0.822582
1.000001 0.859398 0.845455
1.000001 0.876577 0.864245
1.000001 0.890455 0.879362
1.000001 0.901475 0.891330
1.000001 0.910582 0.901200
1.000001 0.918431 0.909693
1.000001 0.926009 0.917878
0.111532 0.490771 0.020547
0.098414 0.508391 0.016672
0.100545 0.508330 0.016680
0.103541 0.508248 0.016689
0.107626 0.508143 0.016702
0.118009 0.507906 0.016727
0.138441 0.507468 0.016765
0.172601 0.506702 0.016805
0.224076 0.505545 0.016823
0.296054 0.504009 0.016849
0.381260 0.502171 0.017106
0.469554 0.500245 0.018227
0.550539 0.493860 0.030005
0.629180 0.490053 0.055205
0.701680 0.489791 0.092544
0.766663 0.495256 0.150215
0.822673 0.509369 0.242760
0.869670 0.534618 0.348423
0.907932 0.571010 0.444122
0.937873 0.614717 0.527959
0.961538 0.662399 0.602359
0.979562 0.708901 0.665914
0.992856 0.750434 0.718197
1.000001 0.786743 0.761627
1.000001 0.816731 0.796356
1.000001 0.841954 0.824964
1.000001 0.862331 0.847755
1.000001 0.879207 0.866452
1.000001 0.892861 0.881479
1.000001 0.903712 0.893364
1.000001 0.912686 0.903160
1.000001 0.920423 0.911583
1.000001 0.927894 0.919698
0.149541 0.585546 0.028458
0.150686 0.585508 0.028461
0.152255 0.585457 0.028466
0.154383 0.585387 0.028471
0.157150 0.585299 0.028477
0.163573 0.585100 0.028489
0.176066 0.584732 0.028500
0.199749 0.584089 0.028491
0.239855 0.583119 0.028418
0.300662 0.581816 0.028274
0.376946 0.580199 0.028209
0.460063 0.578350 0.028740
0.544659 0.576397 0.031050
0.623746 0.570165 0.047195
0.698638 0.566227 0.081357
0.764393 0.565718 0.133665
0.821012 0.570745 0.220405
0.868555 0.584022 0.332786
0.907267 0.607396 0.434340
0.937548 0.639651 0.522200
0.961442 0.678537 0.599293
0.979602 0.719183 0.664514
0.992967 0.757161 0.717772
1.000001 0.791325 0.761773
1.000001 0.820054 0.796824
1.000001 0.844497 0.825617
1.000001 0.864388 0.848508
1.000001 0.880941 0.867258
1.000001 0.894378 0.882310
1.000001 0.905080 0.894205
1.000001 0.913943 0.904001
1.000001 0.921594 0.912419
1.000001 0.928987 0.920525
0.210259 0.655264 0.046465
0.210908 0.655232 0.046464
0.211805 0.655188 0.046464
0.213033 0.655130 0.046462
0.214651 0.655054 0.046460
0.218493 0.654886 0.046452
0.226290 0.654575 0.046428
0.242102 0.654036 0.046357
0.271314 0.653228 0.046183
0.318235 0.652147 0.045864
0.381581 0.650792 0.045474
0.455935 0.649191 0.045406
0.535637 0.647362 0.046620
0.613629 0.645440 0.051073
0.689639 0.639453 0.073486
0.759332 0.635506 0.120645
0.817319 0.634781 0.196954
0.865853 0.639275 0.311647
0.905349 0.651321 0.419103
0.936219 0.671751 0.511657
0.960555 0.700121 0.592316
0.979023 0.732944 0.659991
0.992591 0.765821 0.714825
1.000001 0.796793 0.759845
1.000001 0.823634 0.795538
1.000001 0.846920 0.824758
1.000001 0.866117 0.847929
1.000001 0.882232 0.866873
1.000001 0.895390 0.882058
1.000001 0.905913 0.894045
1.000001 0.914653 0.903909
1.000001 0.922213 0.912380
1.000001 0.929532 0.920531
0.278835 0.717251 0.073558
0.279229 0.717224 0.073552
0.279775 0.717186 0.073543
0.280525 0.717136 0.073532
0.281517 0.717072 0.073518
0.283889 0.716928 0.073482
0.288766 0.716665 0.073409
0.298862 0.716211 0.073255
0.317956 0.715538 0.072959
0.350186 0.714648 0.072455
0.398260 0.713540 0.071748
0.460157 0.712219 0.071100
0.531570 0.710661 0.071260
0.605190 0.708909 0.073839
0.675940 0.707043 0.081995
0.747191 0.701401 0.113391
0.810859 0.697523 0.181004
0.861254 0.696599 0.288889
0.902000 0.700430 0.399628
0.933783 0.710660 0.496382
0.958814 0.728291 0.581074
0.977788 0.751870 0.651950
0.991707 0.778011 0.709047
1.000001 0.804428 0.755629
1.000001 0.828434 0.792357
1.000001 0.849937 0.822295
1.000001 0.868052 0.845957
1.000001 0.883483 0.865255
1.000001 0.896213 0.880696
1.000001 0.906467 0.892867
1.000001 0.915027 0.902872
1.000001 0.922460 0.911457
1.000001 0.929679 0.919712
0.351517 0.771220 0.114119
0.351724 0.771196 0.114105
0.352012 0.771164 0.114086
0.352410 0.771121 0.114060
0.352939 0.771066 0.114027
0.354216 0.770943 0.113950
0.356889 0.770719 0.113803
0.362597 0.770335 0.113527
0.373936 0.769772 0.113058
0.394453 0.769039 0.112324
0.427879 0.768140 0.111281
0.475261 0.767075 0.110065
0.535039 0.765808 0.109212
0.601245 0.764340 0.110065
0.668206 0.762680 0.115241
0.731095 0.760902 0.129777
0.796312 0.755676 0.175334
0.854072 0.751906 0.273199
0.897035 0.750825 0.380317
0.930197 0.753835 0.478325
0.956214 0.762400 0.566207
0.975899 0.776746 0.640473
0.990319 0.795127 0.700348
1.000001 0.815676 0.749024
1.000001 0.835721 0.787217
1.000001 0.854580 0.818205
1.000001 0.871018 0.842601
1.000001 0.885359 0.862435
1.000001 0.897391 0.878266
1.000001 0.907198 0.890724
1.000001 0.915456 0.900949
1.000001 0.922674 0.909712
1.000001 0.929722 0.918132
0.421918 0.817367 0.176133
0.422023 0.817347 0.176105
0.422169 0.817319 0.176069
0.422372 0.817282 0.176019
0.422643 0.817235 0.175955
0.423305 0.817130 0.175810
0.424719 0.816938 0.175540
0.427837 0.816612 0.175060
0.434302 0.816139 0.174302
0.446665 0.815532 0.173206
0.468298 0.814800 0.171702
0.501734 0.813948 0.169833
0.548029 0.812939 0.167923
0.603898 0.811760 0.167070
0.664418 0.810389 0.169570
0.724132 0.808841 0.179765
0.779066 0.807178 0.206043
0.838005 0.802376 0.269152
0.889659 0.798773 0.368188
0.925207 0.797572 0.461500
0.952677 0.799858 0.549663
0.973332 0.806597 0.626333
0.988421 0.817469 0.688955
0.999638 0.831512 0.740043
1.000001 0.846654 0.780076
1.000001 0.861953 0.812447
1.000001 0.875986 0.837838
1.000001 0.888681 0.858411
1.000001 0.899616 0.874785
1.000001 0.908698 0.887640
1.000001 0.916452 0.898172
1.000001 0.923301 0.907186
1.000001 0.930048 0.915834
0.488944 0.856500 0.271268
0.488991 0.856482 0.271225
0.489058 0.856458 0.271168
0.489151 0.856427 0.271092
0.489278 0.856387 0.270994
0.489593 0.856296 0.270775
0.490292 0.856133 0.270372
0.491907 0.855856 0.269673
0.495436 0.855457 0.268621
0.502560 0.854951 0.267185
0.515797 0.854352 0.265309
0.537792 0.853669 0.262968
0.570964 0.852872 0.260248
0.614768 0.851944 0.257835
0.666273 0.850854 0.257448
0.720530 0.849592 0.262344
0.772855 0.848172 0.277170
0.820464 0.846631 0.306297
0.872588 0.842288 0.363312
0.917875 0.838917 0.451381
0.947862 0.837588 0.534761
0.969952 0.839133 0.611233
0.985947 0.843963 0.675600
0.997788 0.851922 0.728916
1.000001 0.861852 0.770943
1.000001 0.872949 0.804954
1.000001 0.883895 0.831586
1.000001 0.894336 0.853110
1.000001 0.903686 0.870193
1.000001 0.911676 0.883573
1.000001 0.918642 0.894512
1.000001 0.924897 0.903858
1.000001 0.931145 0.912810
0.551237 0.889192 0.367286
0.551253 0.889176 0.367247
0.551276 0.889157 0.367192
0.551309 0.889130 0.367119
0.551355 0.889095 0.367025
0.551478 0.889018 0.366816
0.551776 0.888879 0.366434
0.552537 0.888643 0.365782
0.554356 0.888305 0.364826
0.558299 0.887882 0.363576
0.566073 0.887388 0.362027
0.579808 0.886836 0.360164
0.602080 0.886206 0.357945
0.634053 0.885480 0.355576
0.675028 0.884629 0.353733
0.721670 0.883633 0.354006
0.769502 0.882485 0.359054
0.815005 0.881190 0.372335
0.855678 0.879786 0.396863
0.899840 0.875989 0.444303
0.940823 0.872760 0.525837
0.965407 0.871371 0.598053
0.982751 0.872188 0.661960
0.995441 0.875442 0.716501
1.000001 0.880750 0.760212
1.000001 0.887651 0.795870
1.000001 0.895195 0.823875
1.000001 0.902943 0.846510
1.000001 0.910275 0.864454
1.000001 0.916800 0.878482
1.000001 0.922664 0.889932
1.000001 0.928059 0.899697
1.000001 0.933560 0.909034
0.607021 0.915754 0.449118
0.607020 0.915741 0.449080
0.607019 0.915724 0.449028
0.607020 0.915700 0.448959
0.607023 0.915671 0.448871
0.607042 0.915605 0.448674
0.607122 0.915486 0.448316
0.607413 0.915285 0.447709
0.608271 0.914998 0.446833
0.610370 0.914640 0.445719
0.614828 0.914229 0.444389
0.623176 0.913777 0.442854
0.637550 0.913271 0.441060
0.659690 0.912700 0.439046
0.690409 0.912037 0.437042
0.728293 0.911259 0.435758
0.769994 0.910352 0.436620
0.811947 0.909308 0.441844
0.851006 0.908137 0.454067
0.884819 0.906893 0.474958
0.923044 0.903515 0.516439
0.958879 0.900533 0.590094
0.978540 0.899153 0.650555
0.992489 0.899415 0.704506
1.000001 0.901355 0.748975
1.000001 0.904804 0.785867
1.000001 0.909235 0.815116
1.000001 0.914289 0.838868
1.000001 0.919446 0.857733
1.000001 0.924293 0.872486
1.000001 0.928836 0.884520
1.000001 0.933154 0.894773
1.000001 0.937684 0.904567
0.657525 0.937746 0.521283
0.657515 0.937735 0.521247
0.657502 0.937721 0.521199
0.657485 0.937701 0.521134
0.657466 0.937676 0.521052
0.657429 0.937619 0.520867
0.657389 0.937518 0.520534
0.657417 0.937346 0.519972
0.657727 0.937102 0.519167
0.658746 0.936800 0.518161
0.661196 0.936455 0.516990
0.666114 0.936082 0.515681
0.675070 0.935672 0.514197
0.689713 0.935219 0.512530
0.711493 0.934702 0.510731
0.740495 0.934098 0.509086
0.774924 0.933392 0.508299
0.811912 0.932570 0.509641
0.848174 0.931629 0.514927
0.880759 0.930602 0.525864
0.909400 0.929486 0.544081
0.940847 0.926606 0.578160
0.972257 0.923884 0.643290
0.988463 0.922487 0.694389
0.999475 0.922290 0.738213
1.000001 0.923271 0.775533
1.000001 0.925225 0.805627
1.000001 0.927929 0.830323
1.000001 0.931029 0.850062
1.000001 0.934184 0.865551
1.000001 0.937316 0.878207
1.000001 0.940432 0.888997
1.000001 0.943831 0.899305
0.701585 0.955411 0.583209
0.701571 0.955402 0.583175
0.701552 0.955389 0.583131
0.701526 0.955372 0.583071
0.701495 0.955351 0.582994
0.701430 0.955302 0.582823
0.701329 0.955215 0.582515
0.701218 0.955068 0.581995
0.701229 0.954859 0.581256
0.701639 0.954602 0.580339
0.702920 0.954311 0.579291
0.705767 0.953999 0.578147
0.711274 0.953662 0.576884
0.720759 0.953297 0.575492
0.735703 0.952887 0.573959
0.756972 0.952416 0.572385
0.784091 0.951866 0.571095
0.815297 0.951222 0.570773
0.847741 0.950477 0.572553
0.878253 0.949650 0.577750
0.905974 0.948729 0.587851
0.928180 0.946538 0.599869
0.953921 0.945422 0.629336
0.982452 0.942889 0.687715
0.995622 0.941550 0.729490
1.000001 0.941050 0.766153
1.000001 0.941355 0.796413
1.000001 0.942342 0.821642
1.000001 0.943815 0.842024
1.000001 0.945536 0.858130
1.000001 0.947404 0.871350
1.000001 0.949387 0.882656
1.000001 0.951668 0.893475
0.738652 0.969201 0.634723
0.738636 0.969193 0.634692
0.738614 0.969182 0.634651
0.738585 0.969167 0.634595
0.738549 0.969149 0.634524
0.738471 0.969107 0.634366
0.738341 0.969031 0.634080
0.738161 0.968904 0.633600
0.738013 0.968724 0.632919
0.738089 0.968503 0.632078
0.738707 0.968254 0.631127
0.740343 0.967989 0.630107
0.743751 0.967706 0.629004
0.749922 0.967405 0.627813
0.760117 0.967074 0.626509
0.775433 0.966698 0.625115
0.796195 0.966264 0.623774
0.821666 0.965754 0.622841
0.849778 0.965162 0.622998
0.877565 0.964497 0.625167
0.903797 0.963747 0.630487
0.926711 0.962940 0.639754
0.944279 0.961008 0.649239
0.964705 0.960207 0.672855
0.989570 0.957958 0.722492
1.000001 0.956662 0.758768
1.000001 0.956021 0.788463
1.000001 0.955933 0.813703
1.000001 0.956307 0.834377
1.000001 0.956994 0.850874
1.000001 0.957898 0.864509
1.000001 0.958974 0.876227
1.000001 0.960320 0.887486
0.770172 0.980163 0.678172
0.770155 0.980155 0.678144
0.770133 0.980146 0.678105
0.770103 0.980133 0.678053
0.770065 0.980117 0.677988
0.769982 0.980080 0.677841
0.769840 0.980015 0.677576
0.769626 0.979904 0.677132
0.769396 0.979748 0.676502
0.769284 0.979556 0.675729
0.769516 0.979340 0.674860
0.770424 0.979113 0.673937
0.772533 0.978872 0.672956
0.776569 0.978619 0.671915
0.783529 0.978346 0.670792
0.794463 0.978041 0.669581
0.810066 0.977693 0.668337
0.830326 0.977286 0.667238
0.854007 0.976812 0.666683
0.878648 0.976275 0.667289
0.902908 0.975665 0.669870
0.924798 0.975001 0.675163
0.943186 0.974315 0.683364
0.958462 0.973616 0.694456
0.972565 0.972135 0.708618
0.994439 0.970134 0.749954
1.000001 0.968900 0.782053
1.000001 0.968190 0.806825
1.000001 0.967880 0.827438
1.000001 0.967884 0.844077
1.000001 0.968118 0.857945
1.000001 0.968533 0.869941
1.000001 0.969165 0.881530
0.795986 0.988613 0.713537
0.795969 0.988607 0.713511
0.795947 0.988598 0.713475
0.795917 0.988587 0.713427
0.795879 0.988573 0.713366
0.795796 0.988541 0.713229
0.795650 0.988483 0.712983
0.795424 0.988385 0.712569
0.795153 0.988248 0.711984
0.794941 0.988079 0.711268
0.794953 0.987890 0.710466
0.795431 0.987691 0.709620
0.796753 0.987483 0.708731
0.799456 0.987266 0.707803
0.804311 0.987034 0.706814
0.812228 0.986781 0.705753
0.823999 0.986495 0.704636
0.840016 0.986162 0.703550
0.859699 0.985776 0.702726
0.881188 0.985337 0.702579
0.903251 0.984834 0.703677
0.923842 0.984282 0.706632
0.941580 0.983707 0.711745
0.956589 0.983113 0.719160
0.968614 0.982536 0.728314
0.979490 0.981345 0.738983
0.997471 0.979685 0.770948
1.000001 0.978468 0.801213
1.000001 0.977770 0.821643
1.000001 0.977369 0.838204
1.000001 0.977185 0.852131
1.000001 0.977170 0.864263
1.000001 0.977320 0.876052
0.817759 0.995367 0.743226
0.817743 0.995361 0.743201
0.817721 0.995354 0.743167
0.817692 0.995344 0.743122
0.817655 0.995331 0.743065
0.817573 0.995303 0.742937
0.817428 0.995251 0.742707
0.817199 0.995164 0.742321
0.816911 0.995042 0.741776
0.816644 0.994892 0.741109
0.816525 0.994725 0.740364
0.816737 0.994550 0.739583
0.817557 0.994366 0.738767
0.819388 0.994178 0.737926
0.822827 0.993979 0.737042
0.828625 0.993763 0.736101
0.837546 0.993523 0.735105
0.850169 0.993248 0.734090
0.866372 0.992928 0.733191
0.884857 0.992564 0.732686
0.904626 0.992145 0.732965
0.923723 0.991683 0.734515
0.940621 0.991199 0.737648
0.955206 0.990695 0.742565
0.967062 0.990200 0.748969
0.976858 0.989710 0.756719
0.984804 0.988795 0.764226
0.999282 0.987449 0.787869
1.000001 0.986286 0.815178
1.000001 0.985607 0.833118
1.000001 0.985166 0.846975
1.000001 0.984878 0.859134
1.000001 0.984710 0.871021
0.835507 1.000001 0.767333
0.835492 1.000001 0.767310
0.835470 1.000001 0.767278
0.835442 1.000001 0.767236
0.835406 1.000001 0.767183
0.835327 1.000001 0.767063
0.835186 1.000001 0.766846
0.834959 1.000001 0.766484
0.834665 1.000001 0.765972
0.834369 1.000001 0.765346
0.834175 1.000001 0.764649
0.834224 0.999879 0.763920
