3DLUTS/RED_IPP2CubesSDRCoreV1_13/REC2020/RWG_Log3G10 to REC2020_BT1886 with LOW_CONTRAST and R_3_Soft size_33 v1.13.cube
# RED Digital Cinema Output Transform LUT for IPP2
# LUT Name = RWG_Log3G10 to REC2020_BT1886 with LOW_CONTRAST and R_3_Soft size_33 v1.13
# Generated by version 1.13
# Settings used in creation of this LUT are:
# Development Color Space = REC2020
# Output Gamma Curve = BT1886
# Output Tonemap = LOW_CONTRAST
# Highlight Rolloff = Rolloff 3 - soft
# Resolution = 33 x 33 x 33
TITLE "RED IPP2 LUT to map REDWideGamutRGB/Log3G10 to REC2020/BT1886/LOW_CONTRAST/Rolloff 3 - soft"
LUT_3D_SIZE 9
0.000000 0.000000 0.000000
0.073460 0.003505 0.003505
0.273703 0.023274 0.015653
0.552126 0.086202 0.061315
0.789804 0.229414 0.171832
0.926278 0.492104 0.439040
0.984825 0.727618 0.699221
1.000003 0.868433 0.854561
1.000003 0.943402 0.936820
0.003505 0.091562 0.003505
0.079280 0.089014 0.003505
0.276641 0.080698 0.012129
0.555591 0.117567 0.058345
0.792401 0.244807 0.171649
0.927703 0.499500 0.443251
0.985456 0.731478 0.702936
1.000003 0.870654 0.856927
1.000003 0.944647 0.938171
0.027079 0.324595 0.004909
0.059939 0.323642 0.004945
0.292059 0.318532 0.005161
0.570113 0.308529 0.040248
0.803418 0.359524 0.161672
0.933957 0.545349 0.459865
0.988259 0.750939 0.719604
1.000003 0.881063 0.867700
1.000003 0.950370 0.944332
0.133020 0.613826 0.024467
0.150767 0.613248 0.024497
0.281998 0.609765 0.024318
0.567691 0.603683 0.026555
0.804668 0.591656 0.122105
0.936303 0.642851 0.448351
0.989787 0.776382 0.726753
1.000003 0.889952 0.874481
1.000003 0.954695 0.948627
0.339551 0.812826 0.103411
0.343376 0.812520 0.103238
0.389800 0.810794 0.101871
0.556787 0.807684 0.098974
0.773465 0.802910 0.116803
0.928933 0.793190 0.383409
0.987920 0.825440 0.705049
1.000003 0.897549 0.869052
1.000003 0.955349 0.947250
0.586401 0.922532 0.365436
0.586718 0.922375 0.364786
0.593611 0.921530 0.361141
0.639633 0.920208 0.354501
0.764485 0.918172 0.349094
0.895002 0.914971 0.401552
0.981837 0.908105 0.658546
1.000003 0.923071 0.849535
1.000003 0.957855 0.940520
0.761263 0.974626 0.638926
0.761075 0.974547 0.638450
0.761013 0.974130 0.635936
0.768617 0.973535 0.632248
0.807483 0.972757 0.627407
0.888531 0.971500 0.626355
0.957155 0.969583 0.660579
1.000003 0.965089 0.820156
1.000003 0.971433 0.927585
0.867125 0.997820 0.798923
0.866939 0.997781 0.798610
0.866145 0.997573 0.796979
0.866625 0.997287 0.794744
0.874965 0.996960 0.792200
0.905793 0.996496 0.789266
0.953062 0.995749 0.790638
0.987151 0.994662 0.811668
1.000003 0.991807 0.910069
0.929397 1.000003 0.890930
0.929267 1.000003 0.890732
0.928623 1.000003 0.889698
0.928096 1.000003 0.888310
0.929369 1.000003 0.886852
0.937698 1.000003 0.885221
0.959254 1.000003 0.883723
0.984738 1.000003 0.885661
1.000003 1.000003 0.898310
0.003505 0.003505 0.083310
0.068098 0.003505 0.082895
0.272694 0.017502 0.056118
0.551749 0.081017 0.082716
0.789744 0.226829 0.186406
0.926302 0.491622 0.442672
0.984846 0.727659 0.699835
1.000003 0.868513 0.854728
1.000003 0.943458 0.936893
0.003505 0.073802 0.076676
0.074292 0.074292 0.074292
0.275432 0.064339 0.046815
0.555026 0.110255 0.079451
0.792217 0.242076 0.186510
0.927663 0.498810 0.446732
0.985449 0.731370 0.703393
1.000003 0.870642 0.856993
1.000003 0.944651 0.938187
0.025000 0.320085 0.009614
0.056086 0.320182 0.009232
0.290936 0.314833 0.011098
0.569600 0.305255 0.053284
0.803255 0.357494 0.173854
0.933925 0.544822 0.462845
0.988255 0.750856 0.719982
1.000003 0.881058 0.867758
1.000003 0.950376 0.944348
0.131500 0.612369 0.029314
0.149510 0.612516 0.029117
0.281216 0.608948 0.029327
0.567500 0.602803 0.032278
0.804533 0.590954 0.129650
0.936274 0.642563 0.451124
0.989784 0.776326 0.727085
1.000003 0.889952 0.874536
1.000003 0.954703 0.948644
0.338795 0.812360 0.106855
0.343242 0.812484 0.106823
0.389628 0.810740 0.105734
0.556703 0.807607 0.103121
0.773521 0.802827 0.121766
0.928913 0.793138 0.386410
0.987918 0.825427 0.705402
1.000003 0.897554 0.869108
1.000003 0.955358 0.947268
0.585904 0.922346 0.366557
0.586863 0.922421 0.366830
0.593734 0.921573 0.363342
0.639710 0.920246 0.356923
0.764545 0.918206 0.351689
0.895068 0.915005 0.403778
0.981838 0.908137 0.658978
1.000003 0.923090 0.849600
1.000003 0.957867 0.940539
0.760930 0.974540 0.638684
0.761215 0.974580 0.638919
0.761148 0.974162 0.636428
0.768735 0.973567 0.632774
0.807565 0.972788 0.627972
0.888587 0.971531 0.626936
0.957197 0.969614 0.661078
1.000003 0.965116 0.820257
1.000003 0.971450 0.927608
0.866906 0.997779 0.798643
0.867038 0.997799 0.798803
0.866243 0.997591 0.797174
0.866719 0.997305 0.794944
0.875044 0.996978 0.792407
0.905848 0.996514 0.789479
0.953098 0.995767 0.790849
0.987175 0.994680 0.811856
1.000003 0.991824 0.910111
0.929256 1.000003 0.890733
0.929332 1.000003 0.890836
0.928688 1.000003 0.889802
0.928159 1.000003 0.888416
0.929429 1.000003 0.886958
0.937747 1.000003 0.885329
0.959287 1.000003 0.883832
0.984760 1.000003 0.885767
1.000003 1.000003 0.898406
0.011016 0.004360 0.298339
0.029488 0.004377 0.298636
0.262886 0.004494 0.298045
0.546605 0.046010 0.280766
0.787639 0.199108 0.301825
0.925713 0.483946 0.475335
0.984701 0.726102 0.704100
1.000003 0.868116 0.855133
1.000003 0.943342 0.936892
0.010359 0.008131 0.298550
0.030238 0.008014 0.297950
0.265522 0.008997 0.297216
0.549841 0.064147 0.278923
0.790107 0.215824 0.301881
0.927075 0.491340 0.478742
0.985304 0.729835 0.707511
1.000003 0.870246 0.857372
1.000003 0.944534 0.938180
0.013675 0.274175 0.280541
0.027115 0.279152 0.285255
0.279669 0.279669 0.279669
0.563309 0.273905 0.257968
0.800473 0.335843 0.293247
0.933020 0.537534 0.491870
0.987979 0.748693 0.722753
1.000003 0.880218 0.867541
1.000003 0.950005 0.944044
0.114893 0.599109 0.171846
0.134208 0.599265 0.170828
0.272799 0.599663 0.163146
0.563245 0.590750 0.198509
0.802032 0.582775 0.235379
0.935420 0.638456 0.478536
0.989532 0.774664 0.729394
1.000003 0.889233 0.874297
1.000003 0.954380 0.948370
0.332399 0.808726 0.161682
0.337079 0.808854 0.161381
0.386737 0.809373 0.158952
0.555068 0.805993 0.162050
0.773348 0.801133 0.194199
0.928157 0.791993 0.416669
0.987660 0.824658 0.707893
1.000003 0.897008 0.868873
1.000003 0.955069 0.947003
0.582877 0.921175 0.385083
0.583878 0.921249 0.385248
0.593960 0.921602 0.385797
0.639733 0.920227 0.382112
0.764631 0.918144 0.379054
0.895313 0.914943 0.426702
0.981594 0.908144 0.662373
1.000003 0.922941 0.849386
1.000003 0.957665 0.940260
0.759139 0.974062 0.639339
0.759428 0.974101 0.639553
0.761766 0.974295 0.640589
0.769261 0.973691 0.637348
0.807918 0.972904 0.632998
0.888834 0.971641 0.632201
0.957392 0.969727 0.665510
1.000003 0.965227 0.820415
1.000003 0.971436 0.927308
0.865765 0.997556 0.797529
0.865897 0.997576 0.797683
0.866729 0.997677 0.798454
0.867180 0.997390 0.796293
0.875436 0.997061 0.793835
0.906114 0.996596 0.790982
0.953275 0.995849 0.792355
0.987292 0.994765 0.813164
1.000003 0.991904 0.909986
0.928528 1.000003 0.889783
0.928603 1.000003 0.889884
0.929016 1.000003 0.890392
0.928481 1.000003 0.889018
0.929731 1.000003 0.887576
0.937993 1.000003 0.885963
0.959453 1.000003 0.884478
0.984867 1.000003 0.886398
1.000003 1.000003 0.898970
0.029113 0.006849 0.573608
0.038494 0.006854 0.574223
0.219994 0.006942 0.575808
0.516884 0.008938 0.572985
0.773673 0.104055 0.551810
0.920059 0.437326 0.581157
0.982743 0.711478 0.718038
1.000003 0.861980 0.852937
1.000003 0.940415 0.934379
0.028609 0.009230 0.575790
0.038578 0.009163 0.575584
0.220976 0.009365 0.577128
0.519819 0.012766 0.574297
0.776059 0.115645 0.552867
0.921432 0.445723 0.583288
0.983360 0.715351 0.720902
1.000003 0.864148 0.855084
1.000003 0.941627 0.935665
0.026951 0.147660 0.579300
0.035880 0.146924 0.579121
0.226514 0.144073 0.576565
0.533592 0.160706 0.574535
0.785953 0.251645 0.552865
0.927389 0.498873 0.591352
0.986089 0.735051 0.733752
1.000003 0.874301 0.864845
1.000003 0.947183 0.941522
0.057314 0.550392 0.560484
0.070028 0.550497 0.560370
0.239486 0.550671 0.558351
0.550858 0.550858 0.550858
0.786037 0.545112 0.529422
0.929008 0.613728 0.583272
0.987401 0.762012 0.738503
1.000003 0.882895 0.870588
1.000003 0.951238 0.945404
0.306517 0.795702 0.461266
0.311684 0.795838 0.460934
0.366424 0.796400 0.458307
0.545422 0.796438 0.450518
0.770284 0.791018 0.472338
0.922197 0.784137 0.534300
0.985434 0.818276 0.717935
1.000003 0.891966 0.865022
1.000003 0.952134 0.944002
0.575019 0.917919 0.488722
0.576102 0.917998 0.488647
0.587069 0.918371 0.487986
0.637038 0.918657 0.485405
0.763137 0.916341 0.490694
0.894984 0.913117 0.522852
0.979357 0.906921 0.677059
1.000003 0.920889 0.845368
1.000003 0.955426 0.937013
0.756096 0.973117 0.655787
0.756397 0.973158 0.655924
0.758861 0.973356 0.656563
0.769348 0.973567 0.657022
0.807854 0.972730 0.655075
0.888851 0.971428 0.655713
0.957511 0.969526 0.685184
1.000003 0.965135 0.818343
1.000003 0.970673 0.923714
0.864140 0.997202 0.798947
0.864273 0.997222 0.799083
0.865123 0.997323 0.799761
0.867654 0.997443 0.800547
0.875814 0.997105 0.798551
0.906355 0.996630 0.796151
0.953442 0.995879 0.797654
0.987415 0.994800 0.817612
1.000003 0.991962 0.907268
0.927548 1.000003 0.889119
0.927623 1.000003 0.889216
0.928038 1.000003 0.889700
0.928868 1.000003 0.890294
0.930089 1.000003 0.888944
0.938281 1.000003 0.887429
0.959643 1.000003 0.886025
0.984992 1.000003 0.887932
1.000003 1.000003 0.900288
0.038461 0.008275 0.781248
0.043557 0.008268 0.781799
0.133244 0.008229 0.783682
0.476488 0.009093 0.783445
0.724850 0.019399 0.777365
0.904774 0.271020 0.756104
0.977180 0.662796 0.776050
1.000003 0.843740 0.855112
1.000003 0.932146 0.928986
0.038023 0.009598 0.783392
0.043440 0.009557 0.783369
0.133107 0.009510 0.785232
0.478290 0.010683 0.784950
0.727180 0.022176 0.778999
0.906197 0.281977 0.757676
0.977848 0.667249 0.777907
1.000003 0.846082 0.856957
1.000003 0.933437 0.930259
0.035488 0.040735 0.789855
0.040180 0.040509 0.789855
0.131235 0.039255 0.788848
0.485530 0.041583 0.788840
0.738162 0.063462 0.784540
0.912301 0.359054 0.764228
0.980789 0.690317 0.786446
1.000003 0.857078 0.865427
1.000003 0.939357 0.936070
0.046655 0.426483 0.787272
0.051894 0.426035 0.787285
0.132272 0.423310 0.786683
0.495779 0.420785 0.783294
0.749477 0.439976 0.780573
0.913280 0.535160 0.764431
0.982041 0.724376 0.791074
1.000003 0.866590 0.870634
1.000003 0.943623 0.939875
0.217734 0.759920 0.768524
0.224673 0.760035 0.768593
0.294066 0.760473 0.768511
0.534870 0.756590 0.762020
0.760172 0.760172 0.760172
0.905972 0.755877 0.746459
0.979181 0.796302 0.780165
1.000003 0.877512 0.865323
1.000003 0.944146 0.937723
0.550810 0.908131 0.710445
0.552058 0.908216 0.710383
0.564784 0.908620 0.709874
0.622078 0.908940 0.707947
0.756091 0.908679 0.702934
0.892460 0.905192 0.717582
0.973183 0.900775 0.750439
1.000003 0.914630 0.847093
1.000003 0.949367 0.930259
0.749563 0.970627 0.729968
0.749885 0.970671 0.729972
0.752552 0.970887 0.729938
0.764032 0.971119 0.729532
0.805531 0.971172 0.727854
0.887571 0.969695 0.732473
0.957060 0.967810 0.751465
0.999236 0.964055 0.825546
1.000003 0.968531 0.916472
0.861797 0.996516 0.814716
0.861934 0.996537 0.814798
0.862817 0.996644 0.815200
0.865515 0.996769 0.815631
0.875589 0.996849 0.815724
0.906101 0.996328 0.815201
0.953320 0.995545 0.817370
0.987399 0.994484 0.834150
1.000003 0.991841 0.902743
0.926422 1.000003 0.891625
0.926498 1.000003 0.891706
0.926917 1.000003 0.892113
0.927779 1.000003 0.892608
0.930298 1.000003 0.893006
0.938421 1.000003 0.891952
0.959721 1.000003 0.890939
0.985048 1.000003 0.892873
1.000003 1.000003 0.904419
0.033314 0.006741 0.908248
0.035719 0.006725 0.908625
0.073181 0.006609 0.910042
0.400604 0.006652 0.910258
0.701528 0.009186 0.907643
0.858314 0.039718 0.899152
0.967558 0.535972 0.880279
1.000003 0.805021 0.889037
1.000003 0.917315 0.929474
0.032752 0.007126 0.909748
0.035352 0.007106 0.909772
0.072597 0.006975 0.911175
0.401446 0.007029 0.911366
0.703302 0.010004 0.908711
0.859892 0.042039 0.900359
0.968309 0.542160 0.881448
1.000003 0.807802 0.890258
1.000003 0.918775 0.930580
0.029115 0.016657 0.914837
0.031258 0.016563 0.914876
0.068520 0.016024 0.914494
0.401282 0.016443 0.914540
0.710536 0.024363 0.911844
0.867454 0.066939 0.905408
0.971586 0.575317 0.887050
1.000003 0.820898 0.896069
1.000003 0.925460 0.935702
0.027685 0.170945 0.914311
0.029554 0.170135 0.914350
0.062053 0.164932 0.914050
0.399221 0.158878 0.912203
0.717132 0.175129 0.910894
0.875382 0.287179 0.907116
0.972698 0.630258 0.892287
1.000003 0.832481 0.901063
1.000003 0.930181 0.939369
0.088941 0.686592 0.906499
0.092004 0.686469 0.906558
0.131802 0.685579 0.906622
0.416519 0.683499 0.905558
0.724838 0.682175 0.902470
0.880753 0.694916 0.900202
0.968877 0.745705 0.890490
1.000003 0.848983 0.900750
1.000003 0.930989 0.938231
0.477245 0.886151 0.892203
0.478955 0.886231 0.892272
0.496896 0.886598 0.892530
0.575513 0.886832 0.892219
0.739775 0.886477 0.890036
0.886234 0.886234 0.886234
0.962587 0.883140 0.878479
0.998799 0.899940 0.892070
1.000003 0.938653 0.932193
0.732106 0.963901 0.861800
0.732466 0.963948 0.861805
0.735510 0.964184 0.861789
0.748839 0.964438 0.861501
0.796186 0.964506 0.860170
0.883061 0.964193 0.857181
0.955221 0.962224 0.865162
0.995062 0.959702 0.877060
1.000003 0.964431 0.920375
0.856697 0.994601 0.867938
0.856842 0.994625 0.867953
0.857787 0.994745 0.868010
0.860735 0.994887 0.868000
0.871802 0.994981 0.867654
0.904233 0.994931 0.866463
0.952280 0.994033 0.869883
0.986941 0.993003 0.879736
1.000003 0.990954 0.911030
0.924652 1.000003 0.906077
0.924729 1.000003 0.906122
0.925163 1.000003 0.906342
0.926071 1.000003 0.906599
0.928780 1.000003 0.906762
0.938026 1.000003 0.906647
0.959388 1.000003 0.906899
0.984858 1.000003 0.908978
1.000003 1.000003 0.918010
0.015746 0.004360 0.975328
0.016457 0.004352 0.975555
0.026735 0.004288 0.976498
0.206380 0.004188 0.976407
0.670937 0.004352 0.975349
0.848508 0.007597 0.970836
0.932671 0.080825 0.961583
0.995206 0.726452 0.946472
1.000003 0.891595 0.949578
0.015185 0.004385 0.976239
0.016013 0.004385 0.976266
0.026054 0.004316 0.977199
0.204976 0.004208 0.977093
0.672477 0.004377 0.976023
0.849851 0.007885 0.971477
0.933651 0.083346 0.962315
0.995584 0.730163 0.947204
1.000003 0.893369 0.950320
0.012103 0.005061 0.979778
0.012716 0.005052 0.979811
0.022171 0.004970 0.979746
0.194822 0.004774 0.979547
0.678182 0.005121 0.978382
0.855635 0.013865 0.973556
0.938408 0.105414 0.965637
0.997246 0.747683 0.950829
1.000003 0.901461 0.953890
0.007451 0.052191 0.977608
0.007722 0.051859 0.977646
0.012977 0.049936 0.977624
0.166799 0.046104 0.976060
0.672519 0.049913 0.975093
0.860022 0.078379 0.972576
0.943620 0.226378 0.968022
0.997983 0.763620 0.955110
1.000003 0.906875 0.957368
0.011281 0.563567 0.973304
0.011754 0.562997 0.973334
0.019373 0.559152 0.973284
0.165570 0.549029 0.971968
0.674439 0.543856 0.970206
0.863120 0.564788 0.968783
0.947132 0.629904 0.966338
0.996435 0.792917 0.957557
1.000003 0.907924 0.958921
0.223797 0.849689 0.964743
0.226052 0.849679 0.964789
0.255593 0.849559 0.964960
0.427319 0.849017 0.964793
0.689081 0.847739 0.963633
0.867587 0.847104 0.961366
0.949199 0.853581 0.959934
0.992946 0.873092 0.954814
1.000003 0.920804 0.957666
0.688679 0.951806 0.955696
0.689115 0.951853 0.955740
0.693030 0.952082 0.955941
0.711076 0.952316 0.956053
0.772828 0.952326 0.955576
0.875300 0.951965 0.953924
0.951795 0.951795 0.951795
0.989170 0.949840 0.947683
1.000003 0.955993 0.952233
0.845184 0.990324 0.940374
0.845341 0.990351 0.940390
0.846385 0.990482 0.940459
0.849759 0.990637 0.940486
0.862561 0.990739 0.940258
0.899131 0.990691 0.939280
0.949645 0.990444 0.937603
0.985734 0.989403 0.941553
1.000003 0.988059 0.945234
0.920997 1.000003 0.940889
0.921079 1.000003 0.940902
0.921538 1.000003 0.940963
0.922518 1.000003 0.941018
0.925492 1.000003 0.940986
0.935623 1.000003 0.940671
0.958078 1.000003 0.939884
0.984105 1.000003 0.941986
1.000003 1.000003 0.946907
0.004592 0.003505 1.000003
0.004624 0.003505 1.000003
0.005214 0.003505 1.000003
0.023408 0.003505 1.000003
0.611235 0.003505 1.000003
0.843990 0.003505 1.000003
0.930236 0.006360 0.999566
0.971644 0.165059 0.991288
1.000003 0.847732 0.979793
0.004494 0.003505 1.000003
0.004544 0.003505 1.000003
0.005085 0.003505 1.000003
0.022297 0.003505 1.000003
0.612400 0.003505 1.000003
0.845388 0.003505 1.000003
0.931129 0.006434 0.999919
0.972236 0.169005 0.991698
1.000003 0.850037 0.980233
0.004079 0.003505 1.000003
0.004092 0.003505 1.000003
0.004509 0.003505 1.000003
0.016778 0.003505 1.000003
0.615832 0.003505 1.000003
0.851535 0.003505 1.000003
0.935111 0.008372 1.000003
0.975130 0.198124 0.993622
1.000003 0.860474 0.982427
0.003663 0.003990 1.000003
0.003721 0.003990 1.000003
0.003793 0.003917 1.000003
0.009356 0.003850 1.000003
0.600317 0.003793 1.000003
0.852170 0.004377 1.000003
0.937593 0.047759 1.000003
0.978409 0.313112 0.995381
1.000003 0.866834 0.985189
0.003505 0.255265 1.000003
0.003505 0.253943 1.000003
0.003505 0.246241 1.000003
0.004571 0.228779 1.000003
0.549156 0.202986 1.000003
0.842481 0.227429 0.999548
0.939336 0.370185 0.997937
0.980770 0.608238 0.995391
1.000003 0.868331 0.987585
0.004711 0.805762 0.998629
0.004746 0.805619 0.998649
0.005422 0.804558 0.998655
0.037058 0.800510 0.997867
0.565727 0.795120 0.996469
0.844880 0.793331 0.995145
0.940425 0.802411 0.994125
0.982005 0.826211 0.992805
1.000003 0.891535 0.988234
0.554894 0.934800 0.991590
0.555436 0.934813 0.991617
0.562207 0.934867 0.991740
0.599333 0.934839 0.991799
0.710255 0.934486 0.991488
0.852673 0.933720 0.990510
0.942743 0.933445 0.989083
0.982704 0.936388 0.988298
1.000003 0.943090 0.985696
0.820794 0.983985 0.986409
0.820967 0.984012 0.986434
0.822184 0.984145 0.986555
0.826493 0.984298 0.986677
0.843232 0.984386 0.986642
0.888671 0.984298 0.986145
0.946162 0.984032 0.985053
0.983940 0.983940 0.983940
1.000003 0.982817 0.981782
0.913977 1.000003 0.978500
0.914064 1.000003 0.978513
0.914557 1.000003 0.978575
0.915646 1.000003 0.978639
0.919052 1.000003 0.978638
0.930632 1.000003 0.978414
0.955535 1.000003 0.977736
0.982660 1.000003 0.976843
1.000003 1.000003 0.978824
0.003505 0.003505 1.000003
0.003505 0.003505 1.000003
0.003505 0.003505 1.000003
0.003663 0.003505 1.000003
0.107012 0.003505 1.000003
0.845606 0.003505 1.000003
0.938065 0.003505 1.000003
0.972254 0.005907 1.000003
0.992391 0.367987 1.000003
0.003505 0.003505 1.000003
0.003505 0.003505 1.000003
0.003505 0.003505 1.000003
0.003663 0.003505 1.000003
0.100707 0.003505 1.000003
0.847271 0.003505 1.000003
0.939101 0.003505 1.000003
0.972824 0.005888 1.000003
0.992745 0.377207 1.000003
0.003505 0.003505 1.000003
0.003505 0.003505 1.000003
0.003505 0.003505 1.000003
0.003505 0.003505 1.000003
0.071960 0.003505 1.000003
0.854902 0.003505 1.000003
0.943915 0.003505 1.000003
0.975399 0.006546 1.000003
0.994474 0.427666 1.000003
0.003505 0.003505 1.000003
0.003505 0.003505 1.000003
0.003505 0.003505 1.000003
0.003505 0.003505 1.000003
0.041097 0.003505 1.000003
0.858230 0.003505 1.000003
0.946891 0.003505 1.000003
0.976759 0.032244 1.000003
0.996469 0.516225 1.000003
0.003505 0.005188 1.000003
0.003505 0.005116 1.000003
0.003505 0.004774 1.000003
0.003505 0.004410 1.000003
0.012558 0.004037 1.000003
0.825842 0.004334 1.000003
0.933916 0.037274 1.000003
0.977593 0.206598 1.000003
0.998008 0.656831 1.000003
0.003505 0.743633 1.000003
0.003505 0.743268 1.000003
0.003505 0.740941 1.000003
0.003505 0.734341 1.000003
0.006403 0.708100 1.000003
0.803118 0.691156 1.000003
0.930774 0.707572 1.000003
0.977974 0.750839 1.000003
0.998866 0.816667 1.000003
0.004571 0.918131 1.000003
0.004564 0.918107 1.000003
0.004830 0.917851 1.000003
0.016753 0.916405 1.000003
0.413552 0.913448 1.000003
0.811433 0.911584 1.000003
0.932433 0.910959 1.000003
0.978273 0.914806 1.000003
0.999174 0.923931 1.000003
0.753750 0.975762 1.000003
0.753869 0.975775 1.000003
0.755157 0.975839 1.000003
0.762239 0.975896 1.000003
0.791875 0.975858 1.000003
0.862133 0.975586 1.000003
0.935912 0.975143 1.000003
0.979451 0.975031 1.000003
0.999394 0.976424 1.000003
0.900210 1.000003 1.000003
0.900303 1.000003 1.000003
0.900843 1.000003 1.000003
0.902140 1.000003 1.000003
0.906476 1.000003 1.000003
0.921150 1.000003 1.000003
0.950920 1.000003 1.000003
0.981026 1.000003 1.000003
1.000003 1.000003 1.000003
