3DLUTS/RED_IPP2CubesSDRCoreV1_13/REC2020/RWG_Log3G10 to REC2020_BT1886 with LOW_CONTRAST and R_2_Medium size_33 v1.13.cube
# RED Digital Cinema Output Transform LUT for IPP2
# LUT Name = RWG_Log3G10 to REC2020_BT1886 with LOW_CONTRAST and R_2_Medium size_33 v1.13
# Generated by version 1.13
# Settings used in creation of this LUT are:
# Development Color Space = REC2020
# Output Gamma Curve = BT1886
# Output Tonemap = LOW_CONTRAST
# Highlight Rolloff = Rolloff 2 - medium
# Resolution = 33 x 33 x 33
TITLE "RED IPP2 LUT to map REDWideGamutRGB/Log3G10 to REC2020/BT1886/LOW_CONTRAST/Rolloff 2 - medium"
LUT_3D_SIZE 5
0.000000 0.000000 0.000000
0.273703 0.023274 0.015653
0.850614 0.229414 0.171832
0.993850 0.789036 0.759008
1.000003 0.971796 0.967749
0.027079 0.324595 0.004909
0.292059 0.318532 0.005161
0.863261 0.359524 0.161672
0.995358 0.812831 0.780676
1.000003 0.975935 0.972357
0.339551 0.871812 0.103411
0.390364 0.869979 0.101871
0.835025 0.862795 0.116803
0.995211 0.883029 0.765262
1.000003 0.978796 0.974100
0.823102 0.989042 0.691756
0.822855 0.988796 0.688308
0.866975 0.988111 0.678416
0.979814 0.986498 0.716423
1.000003 0.987444 0.961858
0.963033 1.000003 0.936260
0.962532 1.000003 0.935342
0.963015 1.000003 0.933210
0.980982 1.000003 0.930846
1.000003 1.000003 0.941680
0.011016 0.004360 0.298339
0.262886 0.004494 0.298045
0.848575 0.199108 0.301825
0.993795 0.787462 0.764247
1.000003 0.971759 0.967794
0.013675 0.274175 0.280541
0.279669 0.279669 0.279669
0.860552 0.335843 0.293247
0.995237 0.810574 0.783972
1.000003 0.975721 0.972184
0.332399 0.868105 0.161682
0.387153 0.868692 0.158952
0.834913 0.861160 0.194199
0.995099 0.882342 0.768297
1.000003 0.978637 0.973954
0.821002 0.988763 0.692233
0.823598 0.988878 0.693671
0.867371 0.988185 0.684909
0.979946 0.986573 0.721962
1.000003 0.987445 0.961678
0.962470 1.000003 0.935406
0.962786 1.000003 0.935860
0.963248 1.000003 0.933754
0.981091 1.000003 0.931418
1.000003 1.000003 0.942159
0.038461 0.008275 0.842506
0.133244 0.008229 0.844826
0.786159 0.019399 0.838787
0.990290 0.718917 0.837521
1.000003 0.964798 0.962767
0.035488 0.040735 0.850663
0.131235 0.039255 0.849715
0.799894 0.063462 0.845640
0.992005 0.749366 0.847447
1.000003 0.969324 0.967280
0.217734 0.821775 0.830226
0.294066 0.822322 0.830213
0.822024 0.822024 0.822024
0.991248 0.856690 0.841471
1.000003 0.972245 0.968312
0.811449 0.987033 0.791470
0.814446 0.987166 0.791439
0.865196 0.987311 0.789281
0.979760 0.985580 0.813358
1.000003 0.985955 0.954458
0.961099 1.000003 0.936775
0.961423 1.000003 0.937137
0.963614 1.000003 0.937797
0.981239 1.000003 0.936266
1.000003 1.000003 0.946069
0.015746 0.004360 0.989388
0.026735 0.004288 0.989959
0.728023 0.004352 0.989398
0.965132 0.080825 0.982260
1.000003 0.936753 0.975472
0.012103 0.005061 0.991530
0.022171 0.004970 0.991515
0.736058 0.005121 0.990867
0.968738 0.105414 0.984438
1.000003 0.943955 0.977966
0.011281 0.601984 0.988385
0.019373 0.596557 0.988375
0.731916 0.577627 0.986818
0.974030 0.681321 0.984808
1.000003 0.948546 0.980797
0.747581 0.976768 0.978993
0.752315 0.976928 0.979131
0.834409 0.977069 0.978925
0.976762 0.976762 0.976762
1.000003 0.979160 0.977015
0.957511 1.000003 0.970266
0.957872 1.000003 0.970311
0.960490 1.000003 0.970326
0.980329 1.000003 0.969649
1.000003 1.000003 0.973897
0.003505 0.003505 1.000003
0.003505 0.003505 1.000003
0.107012 0.003505 1.000003
0.968524 0.003505 1.000003
0.997087 0.367987 1.000003
0.003505 0.003505 1.000003
0.003505 0.003505 1.000003
0.071960 0.003505 1.000003
0.972106 0.003505 1.000003
0.997922 0.432091 1.000003
0.003505 0.005188 1.000003
0.003505 0.004774 1.000003
0.012558 0.004037 1.000003
0.965923 0.037274 1.000003
0.999276 0.712192 1.000003
0.004571 0.955583 1.000003
0.004830 0.955393 1.000003
0.416077 0.952388 1.000003
0.964981 0.950666 1.000003
0.999704 0.959462 1.000003
0.943055 1.000003 1.000003
0.943511 1.000003 1.000003
0.947526 1.000003 1.000003
0.976255 1.000003 1.000003
1.000003 1.000003 1.000003
