3DLUTS/RED_IPP2CubesSDRCoreV1_13/REC2020/RWG_Log3G10 to REC2020_BT1886 with NO_CONTRAST and R_2_Medium size_33 v1.13.cube
# RED Digital Cinema Output Transform LUT for IPP2
# LUT Name = RWG_Log3G10 to REC2020_BT1886 with NO_CONTRAST and R_2_Medium size_33 v1.13
# Generated by version 1.13
# Settings used in creation of this LUT are:
# Development Color Space = REC2020
# Output Gamma Curve = BT1886
# Output Tonemap = NO_CONTRAST
# Highlight Rolloff = Rolloff 2 - medium
# Resolution = 33 x 33 x 33
TITLE "RED IPP2 LUT to map REDWideGamutRGB/Log3G10 to REC2020/BT1886/NO_CONTRAST/Rolloff 2 - medium"
LUT_3D_SIZE 5
0.000000 0.000000 0.000000
0.306808 0.005674 0.004617
0.801721 0.150924 0.107458
0.984668 0.687590 0.642498
1.000003 0.969049 0.964645
0.012327 0.386745 0.003825
0.340624 0.377220 0.003825
0.828078 0.384155 0.098333
0.989003 0.746456 0.690389
1.000003 0.976494 0.972954
0.279904 0.843048 0.071231
0.380108 0.839318 0.068847
0.800686 0.832253 0.078147
0.988577 0.846451 0.663191
1.000003 0.978731 0.974441
0.765383 0.981395 0.587830
0.767025 0.980785 0.580353
0.829024 0.979948 0.569345
0.968972 0.977883 0.618053
1.000003 0.983958 0.965367
0.963170 1.000003 0.936486
0.962308 1.000003 0.934907
0.962510 1.000003 0.933175
0.975533 1.000003 0.930912
1.000003 1.000003 0.941455
0.004472 0.003505 0.338223
0.293353 0.003663 0.340927
0.797780 0.103730 0.328063
0.984537 0.682635 0.664808
1.000003 0.969082 0.964838
0.004298 0.323368 0.332682
0.324299 0.324299 0.324299
0.822791 0.346186 0.312184
0.988692 0.740958 0.704764
1.000003 0.976210 0.972736
0.265916 0.834747 0.187467
0.373540 0.835950 0.179194
0.800207 0.828292 0.214134
0.988279 0.844759 0.677463
1.000003 0.978508 0.974252
0.760698 0.980669 0.594673
0.768382 0.980956 0.597227
0.829702 0.980096 0.589167
0.969272 0.978029 0.634861
1.000003 0.983916 0.965137
0.962199 1.000003 0.935015
0.962748 1.000003 0.935802
0.962924 1.000003 0.934103
0.975770 1.000003 0.931884
1.000003 1.000003 0.940977
0.027376 0.006164 0.798726
0.209860 0.006180 0.803923
0.738442 0.011142 0.798314
0.979605 0.591015 0.789194
1.000003 0.963304 0.960515
0.026013 0.078392 0.817028
0.213286 0.073918 0.815632
0.765653 0.102755 0.812062
0.984311 0.668012 0.807990
1.000003 0.971214 0.968627
0.150870 0.785541 0.795076
0.301309 0.786597 0.794874
0.786313 0.786313 0.786313
0.983126 0.815925 0.797596
1.000003 0.973364 0.969558
0.748773 0.978300 0.736702
0.757557 0.978626 0.736223
0.826377 0.978763 0.732931
0.968917 0.976534 0.761217
1.000003 0.981785 0.959228
0.961099 1.000003 0.935773
0.961657 1.000003 0.936441
0.963247 1.000003 0.937025
0.975934 1.000003 0.935362
1.000003 1.000003 0.945144
0.021732 0.004985 0.976463
0.055245 0.004841 0.977968
0.677318 0.005028 0.977428
0.947313 0.056221 0.969824
1.000003 0.940853 0.967584
0.015884 0.009553 0.981923
0.045125 0.008875 0.981897
0.692172 0.010159 0.981158
0.955675 0.095848 0.975072
1.000003 0.952353 0.973058
0.019206 0.558062 0.978860
0.049177 0.548177 0.978833
0.693219 0.534905 0.977237
0.961253 0.628238 0.974959
1.000003 0.955353 0.975105
0.667516 0.964881 0.967803
0.681552 0.965256 0.968118
0.790452 0.965365 0.967753
0.965017 0.965017 0.965017
1.000003 0.973714 0.970685
0.958456 1.000003 0.960781
0.959061 1.000003 0.960918
0.960900 1.000003 0.960988
0.975266 1.000003 0.960530
1.000003 1.000003 0.966395
0.003505 0.003505 1.000003
0.003505 0.003505 1.000003
0.028333 0.003505 1.000003
0.949801 0.003505 1.000003
0.996588 0.339917 1.000003
0.003505 0.003505 1.000003
0.003505 0.003505 1.000003
0.011714 0.003505 1.000003
0.958342 0.003505 1.000003
0.998065 0.446881 1.000003
0.003505 0.003505 1.000003
0.003505 0.003505 1.000003
0.004104 0.003505 1.000003
0.953274 0.003663 1.000003
0.999179 0.674917 1.000003
0.003505 0.927755 1.000003
0.003505 0.926966 1.000003
0.017406 0.919802 1.000003
0.943019 0.914132 1.000003
0.999676 0.936726 1.000003
0.942834 1.000003 1.000003
0.943618 1.000003 1.000003
0.946546 1.000003 1.000003
0.968869 1.000003 1.000003
1.000003 1.000003 1.000003
