3DLUTS/RED_IPP2CubesSDRCoreV1_13/REC2020/RWG_Log3G10 to REC2020_BT1886 with MEDIUM_CONTRAST and R_4_VerySoft size_33 v1.13.cube
# RED Digital Cinema Output Transform LUT for IPP2
# LUT Name = RWG_Log3G10 to REC2020_BT1886 with MEDIUM_CONTRAST and R_4_VerySoft size_33 v1.13
# Generated by version 1.13
# Settings used in creation of this LUT are:
# Development Color Space = REC2020
# Output Gamma Curve = BT1886
# Output Tonemap = MEDIUM_CONTRAST
# Highlight Rolloff = Rolloff 4 - very soft
# Resolution = 33 x 33 x 33
TITLE "RED IPP2 LUT to map REDWideGamutRGB/Log3G10 to REC2020/BT1886/MEDIUM_CONTRAST/Rolloff 4 - very soft"
LUT_3D_SIZE 33
0.000000 0.000000 0.000000
0.000000 0.000000 0.000000
0.000004 0.000000 0.000000
0.014493 0.003505 0.003505
0.057505 0.003505 0.003505
0.096039 0.003505 0.003505
0.138706 0.004617 0.004104
0.188202 0.010319 0.007104
0.244448 0.021325 0.014346
0.307402 0.034005 0.023424
0.370763 0.048039 0.033582
0.435937 0.064612 0.045647
0.504744 0.085751 0.061067
0.568149 0.110665 0.079185
0.628159 0.142424 0.102058
0.684103 0.182875 0.131936
0.735404 0.229659 0.172372
0.782004 0.284498 0.226507
0.823592 0.344152 0.289178
0.859547 0.403943 0.354235
0.891118 0.464280 0.419719
0.917962 0.522774 0.483132
0.940141 0.577351 0.542250
0.958823 0.628867 0.598004
0.973974 0.675378 0.648294
0.986596 0.718291 0.694645
0.996745 0.756345 0.735706
1.000001 0.790945 0.773000
1.000001 0.821721 0.806140
1.000001 0.848596 0.835050
1.000001 0.872798 0.861061
1.000001 0.894100 0.883937
1.000001 0.913589 0.904848
0.000000 0.000000 0.000000
0.000000 0.000000 0.000000
0.000005 0.000000 0.000000
0.018996 0.003505 0.003505
0.058341 0.003505 0.003505
0.096494 0.003663 0.003505
0.139032 0.005798 0.004051
0.188481 0.013574 0.006875
0.244721 0.024800 0.013946
0.307675 0.037353 0.023011
0.371028 0.051160 0.033187
0.436232 0.067465 0.045297
0.505032 0.088342 0.060768
0.568433 0.113058 0.078941
0.628437 0.144687 0.101877
0.684371 0.184685 0.131829
0.735659 0.231075 0.172358
0.782241 0.285651 0.226623
0.823809 0.345037 0.289410
0.859743 0.404649 0.354532
0.891292 0.464864 0.420054
0.918114 0.523272 0.483484
0.940273 0.577788 0.542605
0.958937 0.629257 0.598352
0.974071 0.675730 0.648627
0.986679 0.718610 0.694960
0.996815 0.756636 0.736000
1.000001 0.791209 0.773273
1.000001 0.821961 0.806390
1.000001 0.848813 0.835279
1.000001 0.872995 0.861269
1.000001 0.894277 0.884125
1.000001 0.913748 0.905017
0.000000 0.000025 0.000000
0.000000 0.000023 0.000000
0.000007 0.000020 0.000000
0.023374 0.003505 0.003505
0.059440 0.003505 0.003505
0.097101 0.004899 0.003505
0.139468 0.010107 0.003972
0.188853 0.019532 0.006582
0.245085 0.030409 0.013412
0.308041 0.042448 0.022452
0.371384 0.055720 0.032656
0.436628 0.071549 0.044825
0.505416 0.092003 0.060361
0.568813 0.116412 0.078608
0.628809 0.147841 0.101628
0.684730 0.187141 0.131678
0.736000 0.233003 0.172333
0.782559 0.287219 0.226775
0.824100 0.346237 0.289719
0.860006 0.405607 0.354928
0.891525 0.465653 0.420502
0.918319 0.523945 0.483956
0.940450 0.578377 0.543081
0.959089 0.629782 0.598818
0.974201 0.676204 0.649075
0.986790 0.719039 0.695383
0.996909 0.757026 0.736395
1.000001 0.791564 0.773638
1.000001 0.822283 0.806726
1.000001 0.849105 0.835586
1.000001 0.873258 0.861549
1.000001 0.894515 0.884378
1.000001 0.913961 0.905245
0.003505 0.042620 0.003505
0.003505 0.042177 0.003505
0.003505 0.041571 0.003505
0.027842 0.040748 0.003505
0.060854 0.037272 0.003505
0.097896 0.029385 0.003505
0.140040 0.026109 0.003897
0.189343 0.031380 0.006225
0.245565 0.039898 0.012707
0.308523 0.050354 0.021715
0.371854 0.062476 0.031952
0.437150 0.077436 0.044195
0.505924 0.097186 0.059816
0.569314 0.121111 0.078159
0.629299 0.152192 0.101289
0.685204 0.190430 0.131468
0.736449 0.235599 0.172289
0.782978 0.289323 0.226967
0.824484 0.347848 0.290122
0.860352 0.406889 0.355449
0.891832 0.466707 0.421092
0.918588 0.524840 0.484579
0.940684 0.579161 0.543709
0.959290 0.630479 0.599434
0.974374 0.676832 0.649665
0.986936 0.719608 0.695940
0.997032 0.757543 0.736917
1.000001 0.792033 0.774121
1.000001 0.822709 0.807170
1.000001 0.849492 0.835992
1.000001 0.873608 0.861917
1.000001 0.894830 0.884711
1.000001 0.914243 0.905545
0.003505 0.073106 0.003505
0.003505 0.072888 0.003505
0.003505 0.072592 0.003505
0.016822 0.072198 0.003505
0.062900 0.071610 0.003505
0.099069 0.068073 0.003505
0.140888 0.063733 0.003761
0.190068 0.060216 0.005760
0.246276 0.059720 0.011694
0.309237 0.065081 0.020634
0.372550 0.074302 0.030908
0.437923 0.087344 0.043251
0.506673 0.105686 0.058992
0.570053 0.128696 0.077474
0.630023 0.158707 0.100764
0.685903 0.195407 0.131135
0.737114 0.239554 0.172201
0.783597 0.292515 0.227234
0.825052 0.350289 0.290706
0.860865 0.408825 0.356212
0.892287 0.468293 0.421963
0.918986 0.526183 0.485500
0.941030 0.580332 0.544639
0.959588 0.631518 0.600345
0.974628 0.677767 0.650541
0.987152 0.720452 0.696767
0.997215 0.758311 0.737690
1.000001 0.792729 0.774836
1.000001 0.823340 0.807827
1.000001 0.850065 0.836593
1.000001 0.874125 0.862464
1.000001 0.895297 0.885206
1.000001 0.914661 0.905989
0.003663 0.113141 0.003505
0.003825 0.113007 0.003505
0.004774 0.112824 0.003505
0.013363 0.112582 0.003505
0.055841 0.112221 0.003505
0.101775 0.111414 0.003505
0.142844 0.107882 0.003663
0.191732 0.104842 0.004960
0.247900 0.103337 0.009577
0.310857 0.104013 0.018255
0.374125 0.107467 0.028540
0.439667 0.115000 0.041069
0.508355 0.128547 0.057051
0.571713 0.147711 0.075830
0.631649 0.173673 0.099473
0.687475 0.207167 0.130271
0.738608 0.249020 0.171890
0.784993 0.300088 0.227750
0.826331 0.356070 0.291969
0.862020 0.413385 0.357905
0.893313 0.472000 0.423911
0.919885 0.529299 0.487569
0.941812 0.583032 0.546735
0.960260 0.633900 0.602403
0.975204 0.679902 0.652519
0.987640 0.722377 0.698637
0.997628 0.760056 0.739439
1.000001 0.794310 0.776455
1.000001 0.824773 0.809314
1.000001 0.851362 0.837953
1.000001 0.875297 0.863700
1.000001 0.896353 0.886325
1.000001 0.915607 0.906994
0.005179 0.161027 0.003505
0.006177 0.160925 0.003505
0.008819 0.160786 0.003505
0.016837 0.160601 0.003505
0.043114 0.160324 0.003505
0.095295 0.159698 0.003505
0.146233 0.158690 0.003663
0.194568 0.154823 0.004176
0.250623 0.152228 0.007091
0.313534 0.151277 0.014608
0.376716 0.152311 0.024690
0.442511 0.156283 0.037375
0.511065 0.164867 0.053644
0.574383 0.178667 0.072844
0.634268 0.199349 0.097019
0.690012 0.228195 0.128486
0.741025 0.266316 0.170993
0.787254 0.313685 0.228282
0.828407 0.366428 0.293824
0.863897 0.421478 0.360546
0.894981 0.478488 0.427022
0.921349 0.534674 0.490913
0.943085 0.587629 0.550143
0.961355 0.637915 0.605760
0.976141 0.683471 0.655751
0.988436 0.725577 0.701697
0.998302 0.762944 0.742302
1.000001 0.796921 0.779106
1.000001 0.827133 0.811750
1.000001 0.853498 0.840182
1.000001 0.877224 0.865726
1.000001 0.898088 0.888159
1.000001 0.917159 0.908640
0.011420 0.219005 0.003897
0.013623 0.218914 0.003897
0.017307 0.218791 0.003897
0.023849 0.218627 0.003917
0.038477 0.218381 0.003917
0.087666 0.217817 0.003917
0.139525 0.216878 0.003955
0.198790 0.215615 0.004006
0.254541 0.211200 0.005214
0.317269 0.208461 0.010262
0.380278 0.207467 0.019638
0.446325 0.208771 0.032189
0.514619 0.213532 0.048574
0.577872 0.222647 0.068162
0.637693 0.237942 0.092921
0.693341 0.261244 0.125189
0.744212 0.293959 0.168810
0.790248 0.335002 0.228163
0.831167 0.382675 0.295754
0.866400 0.434019 0.363756
0.897212 0.488344 0.431012
0.923309 0.542652 0.495307
0.944792 0.594307 0.554677
0.962825 0.643642 0.610260
0.977400 0.688493 0.660103
0.989505 0.730031 0.705827
0.999207 0.766935 0.746173
1.000001 0.800508 0.782694
1.000001 0.830363 0.815050
1.000001 0.856414 0.843202
1.000001 0.879849 0.868471
1.000001 0.900449 0.890644
1.000001 0.919269 0.910872
0.023099 0.287132 0.004624
0.025402 0.287044 0.004631
0.028912 0.286926 0.004637
0.034408 0.286769 0.004643
0.044826 0.286533 0.004656
0.082234 0.285987 0.004681
0.133773 0.285057 0.004722
0.191606 0.283739 0.004780
0.259559 0.282235 0.004873
0.321775 0.277027 0.006906
0.384442 0.273753 0.014422
0.450525 0.272578 0.026268
0.518352 0.274140 0.042302
0.581497 0.279270 0.061960
0.641255 0.289464 0.087066
0.696827 0.306296 0.119955
0.747578 0.330991 0.164561
0.793438 0.364144 0.226294
0.834133 0.405042 0.296675
0.869108 0.451120 0.366539
0.899640 0.501479 0.434956
0.925453 0.552971 0.499894
0.946664 0.602685 0.559543
0.964442 0.650627 0.615165
0.978788 0.694481 0.664893
0.990685 0.735251 0.710401
1.000001 0.771553 0.750477
1.000001 0.804621 0.786694
1.000001 0.834044 0.818736
1.000001 0.859721 0.846579
1.000001 0.882817 0.871545
1.000001 0.903113 0.893428
1.000001 0.921646 0.913373
0.039159 0.359245 0.006103
0.041351 0.359170 0.006113
0.044553 0.359068 0.006119
0.049291 0.358933 0.006131
0.057581 0.358729 0.006143
0.084114 0.358256 0.006177
0.131654 0.357439 0.006225
0.186531 0.356243 0.006293
0.251522 0.354778 0.006388
0.325770 0.351378 0.007804
0.388998 0.347884 0.010000
0.454568 0.344473 0.020530
0.521592 0.343138 0.035579
0.584536 0.344409 0.054748
0.644232 0.349345 0.079666
0.699778 0.359406 0.112636
0.750482 0.376128 0.157641
0.796248 0.400802 0.221395
0.836793 0.433656 0.295304
0.871577 0.472973 0.367730
0.901882 0.517954 0.437798
0.927453 0.565506 0.503714
0.948427 0.612479 0.563866
0.965974 0.658482 0.619682
0.980111 0.700992 0.669396
0.991815 0.740771 0.714759
1.000001 0.776338 0.754615
1.000001 0.808816 0.790565
1.000001 0.837759 0.822318
1.000001 0.863035 0.849874
1.000001 0.885777 0.874550
1.000001 0.905760 0.896157
1.000001 0.924004 0.915829
0.060786 0.429911 0.009216
0.062808 0.429846 0.009226
0.065699 0.429758 0.009236
0.069854 0.429641 0.009250
0.076824 0.429465 0.009268
0.097236 0.429053 0.009310
0.136278 0.428339 0.009369
0.185766 0.427276 0.009437
0.246414 0.425925 0.009520
0.318651 0.424387 0.009692
0.394064 0.422817 0.010178
0.457393 0.417483 0.015633
0.523769 0.413912 0.029257
0.586308 0.412315 0.047287
0.645911 0.413296 0.071289
0.701502 0.417955 0.103496
0.752283 0.427740 0.147869
0.798099 0.444240 0.212113
0.838642 0.468495 0.290212
0.873369 0.499882 0.366035
0.903569 0.538080 0.438384
0.929003 0.580407 0.505750
0.949824 0.623656 0.566749
0.967210 0.667021 0.623019
0.981192 0.707738 0.672911
0.992749 0.746248 0.718279
1.000001 0.780924 0.758032
1.000001 0.812732 0.793811
1.000001 0.841160 0.825357
1.000001 0.866030 0.852692
1.000001 0.888427 0.877139
1.000001 0.908118 0.898520
1.000001 0.926096 0.917965
0.089416 0.496653 0.015038
0.091266 0.496597 0.015045
0.093881 0.496521 0.015055
0.097585 0.496419 0.015067
0.103661 0.496265 0.015084
0.120426 0.495908 0.015118
0.149801 0.495285 0.015161
0.191655 0.494352 0.015193
0.246206 0.493147 0.015208
0.313561 0.491723 0.015269
0.385901 0.490155 0.015556
0.458091 0.488596 0.016438
0.521784 0.483308 0.023604
0.586132 0.479653 0.040554
0.645562 0.477837 0.062930
0.701259 0.478545 0.093414
0.752277 0.482895 0.135851
0.798352 0.492382 0.197858
0.839118 0.508457 0.279981
0.874001 0.531499 0.360077
0.904294 0.561892 0.435428
0.929762 0.597775 0.504845
0.950572 0.636219 0.567171
0.967918 0.676108 0.624278
0.981843 0.714474 0.674649
0.993333 0.751366 0.720269
1.000001 0.784960 0.760118
1.000001 0.816008 0.795896
1.000001 0.843896 0.827379
1.000001 0.868374 0.854616
1.000001 0.890464 0.878942
1.000001 0.909908 0.900192
1.000001 0.927674 0.919498
0.128057 0.559327 0.023435
0.129766 0.559278 0.023440
0.132159 0.559211 0.023446
0.135392 0.559122 0.023454
0.140294 0.558988 0.023465
0.151923 0.558677 0.023485
0.172871 0.558135 0.023500
0.206144 0.557323 0.023485
0.252968 0.556269 0.023421
0.313466 0.555002 0.023346
0.380905 0.553557 0.023412
0.450146 0.552013 0.023939
0.518926 0.550457 0.025518
0.579735 0.545340 0.034266
0.643047 0.541610 0.055747
0.699325 0.539624 0.084016
0.750718 0.540073 0.123486
0.797128 0.544097 0.181380
0.838202 0.553124 0.264521
0.873392 0.568165 0.349313
0.903953 0.590261 0.428289
0.929627 0.618643 0.500376
0.950580 0.651086 0.564578
0.968019 0.686431 0.622996
0.981997 0.721654 0.674225
0.993514 0.756384 0.720407
1.000001 0.788569 0.760602
1.000001 0.818676 0.796589
1.000001 0.845944 0.828185
1.000001 0.870011 0.855472
1.000001 0.891812 0.879809
1.000001 0.911051 0.901042
1.000001 0.928658 0.920313
0.174418 0.616748 0.035088
0.175493 0.616705 0.035090
0.176971 0.616646 0.035092
0.178986 0.616568 0.035095
0.182106 0.616451 0.035098
0.189808 0.616177 0.035098
0.204605 0.615704 0.035080
0.229999 0.614999 0.035012
0.268439 0.614084 0.034864
0.320188 0.612981 0.034651
0.380651 0.611702 0.034489
0.445295 0.610289 0.034653
0.511358 0.608771 0.035648
0.575339 0.607247 0.038324
0.633736 0.602316 0.049411
0.695363 0.598583 0.076814
0.747671 0.596499 0.112960
0.794727 0.596757 0.165917
0.836343 0.600497 0.246370
0.871966 0.608874 0.335143
0.902898 0.623244 0.417897
0.928878 0.643844 0.493003
0.950067 0.669450 0.559493
0.967690 0.699222 0.619631
0.981799 0.730380 0.672069
0.993408 0.762222 0.719104
1.000001 0.792499 0.759872
1.000001 0.821337 0.796253
1.000001 0.847790 0.828111
1.000001 0.871343 0.855568
1.000001 0.892808 0.880017
1.000001 0.911829 0.901320
1.000001 0.929286 0.920631
0.223643 0.669207 0.051119
0.224350 0.669168 0.051117
0.225327 0.669116 0.051114
0.226667 0.669048 0.051110
0.228764 0.668944 0.051102
0.234037 0.668704 0.051078
0.244529 0.668290 0.051019
0.263473 0.667676 0.050888
0.293594 0.666885 0.050650
0.335070 0.665935 0.050300
0.386684 0.664829 0.049913
0.444820 0.663588 0.049716
0.506609 0.662212 0.050138
0.568158 0.660748 0.051910
0.627514 0.659254 0.056278
0.682925 0.654553 0.070435
0.742337 0.650860 0.105685
0.790692 0.648712 0.153407
0.833190 0.648812 0.227262
0.869485 0.652162 0.318092
0.900976 0.660059 0.404241
0.927418 0.673374 0.482473
0.948977 0.691877 0.551612
0.966890 0.715291 0.613895
0.981218 0.741450 0.667934
0.992994 0.769538 0.716163
1.000001 0.797238 0.757777
1.000001 0.824331 0.794772
1.000001 0.849659 0.827070
1.000001 0.872514 0.854837
1.000001 0.893539 0.879514
1.000001 0.912293 0.900984
1.000001 0.929587 0.920421
0.277701 0.716649 0.072968
0.278183 0.716615 0.072961
0.278850 0.716569 0.072951
0.279767 0.716508 0.072937
0.281207 0.716416 0.072915
0.284849 0.716205 0.072859
0.292166 0.715841 0.072746
0.305519 0.715305 0.072539
0.327043 0.714621 0.072200
0.358447 0.713806 0.071710
0.400194 0.712861 0.071105
0.450124 0.711796 0.070557
0.505885 0.710597 0.070422
0.563578 0.709285 0.071338
0.620770 0.707875 0.074360
0.675295 0.706423 0.081264
0.727239 0.701984 0.099603
0.784373 0.698340 0.146199
0.828518 0.696178 0.211723
0.865879 0.696128 0.300655
0.898173 0.699187 0.388588
0.925246 0.706427 0.469323
0.947304 0.718304 0.541065
0.965621 0.735135 0.605747
0.980260 0.755619 0.661742
0.992279 0.779112 0.711523
1.000001 0.803471 0.754289
1.000001 0.828200 0.792150
1.000001 0.851961 0.825082
1.000001 0.873826 0.853312
1.000001 0.894225 0.878341
1.000001 0.912605 0.900075
1.000001 0.929677 0.919723
0.334193 0.759151 0.102719
0.334487 0.759121 0.102705
0.334895 0.759080 0.102685
0.335458 0.759026 0.102658
0.336346 0.758945 0.102617
0.338617 0.758757 0.102517
0.343272 0.758437 0.102332
0.352031 0.757968 0.102022
0.366764 0.757375 0.101557
0.389436 0.756676 0.100907
0.421467 0.755872 0.100078
0.462227 0.754970 0.099189
0.510404 0.753950 0.098513
0.562662 0.752816 0.098608
0.616395 0.751565 0.100395
0.669022 0.750217 0.105385
0.718651 0.748817 0.116118
0.767283 0.744631 0.140955
0.821586 0.741073 0.204786
0.860855 0.738957 0.286795
0.894382 0.738787 0.373273
0.922331 0.741519 0.454821
0.945046 0.747904 0.528463
0.963886 0.758635 0.595417
0.978929 0.773280 0.653537
0.991269 0.791590 0.705157
1.000001 0.811878 0.749368
1.000001 0.833544 0.788358
1.000001 0.855175 0.822143
1.000001 0.875645 0.851005
1.000001 0.895136 0.876521
1.000001 0.912962 0.898626
1.000001 0.929701 0.918571
0.389915 0.797179 0.144082
0.390090 0.797152 0.144057
0.390334 0.797115 0.144023
0.390671 0.797067 0.143977
0.391207 0.796995 0.143907
0.392593 0.796829 0.143745
0.395489 0.796546 0.143453
0.401092 0.796136 0.142993
0.410857 0.795621 0.142345
0.426564 0.795020 0.141482
0.449960 0.794337 0.140386
0.481536 0.793578 0.139128
0.521143 0.792721 0.137901
0.566506 0.791764 0.137176
0.615320 0.790693 0.137770
0.664859 0.789510 0.141037
0.712829 0.788232 0.149170
0.757953 0.786887 0.166079
0.802975 0.782971 0.201313
0.853520 0.779563 0.281404
0.889221 0.777451 0.361561
0.918506 0.777183 0.440957
0.942126 0.779493 0.514895
0.961646 0.785164 0.583396
0.977203 0.794398 0.643474
0.989948 0.807377 0.697055
1.000001 0.823074 0.742948
1.000001 0.841006 0.783328
1.000001 0.859865 0.818199
1.000001 0.878422 0.847882
1.000001 0.896613 0.874038
1.000001 0.913613 0.896633
1.000001 0.929834 0.916972
0.444161 0.830899 0.203328
0.444260 0.830876 0.203286
0.444399 0.830843 0.203231
0.444593 0.830801 0.203154
0.444903 0.830737 0.203041
0.445718 0.830590 0.202777
0.447465 0.830341 0.202316
0.450953 0.829980 0.201617
0.457247 0.829532 0.200679
0.467766 0.829014 0.199485
0.484158 0.828434 0.198006
0.507467 0.827796 0.196277
0.538425 0.827081 0.194413
0.575973 0.826285 0.192799
0.618540 0.825387 0.192153
0.663678 0.824383 0.193738
0.708920 0.823274 0.199582
0.752596 0.822063 0.213122
0.793279 0.820781 0.238548
0.833592 0.817210 0.277773
0.881766 0.813861 0.357391
0.913377 0.811815 0.430601
0.938371 0.811441 0.502230
0.958823 0.813390 0.570758
0.975043 0.818173 0.632089
0.988297 0.826257 0.687422
0.998759 0.837280 0.735065
1.000001 0.851042 0.777025
1.000001 0.866549 0.813200
1.000001 0.882633 0.843902
1.000001 0.899046 0.870866
1.000001 0.914857 0.894085
1.000001 0.930294 0.914926
0.495466 0.860117 0.281583
0.495518 0.860096 0.281532
0.495591 0.860068 0.281460
0.495695 0.860030 0.281366
0.495863 0.859973 0.281225
0.496317 0.859843 0.280898
0.497331 0.859623 0.280335
0.499446 0.859305 0.279499
0.503418 0.858914 0.278414
0.510311 0.858465 0.277082
0.521483 0.857969 0.275476
0.538093 0.857430 0.273604
0.561301 0.856834 0.271484
0.591030 0.856173 0.269341
0.626613 0.855429 0.267652
0.666255 0.854592 0.267357
0.707674 0.853653 0.269950
0.748996 0.852609 0.277539
0.788457 0.851469 0.292437
0.824312 0.850276 0.315894
0.861693 0.846931 0.352393
0.906132 0.843732 0.426861
0.933455 0.841806 0.492988
0.955294 0.841353 0.559296
0.972407 0.842931 0.620541
0.986303 0.847080 0.676934
0.997235 0.853916 0.726082
1.000001 0.863547 0.769624
1.000001 0.875414 0.807225
1.000001 0.888590 0.839104
1.000001 0.902765 0.867031
1.000001 0.916990 0.891006
1.000001 0.931320 0.912458
0.544899 0.886037 0.357758
0.544920 0.886019 0.357708
0.544951 0.885994 0.357641
0.544997 0.885960 0.357550
0.545074 0.885910 0.357416
0.545296 0.885796 0.357105
0.545833 0.885601 0.356575
0.547040 0.885323 0.355801
0.549446 0.884981 0.354821
0.553815 0.884592 0.353660
0.561177 0.884167 0.352311
0.572568 0.883712 0.350774
0.589215 0.883215 0.349023
0.611647 0.882669 0.347136
0.639979 0.882059 0.345308
0.673265 0.881370 0.344013
0.709757 0.880594 0.344091
0.747670 0.879719 0.346829
0.785063 0.878745 0.353928
0.819879 0.877698 0.366954
0.852236 0.876565 0.387756
0.885700 0.873515 0.420090
0.926253 0.870498 0.489272
0.950533 0.868621 0.550603
0.969020 0.868080 0.609844
0.983813 0.869325 0.666112
0.995358 0.872719 0.716176
1.000001 0.878574 0.761095
1.000001 0.886762 0.800144
1.000001 0.896724 0.833326
1.000001 0.908219 0.862378
1.000001 0.920408 0.887264
1.000001 0.933226 0.909467
0.591182 0.908474 0.426134
0.591185 0.908457 0.426086
0.591190 0.908435 0.426021
0.591200 0.908405 0.425935
0.591220 0.908361 0.425807
0.591297 0.908260 0.425511
0.591532 0.908089 0.425009
0.592160 0.907845 0.424285
0.593549 0.907545 0.423383
0.596236 0.907209 0.422339
0.600970 0.906843 0.421160
0.608580 0.906456 0.419855
0.620149 0.906039 0.418390
0.636442 0.905588 0.416785
0.658062 0.905088 0.415104
0.684822 0.904525 0.413563
0.715693 0.903890 0.412609
0.749279 0.903169 0.412994
0.783718 0.902357 0.415848
0.816787 0.901469 0.422442
0.848252 0.900484 0.434446
0.876764 0.899434 0.452934
0.905662 0.896732 0.480686
0.943576 0.893812 0.546635
0.964505 0.892045 0.601788
0.980666 0.891416 0.656288
0.993059 0.892334 0.706240
1.000001 0.895166 0.751975
1.000001 0.900085 0.792247
1.000001 0.906894 0.826708
1.000001 0.915517 0.856965
1.000001 0.925338 0.882880
1.000001 0.936269 0.905958
0.633352 0.927465 0.486913
0.633344 0.927451 0.486867
0.633334 0.927431 0.486806
0.633322 0.927405 0.486724
0.633308 0.927366 0.486603
0.633297 0.927277 0.486322
0.633348 0.927126 0.485849
0.633616 0.926911 0.485168
0.634361 0.926649 0.484331
0.635963 0.926355 0.483377
0.638956 0.926039 0.482323
0.643966 0.925707 0.481184
0.651864 0.925355 0.479932
0.663419 0.924978 0.478566
0.679420 0.924566 0.477092
0.700186 0.924106 0.475602
0.725356 0.923587 0.474320
0.754086 0.922997 0.473667
0.784849 0.922327 0.474345
0.815475 0.921587 0.477272
0.845469 0.920754 0.483707
0.873260 0.919846 0.494803
0.897839 0.918894 0.511105
0.923762 0.916428 0.536350
0.957894 0.913702 0.597453
0.976539 0.912001 0.648821
0.990205 0.911348 0.697369
1.000001 0.912047 0.743046
1.000001 0.914407 0.784046
1.000001 0.918488 0.819565
1.000001 0.924379 0.850971
1.000001 0.931742 0.877954
1.000001 0.940550 0.901988
0.672590 0.943949 0.542544
0.672575 0.943936 0.542501
0.672555 0.943919 0.542443
0.672530 0.943895 0.542366
0.672496 0.943862 0.542251
0.672431 0.943783 0.541987
0.672368 0.943650 0.541542
0.672409 0.943461 0.540905
0.672739 0.943232 0.540127
0.673627 0.942975 0.539250
0.675450 0.942702 0.538298
0.678665 0.942417 0.537288
0.683929 0.942118 0.536199
0.691905 0.941802 0.535029
0.703375 0.941461 0.533761
0.718907 0.941085 0.532424
0.738632 0.940663 0.531120
0.762259 0.940183 0.530067
0.788762 0.939637 0.529679
0.816258 0.939029 0.530568
0.844135 0.938338 0.533598
0.870693 0.937574 0.539740
0.894685 0.936758 0.549709
0.916410 0.935878 0.564428
0.938433 0.933722 0.585897
0.970129 0.931098 0.643751
0.986333 0.929505 0.690231
0.998285 0.928808 0.734780
1.000001 0.929308 0.775807
1.000001 0.931203 0.811998
1.000001 0.934679 0.844383
1.000001 0.939661 0.872408
1.000001 0.946224 0.897454
0.707785 0.957789 0.591855
0.707767 0.957778 0.591815
0.707742 0.957762 0.591761
0.707710 0.957742 0.591688
0.707665 0.957712 0.591580
0.707569 0.957643 0.591333
0.707440 0.957526 0.590915
0.707344 0.957360 0.590321
0.707418 0.957158 0.589596
0.707855 0.956934 0.588787
0.708923 0.956695 0.587917
0.710953 0.956449 0.587008
0.714426 0.956193 0.586047
0.719872 0.955926 0.585029
0.727970 0.955641 0.583935
0.739342 0.955330 0.582766
0.754387 0.954985 0.581561
0.773230 0.954595 0.580426
0.795353 0.954150 0.579594
0.819317 0.953652 0.579455
0.844560 0.953083 0.580573
0.869394 0.952448 0.583682
0.892408 0.951761 0.589447
0.913660 0.951007 0.598731
0.932247 0.950219 0.611709
0.951910 0.948261 0.631248
0.980263 0.945822 0.684518
0.994813 0.944295 0.728095
1.000001 0.943607 0.768321
1.000001 0.943958 0.804622
1.000001 0.945559 0.837643
1.000001 0.948510 0.866540
1.000001 0.952978 0.892545
0.740260 0.969779 0.636945
0.740240 0.969769 0.636907
0.740213 0.969756 0.636856
0.740178 0.969738 0.636789
0.740126 0.969712 0.636688
0.740014 0.969651 0.636456
0.739847 0.969548 0.636067
0.739668 0.969402 0.635513
0.739582 0.969226 0.634840
0.739728 0.969029 0.634093
0.740297 0.968821 0.633296
0.741525 0.968608 0.632473
0.743759 0.968388 0.631615
0.747400 0.968162 0.630720
0.752992 0.967923 0.629771
0.761108 0.967665 0.628758
0.772245 0.967383 0.627690
0.786775 0.967065 0.626610
0.804601 0.966704 0.625641
0.824779 0.966300 0.625019
0.846933 0.965836 0.625091
0.869545 0.965314 0.626375
0.891142 0.964745 0.629408
0.911572 0.964114 0.634894
0.929778 0.963443 0.643189
0.946185 0.962718 0.654931
0.962823 0.961016 0.671527
0.988932 0.958684 0.721495
1.000001 0.957240 0.761835
1.000001 0.956563 0.797608
1.000001 0.956791 0.830828
1.000001 0.958111 0.860349
1.000001 0.960735 0.887200
0.769219 0.979843 0.676862
0.769199 0.979834 0.676827
0.769171 0.979822 0.676779
0.769134 0.979807 0.676716
0.769080 0.979783 0.676622
0.768961 0.979730 0.676407
0.768775 0.979639 0.676044
0.768552 0.979511 0.675528
0.768370 0.979356 0.674904
0.768336 0.979184 0.674212
0.768587 0.979002 0.673479
