3DLUTS/RED_IPP2CubesSDRCoreV1_13/REC2020/RWG_Log3G10 to REC2020_BT1886 with LOW_CONTRAST and R_4_VerySoft size_33 v1.13.cube
# RED Digital Cinema Output Transform LUT for IPP2
# LUT Name = RWG_Log3G10 to REC2020_BT1886 with LOW_CONTRAST and R_4_VerySoft size_33 v1.13
# Generated by version 1.13
# Settings used in creation of this LUT are:
# Development Color Space = REC2020
# Output Gamma Curve = BT1886
# Output Tonemap = LOW_CONTRAST
# Highlight Rolloff = Rolloff 4 - very soft
# Resolution = 33 x 33 x 33
TITLE "RED IPP2 LUT to map REDWideGamutRGB/Log3G10 to REC2020/BT1886/LOW_CONTRAST/Rolloff 4 - very soft"
LUT_3D_SIZE 33
0.000000 0.000000 0.000000
0.000000 0.000000 0.000000
0.000001 0.000000 0.000000
0.016027 0.003505 0.003505
0.073460 0.003505 0.003505
0.120745 0.003663 0.003505
0.168208 0.005491 0.004592
0.218632 0.012560 0.008279
0.273703 0.023274 0.015653
0.331718 0.035345 0.024299
0.389073 0.048756 0.034008
0.450996 0.065448 0.046167
0.514926 0.086202 0.061315
0.574911 0.110883 0.079273
0.632397 0.142419 0.101996
0.686546 0.182779 0.131681
0.736634 0.229414 0.171832
0.782466 0.284003 0.225777
0.823617 0.343461 0.288286
0.859364 0.403138 0.353286
0.890863 0.463451 0.418781
0.917709 0.521991 0.482262
0.939916 0.576641 0.541470
0.958630 0.628224 0.597302
0.973808 0.674790 0.647655
0.986455 0.717753 0.694063
0.996625 0.755853 0.735174
1.000001 0.790496 0.772516
1.000001 0.821311 0.805698
1.000001 0.848223 0.834649
1.000001 0.872460 0.860698
1.000001 0.893794 0.883608
1.000001 0.913315 0.904554
0.000000 0.000000 0.000000
0.000000 0.000000 0.000000
0.000001 0.000000 0.000000
0.021581 0.003505 0.003505
0.074356 0.003505 0.003505
0.121275 0.003917 0.003505
0.168631 0.007447 0.004487
0.219028 0.016569 0.007950
0.274110 0.027565 0.015165
0.332110 0.039589 0.023787
0.389466 0.052832 0.033508
0.451435 0.069254 0.045719
0.515344 0.089719 0.060925
0.575323 0.114174 0.078955
0.632800 0.145560 0.101762
0.686935 0.185328 0.131549
0.737004 0.231416 0.171832
0.782810 0.285642 0.225960
0.823932 0.344723 0.288633
0.859649 0.404149 0.353723
0.891115 0.464290 0.419270
0.917931 0.522709 0.482776
0.940109 0.577273 0.541988
0.958795 0.628788 0.597808
0.973949 0.675301 0.648140
0.986575 0.718216 0.694520
0.996727 0.756274 0.735602
1.000001 0.790879 0.772911
1.000001 0.821660 0.806062
1.000001 0.848539 0.834981
1.000001 0.872746 0.861001
1.000001 0.894052 0.883882
1.000001 0.913546 0.904800
0.000000 0.000009 0.000000
0.000000 0.000008 0.000000
0.000002 0.000007 0.000000
0.026804 0.003505 0.003505
0.075525 0.003663 0.003505
0.121974 0.006222 0.003505
0.169190 0.013992 0.004352
0.219551 0.023916 0.007534
0.274648 0.034614 0.014515
0.332628 0.046170 0.023096
0.389988 0.058871 0.032842
0.452015 0.074754 0.045120
0.515896 0.094721 0.060399
0.575868 0.118807 0.078522
0.633334 0.149950 0.101440
0.687449 0.188759 0.131361
0.737492 0.234124 0.171821
0.783266 0.287851 0.226194
0.824350 0.346422 0.289086
0.860025 0.405509 0.354298
0.891450 0.465413 0.419917
0.918223 0.523668 0.483456
0.940363 0.578115 0.542672
0.959014 0.629539 0.598477
0.974136 0.675979 0.648782
0.986734 0.718831 0.695127
0.996862 0.756834 0.736169
1.000001 0.791387 0.773435
1.000001 0.822121 0.806544
1.000001 0.848958 0.835422
1.000001 0.873124 0.861401
1.000001 0.894394 0.884245
1.000001 0.913852 0.905126
0.003505 0.049024 0.003505
0.003505 0.048512 0.003505
0.003505 0.047818 0.003505
0.032023 0.046891 0.003505
0.077011 0.041897 0.003505
0.122873 0.033075 0.003505
0.169911 0.032666 0.004198
0.220225 0.038566 0.007031
0.275342 0.046804 0.013665
0.333300 0.056606 0.022197
0.390667 0.067979 0.031971
0.452769 0.082783 0.044329
0.516610 0.101871 0.059700
0.576573 0.125339 0.077941
0.634024 0.155930 0.101001
0.688116 0.193310 0.131097
0.738125 0.237742 0.171784
0.783856 0.290789 0.226481
0.824891 0.348680 0.289665
0.860513 0.407309 0.355039
0.891883 0.466895 0.420754
0.918604 0.524930 0.484337
0.940694 0.579219 0.543559
0.959298 0.630521 0.599347
0.974379 0.676864 0.649617
0.986940 0.719632 0.695914
0.997036 0.757563 0.736905
1.000001 0.792049 0.774117
1.000001 0.822722 0.807170
1.000001 0.849502 0.835994
1.000001 0.873617 0.861921
1.000001 0.894838 0.884716
1.000001 0.914250 0.905549
0.003505 0.091562 0.003505
0.003505 0.091328 0.003505
0.003663 0.091014 0.003505
0.017587 0.090601 0.003505
0.079280 0.089014 0.003505
0.124555 0.085762 0.003505
0.171258 0.082274 0.003972
0.221485 0.080393 0.006231
0.276641 0.080698 0.012129
0.334552 0.083665 0.020535
0.391936 0.089886 0.030332
0.454172 0.101060 0.042819
0.517936 0.117567 0.058345
0.577881 0.139259 0.076798
0.635304 0.167233 0.100119
0.689353 0.202107 0.130538
0.739301 0.244807 0.171649
0.784954 0.296487 0.226965
0.825897 0.353050 0.290709
0.861422 0.410778 0.356400
0.892690 0.469733 0.422302
0.919311 0.527330 0.485973
0.941308 0.581308 0.545212
0.959826 0.632372 0.600966
0.974832 0.678527 0.651171
0.987324 0.721135 0.697384
0.997361 0.758928 0.738279
1.000001 0.793287 0.775388
1.000001 0.823844 0.808338
1.000001 0.850520 0.837063
1.000001 0.874536 0.862892
1.000001 0.895667 0.885595
1.000001 0.914992 0.906338
0.003825 0.142107 0.003505
0.004220 0.141951 0.003505
0.005835 0.141742 0.003505
0.016558 0.141467 0.003505
0.071728 0.140950 0.003505
0.128026 0.139943 0.003505
0.174013 0.136192 0.003721
0.224031 0.133633 0.005103
0.279240 0.132505 0.009367
0.337040 0.133006 0.017343
0.394459 0.135510 0.027059
0.456935 0.141412 0.039707
0.520523 0.151995 0.055471
0.580433 0.167842 0.074301
0.637805 0.190439 0.098107
0.691773 0.220873 0.129146
0.741605 0.260165 0.171086
0.787107 0.308686 0.227685
0.827874 0.362381 0.292614
0.863209 0.418118 0.358993
0.894278 0.475667 0.425307
0.920703 0.532283 0.489177
0.942519 0.585575 0.548463
0.960867 0.636120 0.604161
0.975723 0.681874 0.654243
0.988081 0.724145 0.700288
0.998001 0.761650 0.740995
1.000001 0.795751 0.777902
1.000001 0.826075 0.810648
1.000001 0.852540 0.839176
1.000001 0.876359 0.864813
1.000001 0.897310 0.887333
1.000001 0.916462 0.907899
0.006411 0.196516 0.003663
0.008052 0.196383 0.003663
0.012208 0.196206 0.003663
0.021766 0.195973 0.003663
0.061636 0.195531 0.003663
0.121359 0.194648 0.003663
0.177960 0.193499 0.003663
0.227581 0.189516 0.004250
0.282767 0.186955 0.006844
0.340370 0.185797 0.013418
0.397814 0.186210 0.022744
0.460548 0.189111 0.035379
0.523844 0.195553 0.051275
0.583704 0.206545 0.070480
0.641015 0.223853 0.094835
0.694888 0.249131 0.126622
0.744580 0.283845 0.169603
0.789898 0.327039 0.228010
0.830443 0.376401 0.294695
0.865537 0.429012 0.362146
0.896351 0.484308 0.429108
0.922523 0.539352 0.493306
0.944103 0.591549 0.552694
0.962230 0.641286 0.608343
0.976890 0.686432 0.658278
0.989072 0.728207 0.704112
0.998840 0.765303 0.744575
1.000001 0.799042 0.781219
1.000001 0.829044 0.813697
1.000001 0.855223 0.841966
1.000001 0.878777 0.867348
1.000001 0.899485 0.889628
1.000001 0.918408 0.909959
0.014576 0.256706 0.004037
0.017333 0.256580 0.004051
0.021942 0.256411 0.004051
0.030068 0.256188 0.004051
0.055117 0.255764 0.004079
0.115370 0.254901 0.004092
0.171362 0.253724 0.004118
0.232021 0.252406 0.004165
0.286970 0.247887 0.005226
0.344232 0.244945 0.009563
0.401595 0.243498 0.018068
0.464506 0.244069 0.030324
0.527367 0.247383 0.046053
0.587156 0.254471 0.065436
0.644408 0.267054 0.090201
0.698197 0.287001 0.122647
0.747761 0.315054 0.166629
0.792902 0.351406 0.227154
0.833224 0.395079 0.296154
0.868069 0.443364 0.365104
0.898614 0.495446 0.432993
0.924517 0.548219 0.497689
0.945842 0.598849 0.557274
0.963730 0.647452 0.612921
0.978176 0.691775 0.662725
0.990164 0.732903 0.708344
0.999765 0.769483 0.748549
1.000001 0.802781 0.784906
1.000001 0.832400 0.817091
1.000001 0.858246 0.845074
1.000001 0.881493 0.870175
1.000001 0.901926 0.892188
1.000001 0.920587 0.912258
0.027079 0.322298 0.004909
0.029999 0.322182 0.004909
0.034475 0.322027 0.004920
0.041544 0.321823 0.004930
0.059939 0.321434 0.004945
0.112145 0.320632 0.004975
0.166306 0.319507 0.005014
0.224960 0.318170 0.005066
0.291828 0.316778 0.005161
0.348477 0.311897 0.006909
0.405485 0.308575 0.013693
0.468370 0.306983 0.025121
0.530598 0.307514 0.040248
0.590276 0.310972 0.059435
0.647478 0.318650 0.084265
0.701218 0.332100 0.117035
0.750701 0.352750 0.161672
0.795712 0.381609 0.224248
0.835857 0.418485 0.296123
0.870490 0.461253 0.367074
0.900797 0.509054 0.436234
0.926453 0.558737 0.501660
0.947539 0.607228 0.561591
0.965200 0.654308 0.617335
0.979440 0.697561 0.667070
0.991241 0.737882 0.712515
1.000001 0.773848 0.752487
1.000001 0.806641 0.788576
1.000001 0.835838 0.820478
1.000001 0.861325 0.848182
1.000001 0.884251 0.873006
1.000001 0.904396 0.894755
1.000001 0.922790 0.914566
0.043737 0.387268 0.006593
0.046572 0.387167 0.006601
0.050748 0.387031 0.006612
0.056998 0.386852 0.006623
0.071853 0.386510 0.006644
0.114237 0.385801 0.006682
0.164361 0.384788 0.006730
0.219972 0.383542 0.006786
0.284101 0.382154 0.006872
0.353217 0.380748 0.007079
0.409367 0.375769 0.010090
0.471772 0.372351 0.020300
0.533121 0.370582 0.034373
0.592601 0.370975 0.052881
0.649754 0.374454 0.077262
0.703500 0.382355 0.109787
0.752982 0.396214 0.154414
0.797956 0.417504 0.218333
0.838015 0.446850 0.293647
0.872518 0.483015 0.367212
0.902659 0.525392 0.438088
0.928129 0.571015 0.504565
0.949026 0.616655 0.565069
0.966499 0.661722 0.621074
0.980567 0.703591 0.670859
0.992207 0.742913 0.716219
1.000001 0.778153 0.756029
1.000001 0.810381 0.791905
1.000001 0.839127 0.823570
1.000001 0.864245 0.851032
1.000001 0.886851 0.875612
1.000001 0.906717 0.897125
1.000001 0.924854 0.916702
0.065698 0.450776 0.010082
0.068366 0.450688 0.010093
0.072207 0.450568 0.010107
0.077791 0.450411 0.010122
0.090397 0.450111 0.010150
0.123968 0.449484 0.010197
0.167475 0.448584 0.010243
0.218495 0.447455 0.010284
0.278800 0.446151 0.010348
0.345506 0.444734 0.010535
0.413764 0.443304 0.011049
0.472766 0.438326 0.016005
0.534564 0.434756 0.028970
0.593656 0.432830 0.046302
0.650728 0.433101 0.069622
0.704543 0.436568 0.101151
0.754142 0.444597 0.144807
0.799218 0.458788 0.208319
0.839336 0.480377 0.287576
0.873846 0.509120 0.364498
0.903944 0.544943 0.437668
0.929335 0.585396 0.505640
0.950130 0.627300 0.567052
0.967488 0.669706 0.623575
0.981441 0.709776 0.673604
0.992967 0.747837 0.719035
1.000001 0.782208 0.758802
1.000001 0.813797 0.794567
1.000001 0.842064 0.826080
1.000001 0.866813 0.853373
1.000001 0.889114 0.877772
1.000001 0.908724 0.899103
1.000001 0.926632 0.918496
0.094409 0.511362 0.016030
0.096891 0.511284 0.016038
0.100423 0.511179 0.016049
0.105472 0.511040 0.016062
0.116547 0.510776 0.016084
0.142079 0.510224 0.016114
0.177465 0.509429 0.016132
0.222299 0.508425 0.016123
0.277492 0.507244 0.016109
0.340392 0.505914 0.016174
0.406187 0.504477 0.016497
0.472116 0.503040 0.017418
0.530564 0.498061 0.023740
0.592489 0.494417 0.040276
0.649800 0.492365 0.062094
0.703739 0.492526 0.091820
0.753599 0.495945 0.133365
0.798971 0.504058 0.194233
0.839358 0.518362 0.276671
0.874075 0.539447 0.357740
0.904320 0.567901 0.433870
0.929794 0.602126 0.503904
0.950624 0.639307 0.566683
0.967983 0.678268 0.624098
0.981912 0.716002 0.674663
0.993402 0.752463 0.720403
1.000001 0.785775 0.760322
1.000001 0.816633 0.796138
1.000001 0.844393 0.827638
1.000001 0.868784 0.854878
1.000001 0.890810 0.879199
1.000001 0.910207 0.900439
1.000001 0.927934 0.919730
0.133020 0.569252 0.024467
0.135324 0.569183 0.024472
0.138447 0.569090 0.024478
0.142619 0.568968 0.024486
0.150767 0.568735 0.024497
0.168470 0.568249 0.024506
0.195763 0.567552 0.024487
0.233272 0.566669 0.024422
0.281973 0.565624 0.024318
0.339227 0.564427 0.024241
0.401136 0.563088 0.024348
0.464649 0.561661 0.024934
0.528481 0.560205 0.026555
0.585572 0.555330 0.034595
0.647158 0.551628 0.055760
0.701756 0.549482 0.083414
0.752003 0.549541 0.122105
0.797692 0.552885 0.178943
0.838376 0.560917 0.261651
0.873370 0.574712 0.347006
0.903873 0.595426 0.426573
0.929556 0.622497 0.499187
0.950537 0.653855 0.563807
0.967998 0.688349 0.622525
0.981991 0.722967 0.673955
0.993518 0.757276 0.720272
1.000001 0.789184 0.760553
1.000001 0.819108 0.796597
1.000001 0.846257 0.828229
1.000001 0.870248 0.855537
1.000001 0.891998 0.879886
1.000001 0.911202 0.901126
1.000001 0.928784 0.920398
0.178390 0.623254 0.036114
0.179827 0.623192 0.036115
0.181800 0.623110 0.036116
0.184485 0.623002 0.036116
0.189886 0.622796 0.036114
0.202250 0.622369 0.036094
0.222692 0.621757 0.036031
0.252785 0.620986 0.035903
0.293870 0.620073 0.035705
0.343690 0.619021 0.035481
0.400011 0.617824 0.035356
0.459752 0.616508 0.035591
0.521273 0.615083 0.036659
0.581658 0.613634 0.039369
0.637184 0.608890 0.049773
0.697673 0.605186 0.076901
0.748865 0.602993 0.112417
0.795213 0.602971 0.164493
0.836433 0.606221 0.244048
0.871877 0.613907 0.333042
0.902757 0.627414 0.416207
0.928750 0.647098 0.491737
0.949972 0.671867 0.558595
0.967620 0.700923 0.619008
0.981750 0.731539 0.671639
0.993375 0.762986 0.718813
1.000001 0.792997 0.759676
1.000001 0.821658 0.796123
1.000001 0.847998 0.828027
1.000001 0.871480 0.855516
1.000001 0.892900 0.879987
1.000001 0.911893 0.901305
1.000001 0.929332 0.920628
0.226739 0.673310 0.052086
0.227698 0.673255 0.052081
0.229023 0.673182 0.052075
0.230842 0.673086 0.052065
0.234554 0.672904 0.052044
0.243293 0.672527 0.051987
0.258387 0.671989 0.051871
0.281759 0.671318 0.051673
0.314137 0.670526 0.051378
0.355256 0.669615 0.051007
0.404296 0.668573 0.050649
0.458633 0.667408 0.050525
0.516504 0.666109 0.051039
0.574744 0.664715 0.052886
0.631528 0.663277 0.057270
0.684795 0.658716 0.070779
0.743503 0.655047 0.105773
0.791165 0.652826 0.152835
0.833271 0.652732 0.225720
0.869385 0.655753 0.316431
0.900823 0.663183 0.402777
0.927275 0.675941 0.481299
0.948864 0.693875 0.550728
0.966806 0.716754 0.613247
0.981155 0.742472 0.667461
0.992947 0.770217 0.715820
1.000001 0.797676 0.757527
1.000001 0.824601 0.794588
1.000001 0.849821 0.826933
1.000001 0.872608 0.854735
1.000001 0.893589 0.879437
1.000001 0.912318 0.900925
1.000001 0.929597 0.920377
0.280007 0.719117 0.073821
0.280663 0.719069 0.073809
0.281572 0.719004 0.073792
0.282823 0.718918 0.073770
0.285388 0.718756 0.073724
0.291478 0.718422 0.073618
0.302105 0.717950 0.073435
0.318683 0.717365 0.073153
0.342557 0.716681 0.072753
0.374701 0.715897 0.072233
0.415300 0.715003 0.071649
0.462667 0.713998 0.071170
0.515334 0.712860 0.071135
0.570157 0.711604 0.072153
0.624976 0.710245 0.075243
0.677719 0.708834 0.082135
0.728132 0.704495 0.099874
0.784864 0.700870 0.146213
0.828622 0.698659 0.211037
0.865801 0.698484 0.299549
0.898036 0.701329 0.387477
0.925115 0.708279 0.468363
0.947199 0.719824 0.540304
0.965540 0.736308 0.605166
0.980198 0.756476 0.661302
0.992232 0.779702 0.711193
1.000001 0.803860 0.754040
1.000001 0.828441 0.791961
1.000001 0.852103 0.824937
1.000001 0.873904 0.853200
1.000001 0.894262 0.878253
1.000001 0.912618 0.900006
1.000001 0.929675 0.919668
0.335614 0.760551 0.103411
0.336016 0.760507 0.103388
0.336576 0.760449 0.103358
0.337350 0.760373 0.103317
0.338952 0.760229 0.103238
0.342820 0.759934 0.103064
0.349754 0.759518 0.102790
0.360962 0.759006 0.102399
0.377829 0.758414 0.101871
0.401729 0.757743 0.101189
0.433638 0.756982 0.100373
0.472976 0.756127 0.099547
0.518976 0.755154 0.098974
0.568939 0.754064 0.099185
0.620602 0.752854 0.101074
0.671579 0.751542 0.106116
0.720022 0.750172 0.116803
0.767613 0.746055 0.141094
0.821724 0.742508 0.204652
0.860809 0.740361 0.286205
0.894274 0.740113 0.372540
0.922224 0.742719 0.454124
0.944960 0.748941 0.527882
0.963819 0.759482 0.594955
0.978877 0.773935 0.653176
0.991229 0.792064 0.704879
1.000001 0.812204 0.749155
1.000001 0.833754 0.788194
1.000001 0.855303 0.822016
1.000001 0.875717 0.850905
1.000001 0.895171 0.876441
1.000001 0.912975 0.898562
1.000001 0.929699 0.918519
0.390690 0.797910 0.144572
0.390930 0.797871 0.144535
0.391265 0.797820 0.144484
0.391733 0.797752 0.144418
0.392708 0.797624 0.144289
0.395106 0.797363 0.144017
0.399516 0.796996 0.143608
0.406869 0.796549 0.143057
0.418347 0.796036 0.142348
0.435331 0.795461 0.141457
0.459169 0.794815 0.140374
0.490190 0.794095 0.139176
0.528480 0.793276 0.138051
0.572190 0.792353 0.137452
0.619328 0.791314 0.138171
0.667420 0.790159 0.141533
0.714287 0.788906 0.149690
0.758658 0.787580 0.166514
0.803025 0.783709 0.201255
0.853509 0.780306 0.281163
0.889143 0.778176 0.361133
0.918426 0.777864 0.440503
0.942063 0.780109 0.514498
0.961597 0.785695 0.583069
0.977165 0.794833 0.643210
0.989919 0.807711 0.696848
1.000001 0.823317 0.742786
1.000001 0.841171 0.783203
1.000001 0.859970 0.818101
1.000001 0.878485 0.847805
1.000001 0.896646 0.873976
1.000001 0.913628 0.896583
1.000001 0.929835 0.916932
0.444511 0.831243 0.203586
0.444646 0.831209 0.203524
0.444838 0.831163 0.203442
0.445107 0.831103 0.203334
0.445677 0.830989 0.203128
0.447111 0.830758 0.202697
0.449834 0.830435 0.202072
0.454521 0.830043 0.201265
0.462088 0.829598 0.200272
0.473709 0.829105 0.199064
0.490741 0.828557 0.197610
0.514025 0.827953 0.195948
0.544338 0.827269 0.194189
0.580834 0.826499 0.192708
0.622163 0.825626 0.192209
0.666113 0.824644 0.193923
0.710381 0.823554 0.199841
0.753355 0.822360 0.213369
0.793593 0.821090 0.238662
0.833544 0.817544 0.277558
0.881717 0.814197 0.357139
0.913321 0.812142 0.430315
0.938328 0.811748 0.501977
0.958791 0.813666 0.570548
0.975019 0.818412 0.631918
0.988278 0.826453 0.687285
0.998744 0.837430 0.734957
1.000001 0.851150 0.776940
1.000001 0.866622 0.813133
1.000001 0.882679 0.843849
1.000001 0.899072 0.870824
1.000001 0.914870 0.894051
1.000001 0.930297 0.914898
0.495577 0.860260 0.281611
0.495647 0.860229 0.281535
0.495748 0.860189 0.281433
0.495892 0.860136 0.281299
0.496204 0.860035 0.281044
0.497023 0.859830 0.280518
0.498650 0.859545 0.279770
0.501569 0.859201 0.278828
0.506449 0.858814 0.277705
0.514207 0.858388 0.276379
0.526005 0.857921 0.274813
0.542834 0.857412 0.273006
0.565823 0.856842 0.270976
0.594972 0.856203 0.268944
0.629722 0.855478 0.267385
0.668457 0.854657 0.267218
0.709062 0.853735 0.269907
0.749756 0.852704 0.277531
0.788800 0.851573 0.292398
0.824423 0.850387 0.315783
0.861629 0.847055 0.352137
0.906096 0.843856 0.426654
0.933429 0.841925 0.492816
0.955276 0.841464 0.559161
0.972393 0.843031 0.620435
0.986293 0.847166 0.676851
0.997227 0.853987 0.726016
1.000001 0.863601 0.769573
1.000001 0.875452 0.807185
1.000001 0.888616 0.839072
1.000001 0.902780 0.867005
1.000001 0.916997 0.890985
1.000001 0.931323 0.912441
0.544902 0.886089 0.357685
0.544931 0.886062 0.357612
0.544973 0.886026 0.357516
0.545035 0.885979 0.357387
0.545182 0.885890 0.357145
0.545600 0.885709 0.356650
0.546505 0.885459 0.355954
0.548236 0.885157 0.355099
0.551271 0.884820 0.354106
0.556276 0.884453 0.352972
0.564163 0.884054 0.351673
0.575844 0.883625 0.350193
0.592502 0.883151 0.348508
0.614674 0.882624 0.346693
0.642506 0.882028 0.344949
0.675156 0.881353 0.343739
0.711009 0.880589 0.343892
0.748390 0.879724 0.346677
0.785407 0.878758 0.353787
0.820004 0.877717 0.366793
0.852256 0.876587 0.387569
0.885663 0.873543 0.419876
0.926238 0.870524 0.489129
0.950525 0.868647 0.550502
0.969015 0.868103 0.609771
0.983809 0.869346 0.666060
0.995355 0.872736 0.716137
1.000001 0.878588 0.761066
1.000001 0.886773 0.800122
1.000001 0.896730 0.833309
1.000001 0.908223 0.862364
1.000001 0.920409 0.887252
1.000001 0.933226 0.909457
0.557074 0.891226 0.377299
0.591165 0.908471 0.425993
0.591171 0.908439 0.425900
0.591184 0.908398 0.425778
0.591226 0.908319 0.425548
0.591392 0.908160 0.425080
0.591837 0.907940 0.424426
0.592801 0.907676 0.423634
0.594618 0.907382 0.422732
0.597761 0.907064 0.421728
0.602903 0.906723 0.420606
0.610787 0.906359 0.419359
0.622461 0.905962 0.417951
0.638676 0.905527 0.416400
0.660028 0.905039 0.414775
0.686373 0.904488 0.413293
0.716774 0.903862 0.412392
0.749929 0.903149 0.412818
0.784043 0.902344 0.415689
0.816911 0.901460 0.422282
0.848277 0.900478 0.434276
0.876755 0.899429 0.452762
0.905648 0.896727 0.480534
0.943571 0.893808 0.546539
0.964502 0.892040 0.601723
0.980664 0.891412 0.656245
0.993058 0.892330 0.706212
1.000001 0.895162 0.751954
1.000001 0.900082 0.792232
1.000001 0.906891 0.826697
1.000001 0.915514 0.856956
1.000001 0.925335 0.882872
1.000001 0.936266 0.905951
0.633344 0.927480 0.486877
0.633331 0.927459 0.486810
0.633315 0.927431 0.486722
0.633298 0.927395 0.486607
0.633278 0.927325 0.486389
0.633289 0.927185 0.485946
0.633450 0.926991 0.485333
0.633932 0.926759 0.484594
0.634970 0.926502 0.483765
0.636898 0.926226 0.482856
0.640198 0.925931 0.481862
0.645439 0.925621 0.480783
0.653465 0.925286 0.479582
0.665030 0.924924 0.478262
0.680903 0.924522 0.476831
0.701415 0.924071 0.475383
0.726256 0.923560 0.474140
0.754653 0.922977 0.473517
0.785144 0.922312 0.474215
0.815592 0.921575 0.477145
0.845493 0.920745 0.483576
0.873252 0.919837 0.494670
0.897827 0.918886 0.510978
0.923753 0.916420 0.536242
0.957890 0.913694 0.597384
0.976537 0.911994 0.648776
0.990204 0.911340 0.697338
1.000001 0.912041 0.743026
1.000001 0.914400 0.784032
1.000001 0.918483 0.819555
1.000001 0.924374 0.850963
1.000001 0.931737 0.877947
1.000001 0.940546 0.901983
0.672593 0.943962 0.542534
0.672570 0.943943 0.542471
0.672542 0.943918 0.542388
0.672507 0.943886 0.542280
0.672448 0.943825 0.542074
0.672366 0.943701 0.541658
0.672348 0.943531 0.541083
0.672521 0.943328 0.540395
0.673052 0.943103 0.539629
0.674175 0.942863 0.538800
0.676226 0.942608 0.537908
0.679625 0.942343 0.536957
0.685010 0.942059 0.535918
0.693032 0.941756 0.534789
0.704455 0.941424 0.533556
0.719843 0.941055 0.532251
0.739351 0.940640 0.530976
0.762734 0.940165 0.529947
0.789020 0.939623 0.529575
0.816364 0.939018 0.530470
0.844157 0.938329 0.533499
0.870686 0.937566 0.539640
0.894674 0.936750 0.549612
0.916400 0.935870 0.564337
0.938424 0.933715 0.585818
0.970125 0.931090 0.643700
0.986331 0.929497 0.690197
0.998284 0.928801 0.734757
1.000001 0.929302 0.775791
1.000001 0.931197 0.811986
1.000001 0.934674 0.844374
1.000001 0.939656 0.872401
1.000001 0.946220 0.897448
0.707795 0.957800 0.591860
0.707767 0.957784 0.591801
0.707732 0.957762 0.591724
0.707687 0.957733 0.591621
0.707607 0.957680 0.591429
0.707470 0.957571 0.591039
0.707347 0.957420 0.590501
0.707332 0.957242 0.589860
0.707546 0.957045 0.589150
0.708155 0.956835 0.588388
0.709394 0.956614 0.587577
0.711569 0.956384 0.586727
0.715147 0.956142 0.585813
0.720650 0.955886 0.584832
0.728741 0.955609 0.583769
0.740036 0.955305 0.582626
0.754944 0.954965 0.581444
0.773615 0.954579 0.580328
0.795572 0.954138 0.579510
0.819410 0.953642 0.579378
0.844580 0.953075 0.580496
0.869388 0.952440 0.583604
0.892398 0.951753 0.589371
0.913650 0.951000 0.598659
0.932237 0.950211 0.611639
0.951902 0.948254 0.631187
0.980260 0.945814 0.684479
0.994811 0.944288 0.728069
1.000001 0.943601 0.768303
1.000001 0.943952 0.804609
1.000001 0.945554 0.837633
1.000001 0.948505 0.866533
1.000001 0.952974 0.892539
0.706014 0.956916 0.589617
0.740244 0.969775 0.636903
0.740205 0.969755 0.636830
0.740155 0.969730 0.636735
0.740064 0.969683 0.636555
0.739897 0.969587 0.636191
0.739711 0.969455 0.635690
0.739579 0.969299 0.635095
0.739592 0.969126 0.634437
0.739864 0.968943 0.633736
0.740564 0.968750 0.632996
0.741906 0.968552 0.632228
0.744226 0.968345 0.631416
0.747923 0.968127 0.630556
0.753528 0.967895 0.629634
0.761608 0.967643 0.628643
0.772662 0.967366 0.627595
0.787075 0.967052 0.626530
0.804778 0.966693 0.625572
0.824858 0.966291 0.624957
0.846950 0.965828 0.625030
0.869538 0.965307 0.626314
0.891132 0.964738 0.629348
0.911563 0.964107 0.634836
0.929769 0.963436 0.643133
0.946176 0.962711 0.654877
0.962816 0.961009 0.671479
0.988929 0.958678 0.721463
1.000001 0.957234 0.761814
1.000001 0.956557 0.797593
1.000001 0.956786 0.830818
1.000001 0.958106 0.860340
1.000001 0.960730 0.887193
0.769235 0.979851 0.676880
0.769204 0.979838 0.676828
0.769164 0.979822 0.676761
0.769113 0.979799 0.676671
0.769017 0.979758 0.676504
0.768836 0.979674 0.676165
0.768617 0.979558 0.675699
0.768418 0.979420 0.675145
0.768308 0.979268 0.674536
0.768370 0.979108 0.673888
0.768723 0.978940 0.673210
0.769520 0.978767 0.672512
