3DLUTS/RED_IPP2CubesSDRCoreV1_13/REC2020/RWG_Log3G10 to REC2020_BT1886 with LOW_CONTRAST and R_3_Soft size_33 v1.13.cube
# RED Digital Cinema Output Transform LUT for IPP2
# LUT Name = RWG_Log3G10 to REC2020_BT1886 with LOW_CONTRAST and R_3_Soft size_33 v1.13
# Generated by version 1.13
# Settings used in creation of this LUT are:
# Development Color Space = REC2020
# Output Gamma Curve = BT1886
# Output Tonemap = LOW_CONTRAST
# Highlight Rolloff = Rolloff 3 - soft
# Resolution = 33 x 33 x 33
TITLE "RED IPP2 LUT to map REDWideGamutRGB/Log3G10 to REC2020/BT1886/LOW_CONTRAST/Rolloff 3 - soft"
LUT_3D_SIZE 33
0.000000 0.000000 0.000000
0.000000 0.000000 0.000000
0.000001 0.000000 0.000000
0.016027 0.003505 0.003505
0.073460 0.003505 0.003505
0.120745 0.003663 0.003505
0.168208 0.005491 0.004592
0.218632 0.012560 0.008279
0.273703 0.023274 0.015653
0.335126 0.035345 0.024299
0.403365 0.048756 0.034008
0.477390 0.065448 0.046167
0.552126 0.086202 0.061315
0.620142 0.110883 0.079273
0.682978 0.142419 0.101996
0.739717 0.182779 0.131681
0.789804 0.229414 0.171832
0.833376 0.284053 0.225777
0.870455 0.348592 0.288418
0.900924 0.420287 0.360163
0.926278 0.492104 0.439040
0.946654 0.560252 0.514195
0.962545 0.622069 0.582505
0.975170 0.678502 0.644913
0.984825 0.727618 0.699221
0.992413 0.771211 0.747388
0.998169 0.808351 0.788379
1.000003 0.840770 0.824112
1.000003 0.868433 0.854561
1.000003 0.891612 0.880039
1.000003 0.911644 0.902027
1.000003 0.928561 0.920571
1.000003 0.943402 0.936820
0.000000 0.000000 0.000000
0.000000 0.000000 0.000000
0.000001 0.000000 0.000000
0.021581 0.003505 0.003505
0.074356 0.003505 0.003505
0.121275 0.003917 0.003505
0.168631 0.007447 0.004487
0.219028 0.016569 0.007950
0.274110 0.027565 0.015165
0.335570 0.039589 0.023787
0.403839 0.052832 0.033508
0.477909 0.069254 0.045719
0.552607 0.089719 0.060925
0.620601 0.114174 0.078955
0.683410 0.145560 0.101762
0.740116 0.185328 0.131549
0.790164 0.231416 0.171832
0.833695 0.285719 0.225960
0.870731 0.350062 0.288774
0.901159 0.421502 0.360684
0.926475 0.493093 0.439626
0.946817 0.561076 0.514796
0.962678 0.622772 0.583093
0.975278 0.679109 0.645468
0.984912 0.728146 0.699734
0.992483 0.771672 0.747853
0.998225 0.808754 0.788797
1.000003 0.841121 0.824482
1.000003 0.868739 0.854887
1.000003 0.891879 0.880326
1.000003 0.911875 0.902277
1.000003 0.928761 0.920788
1.000003 0.943574 0.937007
0.000000 0.000009 0.000000
0.000000 0.000008 0.000000
0.000002 0.000007 0.000000
0.026804 0.003505 0.003505
0.075525 0.003663 0.003505
0.121974 0.006222 0.003505
0.169190 0.013992 0.004352
0.219551 0.023916 0.007534
0.274648 0.034614 0.014515
0.336157 0.046170 0.023096
0.404468 0.058871 0.032842
0.478596 0.074754 0.045120
0.553242 0.094721 0.060399
0.621208 0.118807 0.078522
0.683980 0.149950 0.101440
0.740642 0.188759 0.131361
0.790640 0.234124 0.171821
0.834116 0.287973 0.226194
0.871096 0.352050 0.289239
0.901471 0.423135 0.361371
0.926736 0.494416 0.440399
0.947032 0.562177 0.515590
0.962855 0.623709 0.583870
0.975421 0.679915 0.646203
0.985028 0.728846 0.700413
0.992576 0.772282 0.748469
0.998299 0.809288 0.789350
1.000003 0.841586 0.824973
1.000003 0.869144 0.855320
1.000003 0.892232 0.880705
1.000003 0.912181 0.902607
1.000003 0.929026 0.921075
1.000003 0.943801 0.937254
0.003505 0.049024 0.003505
0.003505 0.048512 0.003505
0.003505 0.047818 0.003505
0.032023 0.046891 0.003505
0.077011 0.041897 0.003505
0.122873 0.033075 0.003505
0.169911 0.032666 0.004198
0.220225 0.038566 0.007031
0.275342 0.046804 0.013665
0.336918 0.056606 0.022197
0.405286 0.067979 0.031971
0.479489 0.082783 0.044329
0.554065 0.101871 0.059700
0.621994 0.125339 0.077941
0.684719 0.155930 0.101001
0.741324 0.193310 0.131097
0.791256 0.237742 0.171784
0.834662 0.290989 0.226481
0.871570 0.354703 0.289833
0.901875 0.425295 0.362257
0.927074 0.496161 0.441400
0.947311 0.563623 0.516620
0.963084 0.624936 0.584878
0.975606 0.680968 0.647156
0.985177 0.729761 0.701295
0.992696 0.773078 0.749269
0.998395 0.809983 0.790068
1.000003 0.842191 0.825610
1.000003 0.869671 0.855881
1.000003 0.892690 0.881197
1.000003 0.912579 0.903037
1.000003 0.929370 0.921448
1.000003 0.944097 0.937574
0.003505 0.091562 0.003505
0.003505 0.091328 0.003505
0.003663 0.091014 0.003505
0.017587 0.090601 0.003505
0.079280 0.089014 0.003505
0.124555 0.085762 0.003505
0.171258 0.082274 0.003972
0.221485 0.080393 0.006231
0.276641 0.080698 0.012129
0.338341 0.083665 0.020535
0.406814 0.089886 0.030332
0.481148 0.101060 0.042819
0.555591 0.117567 0.058345
0.623449 0.139259 0.076798
0.686088 0.167233 0.100119
0.742588 0.202107 0.130538
0.792401 0.244807 0.171649
0.835675 0.296892 0.226965
0.872449 0.359881 0.290906
0.902625 0.429456 0.363889
0.927703 0.499500 0.443251
0.947831 0.566373 0.518532
0.963509 0.627256 0.586753
0.975951 0.682952 0.648931
0.985456 0.731478 0.702936
0.992918 0.774568 0.750760
0.998572 0.811283 0.791406
1.000003 0.843322 0.826798
1.000003 0.870654 0.856927
1.000003 0.893547 0.882115
1.000003 0.913321 0.903836
1.000003 0.930012 0.922142
1.000003 0.944647 0.938171
0.003825 0.142107 0.003505
0.004220 0.141951 0.003505
0.005835 0.141742 0.003505
0.016558 0.141467 0.003505
0.071728 0.140950 0.003505
0.128026 0.139943 0.003505
0.174013 0.136192 0.003721
0.224031 0.133633 0.005103
0.279245 0.132505 0.009367
0.341181 0.133006 0.017343
0.409852 0.135510 0.027059
0.484415 0.141412 0.039707
0.558565 0.151995 0.055471
0.626285 0.167842 0.074301
0.688757 0.190439 0.098107
0.745057 0.220873 0.129146
0.794638 0.260165 0.171086
0.837659 0.309783 0.227685
0.874172 0.371119 0.292871
0.904097 0.438248 0.367016
0.928936 0.506469 0.446840
0.948849 0.572039 0.522271
0.964344 0.631985 0.590436
0.976628 0.686959 0.652426
0.986002 0.734924 0.706173
0.993355 0.777546 0.753700
0.998921 0.813870 0.794046
1.000003 0.845568 0.829141
1.000003 0.872604 0.858991
1.000003 0.895241 0.883927
1.000003 0.914788 0.905414
1.000003 0.931280 0.923512
1.000003 0.945735 0.939348
0.006411 0.196516 0.003663
0.008052 0.196383 0.003663
0.012208 0.196206 0.003663
0.021766 0.195973 0.003663
0.061636 0.195531 0.003663
0.121359 0.194648 0.003663
0.177960 0.193499 0.003663
0.227581 0.189516 0.004250
0.282800 0.186955 0.006844
0.345010 0.185797 0.013418
0.413888 0.186210 0.022744
0.488680 0.189111 0.035379
0.562378 0.195553 0.051275
0.629913 0.206545 0.070480
0.692176 0.223853 0.094835
0.748226 0.249131 0.126622
0.797519 0.283893 0.169603
0.840222 0.329866 0.228010
0.876404 0.388075 0.295028
0.906007 0.451262 0.370834
0.930540 0.516586 0.451375
0.950176 0.580096 0.527082
0.965433 0.638583 0.595220
0.977510 0.692464 0.656991
0.986715 0.739601 0.710414
0.993926 0.781550 0.757559
0.999377 0.817328 0.797515
1.000003 0.848557 0.832221
1.000003 0.875190 0.861705
1.000003 0.897483 0.886308
1.000003 0.916725 0.907489
1.000003 0.932953 0.925313
1.000003 0.947168 0.940897
0.014576 0.256706 0.004037
0.017333 0.256580 0.004051
0.021942 0.256411 0.004051
0.030068 0.256188 0.004051
0.055117 0.255764 0.004079
0.115370 0.254901 0.004092
0.171362 0.253724 0.004118
0.232021 0.252406 0.004165
0.287073 0.247887 0.005226
0.349490 0.244945 0.009563
0.418434 0.243498 0.018068
0.493348 0.244069 0.030324
0.566416 0.247383 0.046053
0.633733 0.254471 0.065436
0.695780 0.267054 0.090201
0.751584 0.287104 0.122647
0.800590 0.316655 0.166629
0.842971 0.357926 0.227154
0.878811 0.410598 0.296545
0.908077 0.468340 0.374415
0.932284 0.529572 0.456007
0.951623 0.590160 0.532180
0.966622 0.646611 0.600385
0.978476 0.699005 0.661972
0.987496 0.745059 0.715071
0.994551 0.786158 0.761814
0.999876 0.821267 0.801348
1.000003 0.851936 0.835631
1.000003 0.878099 0.864713
1.000003 0.899997 0.888949
1.000003 0.918892 0.909791
1.000003 0.934820 0.927311
1.000003 0.948765 0.942615
0.027079 0.324595 0.004909
0.029999 0.324467 0.004909
0.034475 0.324296 0.004920
0.041544 0.324071 0.004930
0.059939 0.323642 0.004945
0.112145 0.322758 0.004975
0.166306 0.321520 0.005014
0.224960 0.320054 0.005066
0.292059 0.318532 0.005161
0.354463 0.313235 0.006909
0.423106 0.309664 0.013693
0.497897 0.307962 0.025121
0.570113 0.308529 0.040248
0.637179 0.312238 0.059435
0.699033 0.320580 0.084265
0.754640 0.335558 0.117035
0.803418 0.359524 0.161672
0.845533 0.394364 0.224248
0.881080 0.438686 0.296512
0.910047 0.489512 0.376798
0.933957 0.545349 0.459865
0.953021 0.602032 0.536788
0.967777 0.655775 0.605240
0.979417 0.706242 0.666758
0.988259 0.750939 0.719604
0.995163 0.791020 0.765991
1.000003 0.825359 0.805132
1.000003 0.855407 0.839009
1.000003 0.881063 0.867700
1.000003 0.902544 0.891578
1.000003 0.921080 0.912086
1.000003 0.936700 0.929306
1.000003 0.950370 0.944332
0.043737 0.401189 0.006593
0.046572 0.401067 0.006601
0.050748 0.400904 0.006612
0.056998 0.400688 0.006623
0.071853 0.400276 0.006644
0.114237 0.399421 0.006682
0.164361 0.398199 0.006730
0.219972 0.396696 0.006786
0.284153 0.395022 0.006872
0.360080 0.393324 0.007079
0.427765 0.387312 0.010090
0.501897 0.383181 0.020300
0.572995 0.381041 0.034373
0.639742 0.381518 0.052881
0.701440 0.385723 0.077262
0.756943 0.395264 0.109787
0.805606 0.411964 0.154414
0.847571 0.437513 0.218333
0.882932 0.472477 0.293940
0.911691 0.515075 0.376965
0.935379 0.564154 0.462072
0.954225 0.615796 0.540156
0.968784 0.666022 0.609142
0.980246 0.714021 0.670802
0.988936 0.757035 0.723543
0.995709 0.795906 0.769686
1.000003 0.829374 0.808519
1.000003 0.858753 0.842060
1.000003 0.883885 0.870414
1.000003 0.904948 0.893976
1.000003 0.923132 0.914187
1.000003 0.938457 0.931137
1.000003 0.951867 0.945912
0.065698 0.477130 0.010082
0.068366 0.477024 0.010093
0.072207 0.476883 0.010107
0.077791 0.476697 0.010122
0.090397 0.476341 0.010150
0.123968 0.475599 0.010197
0.167475 0.474532 0.010243
0.218495 0.473194 0.010284
0.278803 0.471648 0.010348
0.350977 0.469967 0.010535
0.433034 0.468269 0.011049
0.503064 0.462355 0.016005
0.574642 0.458106 0.028970
0.640904 0.455813 0.046302
0.702469 0.456135 0.069622
0.757994 0.460264 0.101151
0.806717 0.469804 0.144807
0.848716 0.486603 0.208319
0.884063 0.511988 0.287692
0.912764 0.545426 0.373681
0.936357 0.586447 0.461572
0.955089 0.631787 0.541401
0.969528 0.677509 0.611365
0.980873 0.722346 0.673500
0.989459 0.763249 0.726389
0.996137 0.800663 0.772485
1.000003 0.833137 0.811163
1.000003 0.861794 0.844490
1.000003 0.886392 0.872609
1.000003 0.907052 0.895938
1.000003 0.924909 0.915921
1.000003 0.939970 0.932660
1.000003 0.953150 0.947233
0.094409 0.548015 0.016030
0.096891 0.547924 0.016038
0.100423 0.547803 0.016049
0.105472 0.547643 0.016062
0.116547 0.547338 0.016084
0.142079 0.546701 0.016114
0.177465 0.545782 0.016132
0.222299 0.544622 0.016123
0.277492 0.543256 0.016109
0.345036 0.541717 0.016174
0.423948 0.540053 0.016497
0.502301 0.538389 0.017418
0.570074 0.532612 0.023740
0.639619 0.528375 0.040276
0.701489 0.525986 0.062094
0.757184 0.526174 0.091820
0.806197 0.530153 0.133365
0.848493 0.539569 0.194233
0.884082 0.556081 0.276671
0.912949 0.580204 0.365502
0.936642 0.612315 0.457051
0.955417 0.650200 0.539391
0.969860 0.690358 0.610951
0.981186 0.731211 0.674064
0.989739 0.769469 0.727486
0.996381 0.805108 0.773843
1.000003 0.836432 0.812609
1.000003 0.864308 0.845921
1.000003 0.888372 0.873967
1.000003 0.908660 0.897196
1.000003 0.926237 0.917063
1.000003 0.941082 0.933684
1.000003 0.954086 0.948138
0.133020 0.613826 0.024467
0.135324 0.613749 0.024472
0.138447 0.613645 0.024478
0.142619 0.613508 0.024486
0.150767 0.613248 0.024497
0.168470 0.612705 0.024506
0.195763 0.611924 0.024487
0.233272 0.610936 0.024422
0.281998 0.609765 0.024318
0.343693 0.608423 0.024241
0.417882 0.606920 0.024348
0.493516 0.605319 0.024934
0.567691 0.603683 0.026555
0.631982 0.598194 0.034595
0.698695 0.594015 0.055760
0.755184 0.591589 0.083414
0.804668 0.591656 0.122105
0.847333 0.595435 0.178943
0.883241 0.604483 0.261651
0.912380 0.619921 0.352734
0.936303 0.642851 0.448351
0.955247 0.672337 0.533919
0.969802 0.705765 0.607727
0.981196 0.741562 0.672368
0.989787 0.776382 0.726753
0.996446 0.809709 0.773712
1.000003 0.839568 0.812828
1.000003 0.866494 0.846338
1.000003 0.889952 0.874481
1.000003 0.909851 0.897745
1.000003 0.927164 0.917611
1.000003 0.941827 0.934209
1.000003 0.954695 0.948627
0.178390 0.673154 0.036114
0.179827 0.673088 0.036115
0.181800 0.672999 0.036116
0.184485 0.672882 0.036116
0.189886 0.672660 0.036114
0.202250 0.672199 0.036094
0.222692 0.671539 0.036031
0.252785 0.670706 0.035903
0.294172 0.669721 0.035705
0.348859 0.668582 0.035481
0.416530 0.667288 0.035356
0.487741 0.665863 0.035591
0.559427 0.664318 0.036659
0.627644 0.662746 0.039369
0.688095 0.657587 0.049773
0.751052 0.653546 0.076901
0.801652 0.651150 0.112417
0.845079 0.651126 0.164493
0.881574 0.654677 0.244048
0.911172 0.663042 0.336625
0.935454 0.677633 0.435961
0.954670 0.698631 0.525255
0.969422 0.724590 0.601872
0.980957 0.754342 0.668569
0.989643 0.784822 0.724353
0.996366 0.815136 0.772265
1.000003 0.843058 0.811994
1.000003 0.868738 0.845907
1.000003 0.891423 0.874306
1.000003 0.910851 0.897727
1.000003 0.927866 0.917692
1.000003 0.942343 0.934346
1.000003 0.955087 0.948795
0.226739 0.726085 0.052086
0.227698 0.726029 0.052081
0.229023 0.725953 0.052075
0.230842 0.725854 0.052065
0.234554 0.725664 0.052044
0.243293 0.725273 0.051987
0.258387 0.724716 0.051871
0.281781 0.724020 0.051673
0.315659 0.723198 0.051378
0.362517 0.722251 0.051007
0.421678 0.721168 0.050649
0.486420 0.719956 0.050525
0.553943 0.718603 0.051039
0.619956 0.717149 0.052886
0.682048 0.715647 0.057270
0.737924 0.710873 0.070779
0.796477 0.707019 0.105773
0.841382 0.704681 0.152835
0.878851 0.704582 0.225720
0.909150 0.707762 0.318154
0.933977 0.715549 0.419854
0.953612 0.728808 0.513067
0.968674 0.747196 0.592998
0.980440 0.770218 0.662326
0.989288 0.795479 0.720011
0.996126 0.821956 0.769288
1.000003 0.847318 0.809949
1.000003 0.871317 0.844509
1.000003 0.892958 0.873353
1.000003 0.911764 0.897076
1.000003 0.928402 0.917253
1.000003 0.942660 0.934056
1.000003 0.955276 0.948611
0.280016 0.772567 0.073821
0.280676 0.772519 0.073809
0.281593 0.772454 0.073792
0.282857 0.772369 0.073770
0.285460 0.772208 0.073724
0.291699 0.771877 0.073618
0.302785 0.771408 0.073435
0.320616 0.770825 0.073153
0.347542 0.770145 0.072753
0.386021 0.769365 0.072233
0.434874 0.768474 0.071649
0.491179 0.767471 0.071170
0.552595 0.766335 0.071135
0.614838 0.765080 0.072153
0.675009 0.763720 0.075243
0.730644 0.762305 0.082135
0.781476 0.757945 0.099874
0.835592 0.754288 0.146213
0.874823 0.752052 0.211037
0.906224 0.751874 0.300094
0.931839 0.754752 0.401441
0.952056 0.761749 0.497888
0.967546 0.773268 0.581179
0.979635 0.789486 0.653525
0.988715 0.808947 0.713582
0.995724 0.830814 0.764669
1.000003 0.852908 0.806619
1.000003 0.874666 0.842111
1.000003 0.894875 0.871611
1.000003 0.912811 0.895793
1.000003 0.928924 0.916306
1.000003 0.942883 0.933352
1.000003 0.955332 0.948092
0.339551 0.812826 0.103411
0.340010 0.812784 0.103388
0.340650 0.812729 0.103358
0.341537 0.812657 0.103317
0.343376 0.812520 0.103238
0.347847 0.812239 0.103064
0.355970 0.811844 0.102790
0.369400 0.811357 0.102399
0.389800 0.810794 0.101871
0.418595 0.810154 0.101189
0.456775 0.809429 0.100373
0.503311 0.808613 0.099547
0.556787 0.807684 0.098974
0.613476 0.806642 0.099185
0.670292 0.805483 0.101074
0.724290 0.804225 0.106116
0.773465 0.802910 0.116803
0.819506 0.798944 0.141094
0.868795 0.795514 0.204652
0.902119 0.793431 0.286293
0.928933 0.793190 0.383409
0.949959 0.795719 0.481092
0.966020 0.801726 0.567005
0.978533 0.811810 0.642333
0.987920 0.825440 0.705049
0.995156 0.842205 0.758332
1.000003 0.860377 0.801931
1.000003 0.879268 0.838659
1.000003 0.897549 0.869052
1.000003 0.914271 0.893870
1.000003 0.929628 0.914854
1.000003 0.943149 0.932243
1.000003 0.955349 0.947250
0.405313 0.847530 0.144572
0.405602 0.847495 0.144535
0.406006 0.847448 0.144484
0.406569 0.847387 0.144418
0.407744 0.847271 0.144289
0.410630 0.847033 0.144017
0.415935 0.846700 0.143608
0.424767 0.846294 0.143057
0.438521 0.845828 0.142348
0.458791 0.845304 0.141457
0.487053 0.844716 0.140374
0.523452 0.844060 0.139176
0.567691 0.843312 0.138051
0.617109 0.842469 0.137452
0.668916 0.841519 0.138171
0.719968 0.840462 0.141533
0.767760 0.839312 0.149690
0.811026 0.838094 0.166514
0.852156 0.834525 0.201255
0.896052 0.831375 0.281181
0.924933 0.829395 0.369607
0.947181 0.829106 0.464942
0.964030 0.831192 0.551632
0.977101 0.836358 0.629209
0.986882 0.844733 0.694509
0.994411 0.856366 0.750216
1.000003 0.870192 0.795783
1.000003 0.885631 0.834058
1.000003 0.901425 0.865605
1.000003 0.916492 0.891260
1.000003 0.930768 0.912869
1.000003 0.943635 0.930720
1.000003 0.955446 0.946081
0.469702 0.877097 0.203586
0.469863 0.877068 0.203524
0.470090 0.877028 0.203442
0.470409 0.876976 0.203334
0.471085 0.876877 0.203128
0.472787 0.876677 0.202697
0.476013 0.876397 0.202072
0.481561 0.876058 0.201265
0.490497 0.875671 0.200272
0.504171 0.875243 0.199064
0.524094 0.874767 0.197610
0.551086 0.874241 0.195948
0.585761 0.873645 0.194189
0.626730 0.872974 0.192708
0.671977 0.872213 0.192209
0.718607 0.871354 0.193923
0.763856 0.870400 0.199841
0.805963 0.869353 0.213369
0.843602 0.868238 0.238662
0.879087 0.865114 0.277558
0.919070 0.862149 0.364779
0.943407 0.860322 0.452815
0.961440 0.859972 0.537157
0.975275 0.861678 0.615275
0.985571 0.865879 0.682465
0.993469 0.872934 0.740474
0.999325 0.882430 0.788167
1.000003 0.894076 0.828245
1.000003 0.906896 0.861204
1.000003 0.919834 0.887910
1.000003 0.932636 0.910318
1.000003 0.944557 0.928760
1.000003 0.955776 0.944577
0.529724 0.901665 0.281632
0.529806 0.901640 0.281556
0.529923 0.901606 0.281452
0.530090 0.901562 0.281317
0.530453 0.901479 0.281060
0.531406 0.901309 0.280530
0.533296 0.901074 0.279777
0.536683 0.900789 0.278832
0.542337 0.900468 0.277706
0.551296 0.900115 0.276379
0.564856 0.899728 0.274813
0.584054 0.899305 0.273006
0.609987 0.898831 0.270976
0.642352 0.898299 0.268944
0.680111 0.897696 0.267385
0.721047 0.897011 0.267218
0.762534 0.896240 0.269907
0.802510 0.895378 0.277531
0.839215 0.894430 0.292648
0.871161 0.893434 0.317448
0.902796 0.890627 0.358795
0.937988 0.887916 0.448449
0.957999 0.886274 0.526512
0.972963 0.885881 0.602509
0.983949 0.887215 0.670112
0.992319 0.890721 0.729748
0.998499 0.896451 0.779392
1.000003 0.904419 0.821351
1.000003 0.914059 0.855895
1.000003 0.924519 0.883837
1.000003 0.935471 0.907209
1.000003 0.946130 0.926373
1.000003 0.956506 0.942752
0.586401 0.922532 0.365436
0.586433 0.922511 0.365348
0.586481 0.922482 0.365232
0.586552 0.922445 0.365077
0.586718 0.922375 0.364786
0.587192 0.922232 0.364190
0.588218 0.922035 0.363354
0.590179 0.921797 0.362328
0.593611 0.921530 0.361141
0.599261 0.921240 0.359789
0.608127 0.920925 0.358243
0.621182 0.920585 0.356490
0.639633 0.920208 0.354501
0.663875 0.919790 0.352368
0.693761 0.919317 0.350326
0.727995 0.918781 0.348916
0.764485 0.918172 0.349094
0.801196 0.917482 0.352349
0.836093 0.916711 0.360760
0.867283 0.915877 0.376458
0.895002 0.914971 0.401552
0.922196 0.912519 0.440349
0.952866 0.910075 0.522215
0.969794 0.908548 0.592742
0.981837 0.908105 0.658546
0.990863 0.909117 0.718551
0.997469 0.911868 0.769604
1.000003 0.916575 0.813315
1.000003 0.923071 0.849535
1.000003 0.930833 0.878883
1.000003 0.939592 0.903401
1.000003 0.948635 0.923448
1.000003 0.957855 0.940520
0.600159 0.926562 0.389160
0.638159 0.939779 0.447659
0.638166 0.939755 0.447548
0.638180 0.939724 0.447403
0.638227 0.939665 0.447128
0.638409 0.939545 0.446569
0.638900 0.939379 0.445788
0.639962 0.939181 0.444842
0.641962 0.938959 0.443765
0.645417 0.938719 0.442564
0.651051 0.938461 0.441223
0.659652 0.938187 0.439732
0.672298 0.937887 0.438047
0.689686 0.937557 0.436192
0.712248 0.937188 0.434246
0.739540 0.936770 0.432470
0.770237 0.936295 0.431391
0.802676 0.935752 0.431901
0.834834 0.935139 0.435340
0.864554 0.934465 0.443227
0.891658 0.933714 0.457535
0.915106 0.932909 0.479480
0.937649 0.930831 0.512171
0.965068 0.928571 0.588257
0.978971 0.927197 0.649759
0.988994 0.926707 0.708278
0.996188 0.927422 0.759672
1.000003 0.929621 0.804620
1.000003 0.933410 0.842359
1.000003 0.938589 0.873147
1.000003 0.945033 0.898926
1.000003 0.952215 0.919988
1.000003 0.959997 0.937879
0.683992 0.953760 0.519587
0.683978 0.953745 0.519509
0.683961 0.953725 0.519407
0.683943 0.953698 0.519272
0.683921 0.953649 0.519017
0.683933 0.953548 0.518500
0.684106 0.953408 0.517783
0.684621 0.953242 0.516921
0.685730 0.953057 0.515951
0.687790 0.952857 0.514889
0.691306 0.952645 0.513726
0.696874 0.952421 0.512463
0.705354 0.952180 0.511057
0.717477 0.951918 0.509511
0.733925 0.951627 0.507834
0.754838 0.951300 0.506136
0.779629 0.950930 0.504677
0.807205 0.950506 0.503946
0.835850 0.950023 0.504765
0.863386 0.949486 0.508202
0.889304 0.948880 0.515731
0.912285 0.948216 0.528670
0.931678 0.947519 0.547572
0.951070 0.945704 0.576555
0.974685 0.943684 0.645002
0.986500 0.942418 0.700406
0.994574 0.941930 0.750713
1.000003 0.942453 0.796015
1.000003 0.944209 0.834824
1.000003 0.947223 0.866887
1.000003 0.951519 0.893918
1.000003 0.956801 0.916061
1.000003 0.962981 0.934863
0.725342 0.965336 0.583713
0.725318 0.965324 0.583642
0.725289 0.965307 0.583547
0.725253 0.965284 0.583424
0.725192 0.965243 0.583191
0.725107 0.965158 0.582718
0.725088 0.965041 0.582065
0.725268 0.964901 0.581283
0.725818 0.964747 0.580411
0.726981 0.964581 0.579468
0.729102 0.964406 0.578453
0.732609 0.964223 0.577369
0.738143 0.964027 0.576186
0.746339 0.963818 0.574898
0.757905 0.963589 0.573491
0.773287 0.963334 0.572002
0.792449 0.963046 0.570545
0.814897 0.962717 0.569369
0.839416 0.962341 0.568943
0.864070 0.961920 0.569966
0.888172 0.961440 0.573427
0.910206 0.960907 0.580423
0.929243 0.960336 0.591736
0.945688 0.959719 0.608322
0.961507 0.958201 0.632253
0.982534 0.956341 0.695029
0.992341 0.955205 0.743449
0.999075 0.954707 0.787972
1.000003 0.955065 0.827173
1.000003 0.956416 0.860184
1.000003 0.958878 0.888356
1.000003 0.962364 0.911596
1.000003 0.966881 0.931387
0.761263 0.974626 0.638926
0.761235 0.974615 0.638861
0.761199 0.974601 0.638775
0.761154 0.974582 0.638662
0.761075 0.974547 0.638450
0.760937 0.974475 0.638021
0.760813 0.974377 0.637427
0.760798 0.974259 0.636720
0.761013 0.974130 0.635936
0.761624 0.973992 0.635095
0.762868 0.973846 0.634199
0.765045 0.973695 0.633258
0.768617 0.973535 0.632248
0.774087 0.973366 0.631162
0.782075 0.973183 0.629984
0.793115 0.972982 0.628718
0.807483 0.972757 0.627407
0.825141 0.972501 0.626168
0.845405 0.972208 0.625259
0.866760 0.971879 0.625112
0.888531 0.971500 0.626355
0.909151 0.971077 0.629802
0.927475 0.970618 0.636180
0.943652 0.970113 0.646401
0.957155 0.969583 0.660579
0.970717 0.968262 0.681682
0.988752 0.966604 0.737599
0.997167 0.965560 0.781414
1.000003 0.965089 0.820156
1.000003 0.965330 0.853582
1.000003 0.966426 0.882605
1.000003 0.968432 0.906823
1.000003 0.971433 0.927585
0.759473 0.974045 0.636452
0.793317 0.982314 0.687795
0.793279 0.982302 0.687717
0.793230 0.982287 0.687616
0.793142 0.982257 0.687424
0.792980 0.982197 0.687035
0.792800 0.982114 0.686500
0.792671 0.982016 0.685863
0.792683 0.981907 0.685161
0.792948 0.981792 0.684411
0.793628 0.981671 0.683619
0.794930 0.981546 0.682797
0.797177 0.981414 0.681927
0.800746 0.981277 0.681005
0.806129 0.981131 0.680017
0.813829 0.980972 0.678953
0.824249 0.980795 0.677826
0.837629 0.980596 0.676682
0.853734 0.980369 0.675651
0.871541 0.980114 0.674989
0.890538 0.979818 0.675068
0.909274 0.979486 0.676449
0.926489 0.979122 0.679709
0.942097 0.978718 0.685587
0.955399 0.978287 0.694427
0.966851 0.977820 0.706841
0.977888 0.976719 0.724187
0.993844 0.975201 0.774893
1.000003 0.974254 0.814025
1.000003 0.973808 0.847242
1.000003 0.973959 0.876729
1.000003 0.974826 0.901732
1.000003 0.976539 0.923401
0.821033 0.988506 0.729777
0.821004 0.988499 0.729724
0.820967 0.988489 0.729654
0.820918 0.988476 0.729562
0.820828 0.988450 0.729389
0.820658 0.988400 0.729039
0.820452 0.988330 0.728557
0.820265 0.988247 0.727985
0.820161 0.988156 0.727354
0.820220 0.988059 0.726684
0.820551 0.987958 0.725982
0.821301 0.987854 0.725258
