3DLUTS/RED_IPP2CubesSDRCoreV1_13/REC2020/RWG_Log3G10 to REC2020_BT1886 with HIGH_CONTRAST and R_3_Soft size_33 v1.13.cube
# RED Digital Cinema Output Transform LUT for IPP2
# LUT Name = RWG_Log3G10 to REC2020_BT1886 with HIGH_CONTRAST and R_3_Soft size_33 v1.13
# Generated by version 1.13
# Settings used in creation of this LUT are:
# Development Color Space = REC2020
# Output Gamma Curve = BT1886
# Output Tonemap = HIGH_CONTRAST
# Highlight Rolloff = Rolloff 3 - soft
# Resolution = 33 x 33 x 33
TITLE "RED IPP2 LUT to map REDWideGamutRGB/Log3G10 to REC2020/BT1886/HIGH_CONTRAST/Rolloff 3 - soft"
LUT_3D_SIZE 5
0.000000 0.000000 0.000000
0.221401 0.018614 0.012462
0.855793 0.321773 0.262796
1.000003 0.841566 0.824990
1.000003 0.943693 0.937138
0.019457 0.258551 0.004385
0.233427 0.252779 0.005161
0.864307 0.388036 0.267490
1.000003 0.852292 0.836032
1.000003 0.948842 0.942700
0.442792 0.864957 0.176133
0.457566 0.863871 0.174302
0.830223 0.855888 0.206043
1.000003 0.890287 0.831161
1.000003 0.955598 0.945271
0.845782 0.993662 0.767012
0.845024 0.993452 0.765460
0.870790 0.992436 0.758088
0.981584 0.990110 0.781656
1.000003 0.986977 0.914541
0.929382 1.000003 0.890909
0.928818 1.000003 0.890026
0.931344 1.000003 0.886264
0.978943 1.000003 0.884520
1.000003 1.000003 0.898331
0.009058 0.004188 0.239990
0.212883 0.004288 0.239534
0.855154 0.310146 0.318231
1.000003 0.841469 0.825773
1.000003 0.943747 0.937280
0.006815 0.224211 0.229374
0.224722 0.224722 0.224722
0.863241 0.376767 0.322184
1.000003 0.851752 0.836231
1.000003 0.948671 0.942586
0.439317 0.863267 0.203536
0.457101 0.863692 0.203080
0.830419 0.855557 0.243334
1.000003 0.890108 0.831316
1.000003 0.955493 0.945183
0.844698 0.993437 0.765939
0.845489 0.993540 0.766686
0.871095 0.992521 0.759499
0.981119 0.989710 0.780222
1.000003 0.987047 0.914513
0.928758 1.000003 0.890068
0.929102 1.000003 0.890510
0.931591 1.000003 0.886771
0.979046 1.000003 0.885033
1.000003 1.000003 0.898788
0.039157 0.008188 0.840398
0.075735 0.008109 0.842127
0.786220 0.026262 0.834456
0.997889 0.795582 0.847937
1.000003 0.927558 0.927912
0.036487 0.019034 0.846783
0.074065 0.018566 0.846406
0.794759 0.045613 0.840063
0.999363 0.807800 0.854778
1.000003 0.933110 0.933019
0.313875 0.818598 0.826209
0.343347 0.819006 0.826434
0.818751 0.818751 0.818751
0.998409 0.864879 0.852929
1.000003 0.940621 0.933970
0.837553 0.991248 0.814270
0.838423 0.991363 0.814421
0.870174 0.991637 0.813752
0.981646 0.989198 0.832285
1.000003 0.986341 0.905237
0.925874 1.000003 0.895141
0.926224 1.000003 0.895442
0.932154 1.000003 0.896348
0.979243 1.000003 0.896223
1.000003 1.000003 0.908093
0.005716 0.003663 1.000003
0.006532 0.003663 1.000003
0.743202 0.003505 1.000003
0.964306 0.138496 0.985945
1.000003 0.861292 0.972785
0.004994 0.003663 1.000003
0.005684 0.003663 1.000003
0.749323 0.003663 1.000003
0.967179 0.157494 0.987929
1.000003 0.870114 0.974953
0.003825 0.636768 0.996278
0.003955 0.634264 0.996326
0.733774 0.608956 0.992878
0.975068 0.712034 0.989312
1.000003 0.884018 0.981648
0.793965 0.977975 0.980706
0.795116 0.978108 0.980828
0.843945 0.978386 0.980730
0.977928 0.977928 0.977928
1.000003 0.976831 0.975292
0.916155 1.000003 0.970270
0.916552 1.000003 0.970320
0.924003 1.000003 0.970314
0.976965 1.000003 0.968667
1.000003 1.000003 0.971631
0.003505 0.003505 1.000003
0.003505 0.003505 1.000003
0.677647 0.003505 1.000003
0.966815 0.003663 1.000003
0.992473 0.370091 1.000003
0.003505 0.003505 1.000003
0.003505 0.003505 1.000003
0.681268 0.003505 1.000003
0.969600 0.003663 1.000003
0.993985 0.412127 1.000003
0.003505 0.222393 1.000003
0.003505 0.215049 1.000003
0.492404 0.141801 1.000003
0.969665 0.396096 1.000003
0.998430 0.722152 1.000003
0.670421 0.965591 1.000003
0.671673 0.965630 1.000003
0.780675 0.965373 1.000003
0.971227 0.964441 1.000003
0.999321 0.966949 1.000003
0.900232 1.000003 1.000003
0.900669 1.000003 1.000003
0.910439 1.000003 1.000003
0.974450 1.000003 1.000003
1.000003 1.000003 1.000003
