3DLUTS/RED_IPP2CubesSDRCoreV1_13/REC2020/RWG_Log3G10 to REC2020_BT1886 with MEDIUM_CONTRAST and R_3_Soft size_33 v1.13.cube
# RED Digital Cinema Output Transform LUT for IPP2
# LUT Name = RWG_Log3G10 to REC2020_BT1886 with MEDIUM_CONTRAST and R_3_Soft size_33 v1.13
# Generated by version 1.13
# Settings used in creation of this LUT are:
# Development Color Space = REC2020
# Output Gamma Curve = BT1886
# Output Tonemap = MEDIUM_CONTRAST
# Highlight Rolloff = Rolloff 3 - soft
# Resolution = 33 x 33 x 33
TITLE "RED IPP2 LUT to map REDWideGamutRGB/Log3G10 to REC2020/BT1886/MEDIUM_CONTRAST/Rolloff 3 - soft"
LUT_3D_SIZE 9
0.000000 0.000000 0.000000
0.057505 0.003505 0.003505
0.244448 0.021325 0.014346
0.540363 0.085751 0.061067
0.788604 0.229659 0.172372
0.926478 0.493081 0.440163
0.984927 0.728225 0.699896
1.000003 0.868793 0.854957
1.000003 0.943606 0.937043
0.003505 0.073106 0.003505
0.062900 0.071610 0.003505
0.246276 0.059720 0.011694
0.542596 0.105686 0.058992
0.790271 0.239554 0.172201
0.927389 0.497806 0.442845
0.985331 0.730693 0.702271
1.000003 0.870213 0.856470
1.000003 0.944402 0.937907
0.023099 0.287238 0.004624
0.044826 0.286627 0.004656
0.259559 0.282262 0.004873
0.556070 0.274140 0.042302
0.800413 0.334305 0.164561
0.933071 0.536579 0.458344
0.987866 0.747813 0.717334
1.000003 0.879518 0.866165
1.000003 0.949538 0.943445
0.128057 0.602696 0.023435
0.140294 0.602314 0.023465
0.252968 0.599252 0.023421
0.556729 0.592692 0.025518
0.803434 0.580917 0.123486
0.936364 0.637162 0.450399
0.989790 0.775082 0.727033
1.000003 0.889686 0.874443
1.000003 0.954605 0.948565
0.337933 0.811495 0.102719
0.340388 0.811299 0.102617
0.376423 0.809804 0.101557
0.546908 0.806532 0.098513
0.772104 0.801607 0.116118
0.929017 0.791900 0.384296
0.987951 0.824828 0.705430
1.000003 0.897443 0.869164
1.000003 0.955350 0.947287
0.586397 0.922491 0.365524
0.586597 0.922391 0.365112
0.591548 0.921657 0.361996
0.636008 0.920259 0.355107
0.763231 0.918176 0.349325
0.894986 0.914953 0.401778
0.981840 0.908086 0.658625
1.000003 0.923062 0.849555
1.000003 0.957856 0.940527
0.761253 0.974618 0.638920
0.761132 0.974568 0.638617
0.760885 0.974204 0.636429
0.767899 0.973568 0.632507
0.806951 0.972770 0.627536
0.888514 0.971506 0.626440
0.957162 0.969588 0.660654
1.000003 0.965093 0.820174
1.000003 0.971436 0.927589
0.867111 0.997817 0.798903
0.866992 0.997792 0.798704
0.866260 0.997610 0.797278
0.866534 0.997303 0.794877
0.874834 0.996966 0.792256
0.905788 0.996499 0.789300
0.953068 0.995752 0.790671
0.987155 0.994665 0.811698
1.000003 0.991810 0.910077
0.929386 1.000003 0.890915
0.929303 1.000003 0.890788
0.928733 1.000003 0.889884
0.928111 1.000003 0.888389
0.929349 1.000003 0.886882
0.937702 1.000003 0.885239
0.959259 1.000003 0.883740
0.984742 1.000003 0.885678
1.000003 1.000003 0.898325
0.003505 0.003505 0.066219
0.052638 0.003505 0.065785
0.243720 0.017003 0.040258
0.540112 0.082257 0.074726
0.788566 0.228012 0.181626
0.926493 0.492778 0.442467
0.984941 0.728253 0.700287
1.000003 0.868844 0.855064
1.000003 0.943642 0.937090
0.003505 0.057625 0.060174
0.058073 0.058073 0.058073
0.245420 0.048504 0.034840
0.542222 0.101187 0.072723
0.790154 0.237782 0.181692
0.927364 0.497364 0.445075
0.985327 0.730624 0.702564
1.000003 0.870206 0.856513
1.000003 0.944404 0.937917
0.021636 0.284123 0.007069
0.042281 0.284183 0.006906
0.258747 0.279657 0.008010
0.555725 0.271849 0.051319
0.800307 0.332944 0.172606
0.933050 0.536228 0.460283
0.987863 0.747758 0.717582
1.000003 0.879514 0.866203
1.000003 0.949542 0.943456
0.127088 0.601718 0.026523
0.139406 0.601811 0.026403
0.252416 0.598698 0.026584
0.556593 0.592089 0.029157
0.803347 0.580441 0.128380
0.936346 0.636973 0.452161
0.989788 0.775046 0.727245
1.000003 0.889687 0.874478
1.000003 0.954610 0.948576
0.337455 0.811196 0.104905
0.340302 0.811276 0.104887
0.376312 0.809771 0.103983
0.546850 0.806483 0.101140
0.772140 0.801553 0.119265
0.929005 0.791868 0.386203
0.987950 0.824820 0.705655
1.000003 0.897447 0.869200
1.000003 0.955356 0.947299
0.586081 0.922373 0.366231
0.586689 0.922420 0.366408
0.591630 0.921684 0.363379
0.636059 0.920284 0.356641
0.763269 0.918198 0.350975
0.893660 0.913713 0.400778
0.981841 0.908106 0.658900
1.000003 0.923075 0.849597
1.000003 0.957863 0.940540
0.761040 0.974564 0.638765
0.761222 0.974589 0.638916
0.760972 0.974225 0.636739
0.767975 0.973589 0.632841
0.807003 0.972790 0.627896
0.888549 0.971525 0.626809
0.957189 0.969608 0.660972
1.000003 0.965111 0.820238
1.000003 0.971447 0.927605
0.866971 0.997790 0.798724
0.867055 0.997803 0.798826
0.866323 0.997621 0.797402
0.866594 0.997315 0.795005
0.874885 0.996978 0.792388
0.905823 0.996511 0.789436
0.953091 0.995763 0.790805
0.987170 0.994677 0.811817
1.000003 0.991821 0.910103
0.929297 1.000003 0.890790
0.929345 1.000003 0.890855
0.928774 1.000003 0.889951
0.928151 1.000003 0.888456
0.929388 1.000003 0.886950
0.937733 1.000003 0.885308
0.959280 1.000003 0.883810
0.984756 1.000003 0.885745
1.000003 1.000003 0.898386
0.010230 0.004298 0.265567
0.022583 0.004307 0.265711
0.234952 0.004418 0.265157
0.536069 0.051224 0.247733
0.787057 0.206507 0.277319
0.926119 0.487111 0.468431
0.984864 0.727247 0.703784
1.000003 0.868658 0.855505
1.000003 0.943620 0.937162
0.009749 0.006445 0.265457
0.023035 0.006391 0.265049
0.236598 0.006945 0.264387
0.538161 0.063868 0.246282
0.788643 0.217006 0.277313
0.926990 0.491799 0.470698
0.985250 0.729628 0.705987
1.000003 0.870019 0.856940
1.000003 0.944382 0.937986
0.007790 0.248244 0.254086
0.019235 0.248270 0.253635
0.248774 0.248774 0.248774
0.550717 0.244572 0.227339
0.798219 0.315234 0.270868
0.932398 0.530512 0.483598
0.987670 0.746176 0.719922
1.000003 0.878931 0.866122
1.000003 0.949292 0.943265
0.113982 0.590594 0.124896
0.126529 0.590693 0.124070
0.245212 0.591091 0.116549
0.554185 0.583776 0.140207
0.801480 0.573782 0.211042
0.935742 0.633796 0.473621
0.989616 0.773853 0.729148
1.000003 0.889201 0.874374
1.000003 0.954401 0.948409
0.332373 0.808234 0.143866
0.335348 0.808315 0.143723
0.374108 0.808793 0.142187
0.545583 0.805294 0.143567
0.772074 0.800298 0.171245
0.928476 0.791031 0.409851
0.987775 0.824284 0.707692
1.000003 0.897084 0.869101
1.000003 0.955172 0.947141
0.583531 0.921391 0.379869
0.584163 0.921439 0.379990
0.591932 0.921753 0.380638
0.636161 0.920312 0.376143
0.763388 0.918192 0.372203
0.895262 0.914969 0.421022
0.981678 0.908145 0.661632
1.000003 0.922995 0.849521
1.000003 0.957740 0.940373
0.759488 0.974152 0.638935
0.759672 0.974178 0.639075
0.761534 0.974349 0.640017
0.768457 0.973706 0.636454
0.807328 0.972900 0.631863
0.888775 0.971631 0.630958
0.957363 0.969717 0.664472
1.000003 0.965214 0.820449
1.000003 0.971455 0.927429
0.865974 0.997597 0.797676
0.866058 0.997609 0.797776
0.866753 0.997698 0.798461
0.867004 0.997390 0.796119
0.875232 0.997052 0.793564
0.906060 0.996584 0.790669
0.953248 0.995838 0.792038
0.987274 0.994753 0.812893
1.000003 0.991892 0.910064
0.928659 1.000003 0.889942
0.928707 1.000003 0.890007
0.929063 1.000003 0.890456
0.928434 1.000003 0.888971
0.929654 1.000003 0.887477
0.937949 1.000003 0.885848
0.959426 1.000003 0.884359
0.984850 1.000003 0.886281
1.000003 1.000003 0.898866
0.029732 0.007003 0.563064
0.035793 0.007008 0.563456
0.186722 0.007071 0.565030
0.506723 0.009093 0.562382
0.773379 0.108878 0.540784
0.920689 0.442232 0.574917
0.982998 0.713268 0.717372
1.000003 0.862818 0.853435
1.000003 0.940845 0.934784
0.029380 0.008489 0.564449
0.035842 0.008453 0.564310
0.187250 0.008565 0.565861
0.508609 0.011537 0.563194
0.774914 0.116480 0.541428
0.921566 0.447540 0.576311
0.983392 0.715735 0.719226
1.000003 0.864202 0.854812
1.000003 0.941618 0.935606
0.027388 0.094619 0.568354
0.033161 0.094191 0.568232
0.191431 0.091769 0.566106
0.520952 0.108819 0.564135
0.784095 0.227041 0.542040
0.926991 0.491844 0.584119
0.985858 0.732964 0.730997
1.000003 0.873263 0.863629
1.000003 0.946600 0.940874
0.055485 0.539402 0.549463
0.063601 0.539468 0.549381
0.207733 0.539661 0.547744
0.539860 0.539860 0.539860
0.785692 0.534761 0.518109
0.929560 0.609038 0.577680
0.987569 0.761511 0.737862
1.000003 0.883082 0.870783
1.000003 0.951378 0.945556
0.306855 0.795186 0.445792
0.310153 0.795274 0.445567
0.352843 0.795793 0.443324
0.535789 0.795916 0.435117
0.769111 0.790341 0.458096
0.922723 0.783389 0.526931
0.985639 0.818110 0.717244
1.000003 0.892230 0.865376
1.000003 0.952358 0.944264
0.575656 0.918137 0.481187
0.576341 0.918187 0.481144
0.584821 0.918519 0.480656
0.633635 0.918855 0.478154
0.762001 0.916500 0.483112
0.895002 0.913255 0.516213
0.979534 0.907011 0.675738
1.000003 0.921040 0.845636
1.000003 0.955598 0.937264
0.756314 0.973183 0.654290
0.756505 0.973208 0.654380
0.758468 0.973383 0.654976
0.768652 0.973618 0.655564
0.807340 0.972763 0.653388
0.888840 0.971456 0.653888
0.957513 0.969553 0.683650
1.000003 0.965150 0.818454
1.000003 0.970735 0.923989
0.864239 0.997224 0.798748
0.864324 0.997237 0.798836
0.865034 0.997326 0.799441
0.867539 0.997457 0.800313
0.875663 0.997109 0.798216
0.906336 0.996633 0.795760
0.953438 0.995881 0.797250
0.987412 0.994802 0.817275
1.000003 0.991961 0.907476
0.927604 1.000003 0.889131
0.927652 1.000003 0.889193
0.928009 1.000003 0.889621
0.928859 1.000003 0.890270
0.930047 1.000003 0.888866
0.938266 1.000003 0.887332
0.959637 1.000003 0.885921
0.984987 1.000003 0.887827
1.000003 1.000003 0.900199
0.039135 0.008442 0.780200
0.042376 0.008438 0.780553
0.106515 0.008393 0.782337
0.463561 0.009202 0.782393
0.723781 0.019677 0.776269
0.905142 0.274799 0.754892
0.977353 0.664156 0.775573
1.000003 0.844341 0.855300
1.000003 0.932451 0.929234
0.038842 0.009278 0.781577
0.042303 0.009254 0.781562
0.106436 0.009200 0.783334
0.464686 0.010195 0.783361
0.725275 0.021442 0.777316
0.906052 0.281764 0.755899
0.977780 0.666997 0.776766
1.000003 0.845836 0.856482
1.000003 0.933275 0.930048
0.036393 0.030820 0.787852
0.039431 0.030711 0.787850
0.104906 0.029870 0.787072
0.470970 0.031798 0.787273
0.735092 0.050946 0.782663
0.911632 0.345230 0.761936
0.980445 0.687124 0.784481
1.000003 0.855651 0.864115
1.000003 0.938587 0.935277
0.045849 0.406782 0.786274
0.049189 0.406465 0.786279
0.106376 0.403905 0.785842
0.481670 0.400825 0.782432
0.747664 0.421951 0.779631
0.913606 0.526786 0.763242
0.982136 0.722982 0.790393
1.000003 0.866480 0.870529
1.000003 0.943629 0.939879
0.216828 0.758526 0.767144
0.221295 0.758601 0.767188
0.276420 0.759014 0.767195
0.504686 0.758953 0.764846
0.758762 0.758762 0.758762
0.906188 0.754556 0.745000
0.979290 0.795731 0.779494
1.000003 0.877508 0.865307
1.000003 0.944225 0.937809
0.551253 0.908245 0.708486
0.552045 0.908300 0.708446
0.561908 0.908660 0.708031
0.618120 0.909036 0.706113
0.754857 0.908784 0.700989
0.892468 0.905273 0.715831
0.973257 0.900839 0.749449
1.000003 0.914693 0.846953
1.000003 0.949431 0.930312
0.749699 0.970669 0.728987
0.749904 0.970697 0.728990
0.752029 0.970888 0.728975
0.763200 0.971146 0.728595
0.805021 0.971207 0.726909
0.887566 0.969723 0.731521
0.957069 0.967838 0.750626
0.999264 0.964074 0.825338
1.000003 0.968556 0.916521
0.861846 0.996528 0.814467
0.861933 0.996542 0.814519
0.862668 0.996636 0.814878
0.865339 0.996774 0.815361
0.875456 0.996858 0.815476
0.906095 0.996334 0.814924
0.953324 0.995551 0.817083
0.987401 0.994490 0.833908
1.000003 0.991844 0.902758
0.926445 1.000003 0.891585
0.926494 1.000003 0.891636
0.926854 1.000003 0.891996
0.927735 1.000003 0.892537
0.930270 1.000003 0.892955
0.938417 1.000003 0.891885
0.959721 1.000003 0.890865
0.985048 1.000003 0.892800
1.000003 1.000003 0.904358
0.033607 0.006794 0.908472
0.035129 0.006783 0.908713
0.061430 0.006682 0.910057
0.381764 0.006685 0.910442
0.700020 0.009234 0.907837
0.858538 0.040052 0.899322
0.967684 0.537022 0.880437
1.000003 0.805487 0.889218
1.000003 0.917558 0.929650
0.033239 0.007036 0.909433
0.034898 0.007023 0.909449
0.061087 0.006916 0.910784
0.382228 0.006919 0.911152
0.701154 0.009743 0.908522
0.859547 0.041527 0.900095
0.968164 0.540974 0.881185
1.000003 0.807265 0.889998
1.000003 0.918491 0.930357
0.030145 0.013255 0.914417
0.031549 0.013209 0.914440
0.057965 0.012858 0.914208
0.382351 0.013004 0.914447
0.707748 0.020025 0.911612
0.866269 0.060488 0.904726
0.971144 0.569753 0.886169
1.000003 0.818959 0.895181
1.000003 0.924497 0.934952
0.027637 0.151772 0.914424
0.028813 0.151315 0.914449
0.050966 0.147466 0.914290
0.378367 0.141300 0.912395
0.715027 0.156115 0.911068
0.875063 0.264482 0.907176
0.972761 0.627070 0.892124
1.000003 0.832093 0.900924
1.000003 0.930101 0.939309
0.088091 0.684015 0.906582
0.090031 0.683934 0.906620
0.119452 0.683177 0.906718
0.398603 0.680981 0.905705
0.722936 0.679547 0.902561
0.880686 0.692578 0.900269
0.968929 0.744473 0.890521
1.000003 0.848737 0.900766
1.000003 0.930982 0.938257
0.477417 0.886136 0.892187
0.459593 0.877792 0.884036
0.492399 0.886517 0.892477
0.569992 0.886804 0.892234
0.738279 0.886454 0.890036
0.886205 0.886205 0.886205
0.962593 0.883113 0.878449
0.998802 0.899926 0.892053
1.000003 0.938652 0.932191
0.732170 0.963911 0.861762
0.732399 0.963942 0.861765
0.734818 0.964150 0.861759
0.747794 0.964432 0.861488
0.795573 0.964509 0.860149
0.883035 0.964196 0.857142
0.955222 0.962226 0.865128
0.995064 0.959705 0.877038
1.000003 0.964433 0.920369
0.856722 0.994606 0.867918
0.856814 0.994621 0.867927
0.857601 0.994727 0.867981
0.860516 0.994882 0.867983
0.871638 0.994981 0.867637
0.904220 0.994932 0.866441
0.952280 0.994034 0.869862
0.986941 0.993004 0.879717
1.000003 0.990954 0.911023
0.924666 1.000003 0.906077
0.924715 1.000003 0.906105
0.925087 1.000003 0.906300
0.926013 1.000003 0.906582
0.928740 1.000003 0.906754
0.938022 1.000003 0.906640
0.959388 1.000003 0.906892
0.984859 1.000003 0.908970
1.000003 1.000003 0.918004
0.015779 0.004360 0.975482
0.016228 0.004352 0.975627
0.023615 0.004298 0.976496
0.185717 0.004188 0.976544
0.668973 0.004352 0.975478
0.848690 0.007634 0.970945
0.932829 0.081206 0.961702
0.995268 0.727053 0.946590
1.000003 0.891883 0.949697
0.015416 0.004377 0.976066
0.015947 0.004377 0.976083
0.023221 0.004326 0.976946
0.184774 0.004208 0.976984
0.669957 0.004368 0.975909
0.849549 0.007813 0.971355
0.933456 0.082812 0.962170
0.995509 0.729424 0.947058
1.000003 0.893017 0.950172
0.012728 0.004825 0.979388
0.013139 0.004819 0.979408
0.020200 0.004769 0.979391
0.176328 0.004592 0.979349
0.675384 0.004857 0.978193
0.854838 0.011882 0.973418
0.937673 0.100247 0.965160
0.997016 0.745061 0.950258
1.000003 0.900296 0.953345
0.007592 0.045788 0.977798
0.007772 0.045589 0.977823
0.011486 0.044063 0.977853
0.149299 0.040459 0.976336
0.670355 0.044284 0.975303
0.859819 0.072178 0.972662
0.943424 0.214503 0.967988
0.997998 0.763004 0.954943
1.000003 0.906791 0.957254
0.011178 0.559134 0.973361
0.011474 0.558763 0.973381
0.016781 0.555518 0.973380
0.149241 0.544816 0.972080
0.671956 0.539181 0.970267
0.863058 0.560712 0.968832
0.947109 0.627213 0.966373
0.996457 0.792457 0.957554
1.000003 0.907898 0.958917
0.223938 0.849638 0.964753
0.225365 0.849631 0.964783
0.247342 0.849540 0.964945
0.416062 0.849006 0.964820
0.687075 0.847700 0.963651
0.867549 0.847053 0.961369
0.949198 0.853536 0.959936
0.992948 0.873063 0.954816
1.000003 0.920796 0.957667
0.688745 0.951813 0.955703
0.689022 0.951843 0.955731
0.692105 0.952047 0.955912
0.709651 0.952308 0.956055
0.772054 0.952327 0.955585
0.875270 0.951965 0.953924
0.951795 0.951795 0.951795
0.989170 0.949840 0.947683
1.000003 0.955993 0.952233
0.845208 0.990328 0.940377
0.845309 0.990345 0.940387
0.846174 0.990461 0.940449
0.849504 0.990631 0.940488
0.862370 0.990738 0.940262
0.899116 0.990691 0.939281
0.949645 0.990444 0.937603
0.985734 0.989403 0.941553
1.000003 0.988059 0.945234
0.921010 1.000003 0.940891
0.921062 1.000003 0.940899
0.921456 1.000003 0.940954
0.922454 1.000003 0.941016
0.925447 1.000003 0.940987
0.935618 1.000003 0.940671
0.958078 1.000003 0.939884
0.984105 1.000003 0.941986
1.000003 1.000003 0.946907
0.004585 0.003505 1.000003
0.004605 0.003505 1.000003
0.005014 0.003505 1.000003
0.020213 0.003505 1.000003
0.607719 0.003505 1.000003
0.844177 0.003505 1.000003
0.930381 0.006371 0.999624
0.971739 0.165669 0.991355
1.000003 0.848106 0.979864
0.004523 0.003505 1.000003
0.004551 0.003505 1.000003
0.004940 0.003505 1.000003
0.019578 0.003505 1.000003
0.608449 0.003505 1.000003
0.845071 0.003505 1.000003
0.930952 0.006417 0.999850
0.972118 0.168184 0.991617
1.000003 0.849580 0.980145
0.004130 0.003505 1.000003
0.004154 0.003505 1.000003
0.004479 0.003505 1.000003
0.015242 0.003505 1.000003
0.611842 0.003505 1.000003
0.850667 0.003505 1.000003
0.934560 0.007696 1.000003
0.974679 0.191908 0.993335
1.000003 0.858988 0.982078
0.003721 0.003897 1.000003
0.003721 0.003897 1.000003
0.003761 0.003850 1.000003
0.008316 0.003793 1.000003
0.597766 0.003721 1.000003
0.852490 0.004188 1.000003
0.937499 0.044161 1.000003
0.978281 0.303236 0.995332
1.000003 0.866766 0.985071
0.003505 0.248111 1.000003
0.003505 0.247288 1.000003
0.003505 0.240896 1.000003
0.004326 0.223659 1.000003
0.543893 0.197514 1.000003
0.842447 0.221586 0.999583
0.939325 0.362370 0.997962
0.980756 0.605904 0.995401
1.000003 0.868277 0.987569
0.004711 0.805674 0.998634
0.004734 0.805583 0.998647
0.005196 0.804719 0.998673
0.031036 0.800766 0.997948
0.561410 0.795078 0.996480
0.844834 0.793258 0.995146
0.940425 0.802346 0.994126
0.982005 0.826162 0.992806
1.000003 0.891522 0.988234
0.554972 0.934802 0.991594
0.555314 0.934811 0.991611
0.560431 0.934861 0.991722
0.596432 0.934844 0.991801
0.709018 0.934491 0.991493
0.852635 0.933720 0.990510
0.942743 0.933445 0.989083
0.982704 0.936388 0.988298
1.000003 0.943090 0.985696
0.820821 0.983990 0.986413
0.820932 0.984007 0.986429
0.821929 0.984124 0.986537
0.826159 0.984293 0.986673
0.842985 0.984386 0.986643
0.888653 0.984298 0.986145
0.946162 0.984032 0.985053
0.983940 0.983940 0.983940
1.000003 0.982817 0.981782
0.913991 1.000003 0.978502
0.914046 1.000003 0.978510
0.914468 1.000003 0.978566
0.915573 1.000003 0.978637
0.919001 1.000003 0.978639
0.930626 1.000003 0.978415
0.955535 1.000003 0.977736
0.982660 1.000003 0.976843
1.000003 1.000003 0.978824
0.003505 0.003505 1.000003
0.003505 0.003505 1.000003
0.003505 0.003505 1.000003
0.003663 0.003505 1.000003
0.098588 0.003505 1.000003
0.845828 0.003505 1.000003
0.938232 0.003505 1.000003
0.972347 0.005901 1.000003
0.992448 0.369459 1.000003
0.003505 0.003505 1.000003
0.003505 0.003505 1.000003
0.003505 0.003505 1.000003
0.003505 0.003505 1.000003
0.094812 0.003505 1.000003
0.846892 0.003505 1.000003
0.938895 0.003505 1.000003
0.972711 0.005891 1.000003
0.992674 0.375350 1.000003
0.003505 0.003505 1.000003
0.003505 0.003505 1.000003
0.003505 0.003505 1.000003
0.003505 0.003505 1.000003
0.070706 0.003505 1.000003
0.853768 0.003505 1.000003
0.943215 0.003505 1.000003
0.975035 0.006287 1.000003
0.994203 0.418912 1.000003
0.003505 0.003505 1.000003
0.003505 0.003505 1.000003
0.003505 0.003505 1.000003
0.003505 0.003505 1.000003
0.038901 0.003505 1.000003
0.858383 0.003505 1.000003
0.946927 0.003505 1.000003
0.976732 0.029376 1.000003
0.996390 0.511405 1.000003
0.003505 0.004925 1.000003
0.003505 0.004883 1.000003
0.003505 0.004631 1.000003
0.003505 0.004288 1.000003
0.011348 0.003955 1.000003
0.826485 0.004208 1.000003
0.934054 0.034656 1.000003
0.977588 0.202999 1.000003
0.997998 0.655439 1.000003
0.003505 0.743466 1.000003
0.003505 0.743232 1.000003
0.003505 0.741281 1.000003
0.003505 0.734707 1.000003
0.005855 0.708409 1.000003
0.803046 0.691012 1.000003
0.930774 0.707449 1.000003
0.977974 0.750754 1.000003
0.998866 0.816623 1.000003
0.004571 0.918127 1.000003
0.004564 0.918113 1.000003
0.004729 0.917916 1.000003
0.014486 0.916529 1.000003
0.406059 0.913466 1.000003
0.811374 0.911585 1.000003
0.932433 0.910959 1.000003
0.978273 0.914806 1.000003
0.999174 0.923931 1.000003
0.753767 0.975764 1.000003
0.753844 0.975772 1.000003
0.754832 0.975829 1.000003
0.761648 0.975895 1.000003
0.791451 0.975859 1.000003
0.862107 0.975586 1.000003
0.935912 0.975143 1.000003
0.979451 0.975031 1.000003
0.999394 0.976424 1.000003
0.900225 1.000003 1.000003
0.900284 1.000003 1.000003
0.900744 1.000003 1.000003
0.902051 1.000003 1.000003
0.906410 1.000003 1.000003
0.921143 1.000003 1.000003
0.950920 1.000003 1.000003
0.981026 1.000003 1.000003
1.000003 1.000003 1.000003
