3DLUTS/RED_IPP2CubesSDRCoreV1_13/REC2020/RWG_Log3G10 to REC2020_BT1886 with NO_CONTRAST and R_3_Soft size_33 v1.13.cube
# RED Digital Cinema Output Transform LUT for IPP2
# LUT Name = RWG_Log3G10 to REC2020_BT1886 with NO_CONTRAST and R_3_Soft size_33 v1.13
# Generated by version 1.13
# Settings used in creation of this LUT are:
# Development Color Space = REC2020
# Output Gamma Curve = BT1886
# Output Tonemap = NO_CONTRAST
# Highlight Rolloff = Rolloff 3 - soft
# Resolution = 33 x 33 x 33
TITLE "RED IPP2 LUT to map REDWideGamutRGB/Log3G10 to REC2020/BT1886/NO_CONTRAST/Rolloff 3 - soft"
LUT_3D_SIZE 9
0.000000 0.000000 0.000000
0.114955 0.003505 0.003505
0.306808 0.005674 0.004617
0.533582 0.044409 0.030183
0.739951 0.150924 0.107458
0.885481 0.371407 0.308655
0.966072 0.635314 0.596988
1.000003 0.829505 0.811689
1.000003 0.938912 0.931906
0.003505 0.161052 0.003505
0.135657 0.157380 0.003505
0.323975 0.150426 0.003972
0.552674 0.165697 0.025624
0.755379 0.235335 0.108545
0.895278 0.419467 0.329030
0.970833 0.660452 0.620039
1.000003 0.843421 0.826490
1.000003 0.945694 0.939280
0.012327 0.386346 0.003825
0.121106 0.382179 0.003825
0.340624 0.377120 0.003825
0.566131 0.364526 0.017933
0.766326 0.383857 0.098333
0.902674 0.493322 0.337999
0.974547 0.687649 0.637739
1.000003 0.855626 0.838551
1.000003 0.951332 0.945327
0.096054 0.610734 0.015686
0.169182 0.607883 0.015485
0.324909 0.604134 0.014969
0.561599 0.599145 0.016357
0.765503 0.586557 0.076690
0.903802 0.610576 0.312983
0.975803 0.722094 0.639539
1.000003 0.864279 0.843715
1.000003 0.954538 0.948458
0.279904 0.781816 0.071231
0.302564 0.780049 0.070408
0.379938 0.777918 0.068847
0.546938 0.774917 0.067164
0.738937 0.770606 0.078147
0.896135 0.760072 0.257128
0.973688 0.785395 0.614413
1.000003 0.873788 0.838786
1.000003 0.955234 0.947824
0.508761 0.894766 0.250156
0.512757 0.893748 0.247019
0.532319 0.892618 0.243005
0.598290 0.891188 0.236857
0.727796 0.889031 0.233972
0.862590 0.885721 0.284208
0.966914 0.877910 0.566276
1.000003 0.900088 0.820515
1.000003 0.956126 0.943234
0.705162 0.960003 0.552082
0.704485 0.959468 0.549185
0.706700 0.958900 0.546049
0.720588 0.958255 0.542270
0.767293 0.957395 0.537211
0.855029 0.956008 0.536187
0.938786 0.953745 0.576721
0.999418 0.948529 0.788321
1.000003 0.964735 0.933040
0.844261 0.993383 0.764680
0.843224 0.993132 0.762833
0.842593 0.992870 0.760909
0.843897 0.992591 0.758846
0.852541 0.992265 0.756435
0.881503 0.991802 0.753433
0.934139 0.991007 0.753404
0.980994 0.989627 0.778324
1.000003 0.986506 0.914708
0.929609 1.000003 0.891235
0.928925 1.000003 0.890191
0.928278 1.000003 0.889115
0.927885 1.000003 0.887996
0.928589 1.000003 0.886805
0.933451 1.000003 0.885437
0.949683 1.000003 0.883811
0.978368 1.000003 0.884083
1.000003 1.000003 0.898000
0.003505 0.003505 0.133979
0.104308 0.003505 0.135880
0.303632 0.004037 0.126931
0.532285 0.032373 0.125507
0.739822 0.136947 0.173632
0.885741 0.366978 0.337471
0.966282 0.635486 0.602915
1.000003 0.830135 0.813028
1.000003 0.939299 0.932387
0.003505 0.123183 0.129284
0.124365 0.124365 0.124365
0.319769 0.117591 0.103186
0.550451 0.139322 0.104192
0.754574 0.221887 0.170852
0.895119 0.414745 0.355634
0.970838 0.659812 0.624375
1.000003 0.843489 0.827115
1.000003 0.945792 0.939435
0.008376 0.368678 0.028563
0.109485 0.369488 0.024830
0.336734 0.363361 0.029937
0.564179 0.351772 0.062928
0.765626 0.374934 0.145762
0.902552 0.490048 0.361924
0.974561 0.687187 0.641398
1.000003 0.855721 0.839103
1.000003 0.951435 0.945477
0.089635 0.603748 0.036228
0.164100 0.604622 0.034926
0.321882 0.600535 0.035747
0.560916 0.595397 0.039547
0.764963 0.583256 0.107423
0.903692 0.608855 0.335438
0.975822 0.721780 0.642931
1.000003 0.864386 0.844236
1.000003 0.954644 0.948609
0.275746 0.778989 0.087493
0.301519 0.779726 0.087046
0.378818 0.777498 0.086456
0.546521 0.774408 0.085509
0.739251 0.770084 0.099228
0.896097 0.759672 0.278545
0.973708 0.785315 0.617973
1.000003 0.873895 0.839316
1.000003 0.955339 0.947977
0.505733 0.893501 0.261145
0.513373 0.893986 0.262078
0.532763 0.892835 0.259045
0.598550 0.891383 0.254022
0.728098 0.889207 0.251841
0.862989 0.885899 0.299696
0.966955 0.878078 0.570283
1.000003 0.900224 0.821095
1.000003 0.956227 0.943394
0.703119 0.959410 0.551656
0.705289 0.959679 0.553032
0.707452 0.959107 0.550056
0.721221 0.958458 0.546468
0.767742 0.957594 0.541624
0.855367 0.956205 0.540673
0.939057 0.953945 0.580497
0.999447 0.948699 0.789062
1.000003 0.964836 0.933214
0.842967 0.993117 0.763132
0.843805 0.993246 0.764077
0.843163 0.992984 0.762170
0.844439 0.992703 0.760128
0.853011 0.992377 0.757743
0.881843 0.991915 0.754769
0.934368 0.991121 0.754731
0.981141 0.989743 0.779489
1.000003 0.986604 0.914941
0.928867 1.000003 0.890202
0.929270 1.000003 0.890747
0.928620 1.000003 0.889671
0.928222 1.000003 0.888554
0.928912 1.000003 0.887365
0.933735 1.000003 0.886001
0.949889 1.000003 0.884379
0.978496 1.000003 0.884640
1.000003 1.000003 0.898500
0.004472 0.003505 0.338223
0.062166 0.003505 0.341388
0.293353 0.003663 0.340927
0.525555 0.013983 0.329667
0.736097 0.103730 0.328063
0.884262 0.347827 0.410916
0.965823 0.631037 0.615786
1.000003 0.829011 0.813872
1.000003 0.938965 0.932209
0.004360 0.024126 0.346924
0.070956 0.022740 0.345044
0.308848 0.025895 0.344055
0.543358 0.073292 0.326255
0.750761 0.182437 0.328214
0.893643 0.398063 0.424679
0.970387 0.655724 0.635364
1.000003 0.842398 0.827670
1.000003 0.945459 0.939225
0.004298 0.323368 0.332682
0.071055 0.323787 0.330541
0.324299 0.324299 0.324299
0.555855 0.316010 0.303402
0.760948 0.346186 0.312184
0.900629 0.476274 0.428992
0.973920 0.682629 0.650284
1.000003 0.854123 0.838871
1.000003 0.950844 0.944963
0.071561 0.586568 0.241081
0.146465 0.587480 0.237301
0.311758 0.587735 0.230058
0.556735 0.581789 0.244862
0.760788 0.571262 0.259671
0.901826 0.601297 0.402255
0.975210 0.718361 0.651011
1.000003 0.862977 0.843939
1.000003 0.954107 0.948127
0.265916 0.773177 0.187467
0.293135 0.773948 0.184558
0.373502 0.774421 0.179194
0.543637 0.770987 0.187589
0.738469 0.766545 0.214134
0.894505 0.756969 0.343794
0.973092 0.783613 0.626589
1.000003 0.872787 0.839013
1.000003 0.954840 0.947506
0.501186 0.891562 0.306520
0.509159 0.892055 0.306533
0.532007 0.892463 0.305769
0.597793 0.890919 0.305095
0.727789 0.888663 0.306111
0.863119 0.885353 0.348846
0.966383 0.877760 0.580573
1.000003 0.899750 0.820838
1.000003 0.955810 0.942906
0.700791 0.958690 0.557623
0.703005 0.958960 0.558745
0.707973 0.959208 0.559696
0.721616 0.958542 0.557020
0.767987 0.957660 0.553162
0.855580 0.956256 0.552797
0.939273 0.954000 0.590620
0.999258 0.948764 0.789298
1.000003 0.964656 0.932679
0.841620 0.992828 0.762418
0.842459 0.992958 0.763318
0.843697 0.993081 0.764174
0.844940 0.992798 0.762253
0.853440 0.992469 0.760007
0.882148 0.992004 0.757178
0.934574 0.991209 0.757201
0.981279 0.989833 0.781591
1.000003 0.986668 0.914504
0.928110 1.000003 0.889259
0.928511 1.000003 0.889795
0.928957 1.000003 0.890315
0.928553 1.000003 0.889212
0.929229 1.000003 0.888040
0.934012 1.000003 0.886695
0.950088 1.000003 0.885093
0.978620 1.000003 0.885353
1.000003 1.000003 0.897344
0.014851 0.004617 0.557248
0.051871 0.004631 0.561052
0.264795 0.004668 0.562224
0.500247 0.005135 0.559856
0.722437 0.050485 0.543532
0.877343 0.286329 0.547552
0.963182 0.611187 0.648350
1.000003 0.822128 0.813553
1.000003 0.936295 0.929959
0.014511 0.014582 0.571036
0.053353 0.014019 0.570494
0.272753 0.014572 0.571497
0.516443 0.018698 0.568938
0.736514 0.094507 0.550007
0.886714 0.339819 0.557084
0.967820 0.637083 0.663774
1.000003 0.835746 0.826596
1.000003 0.942883 0.936969
0.014675 0.228694 0.571673
0.050264 0.226385 0.571212
0.280608 0.224651 0.567948
0.530365 0.234221 0.566055
0.746060 0.275059 0.546324
0.893611 0.432067 0.560256
0.971392 0.665753 0.675577
1.000003 0.847703 0.837212
1.000003 0.948341 0.942699
0.034522 0.543597 0.554189
0.086617 0.544248 0.553848
0.287143 0.544292 0.551030
0.544536 0.544536 0.544536
0.744919 0.536428 0.524064
0.893896 0.574803 0.546479
0.972358 0.703779 0.675701
1.000003 0.856212 0.841339
1.000003 0.951321 0.945494
0.237663 0.758451 0.469119
0.267858 0.759251 0.467518
0.355162 0.759755 0.464076
0.550865 0.750414 0.487645
0.734715 0.754627 0.474415
0.887491 0.746929 0.501342
0.970167 0.776087 0.653222
1.000003 0.867339 0.836298
1.000003 0.952191 0.944862
0.490876 0.887152 0.450374
0.499414 0.887675 0.449389
0.524144 0.888109 0.447646
0.593620 0.888292 0.443781
0.725475 0.885766 0.451708
0.862373 0.882411 0.480000
0.963571 0.875673 0.612561
1.000003 0.897106 0.818133
1.000003 0.953529 0.940119
0.697321 0.957463 0.588059
0.699606 0.957741 0.588594
0.704856 0.957996 0.588961
0.721132 0.958189 0.588790
0.767487 0.957241 0.588045
0.855345 0.955780 0.589648
0.939294 0.953536 0.621676
0.998251 0.948446 0.788275
1.000003 0.963470 0.929572
0.840082 0.992456 0.765452
0.840927 0.992587 0.766228
0.842201 0.992711 0.766963
0.829967 0.988636 0.746399
0.853713 0.992483 0.765865
0.882320 0.992007 0.763580
0.934699 0.991202 0.763897
0.981382 0.989833 0.787170
1.000003 0.986617 0.911636
0.927321 1.000003 0.888790
0.927721 1.000003 0.889305
0.928169 1.000003 0.889804
0.928862 1.000003 0.890280
0.929521 1.000003 0.889173
0.934263 1.000003 0.887902
0.950267 1.000003 0.886377
0.978730 1.000003 0.886666
1.000003 1.000003 0.900236
0.027376 0.006164 0.737020
0.051081 0.006168 0.740403
0.209860 0.006180 0.742115
0.471329 0.006639 0.741556
0.680343 0.011142 0.736618
0.861575 0.142081 0.717740
0.956783 0.554658 0.727770
0.998339 0.804413 0.820089
1.000003 0.929817 0.925531
0.026766 0.012361 0.750054
0.051028 0.012050 0.750129
0.212109 0.012147 0.751724
0.482337 0.013859 0.750937
0.693771 0.023458 0.746288
0.871037 0.188433 0.726573
0.961667 0.584370 0.738001
1.000003 0.818899 0.831231
1.000003 0.936722 0.932509
0.026013 0.078392 0.755138
0.047604 0.076158 0.755298
0.213286 0.073918 0.753738
0.490642 0.077716 0.753413
0.705414 0.102755 0.750173
0.877831 0.306724 0.731662
0.965397 0.618511 0.746129
1.000003 0.831706 0.840444
1.000003 0.942441 0.938230
0.036752 0.448995 0.750708
0.061370 0.447373 0.750911
0.212780 0.445095 0.749787
0.500199 0.443773 0.746327
0.714940 0.456234 0.744027
0.877398 0.507364 0.728006
0.966217 0.666195 0.747693
1.000003 0.841114 0.844214
1.000003 0.945525 0.940970
0.150870 0.724257 0.733463
0.193256 0.724929 0.733848
0.301309 0.725271 0.733267
0.511430 0.725022 0.730448
0.724998 0.724998 0.724998
0.871216 0.719096 0.710038
0.963183 0.754032 0.735917
1.000003 0.853831 0.839464
1.000003 0.946012 0.939736
0.462846 0.876023 0.674133
0.472573 0.876571 0.673726
0.501078 0.877029 0.672807
0.579402 0.877234 0.670351
0.718003 0.876926 0.665249
0.859429 0.873266 0.679124
0.956938 0.868252 0.705422
0.999744 0.890275 0.822619
1.000003 0.948203 0.934698
0.689772 0.954475 0.678765
0.692196 0.954774 0.678628
0.697875 0.955049 0.678331
0.715511 0.955261 0.677515
0.764590 0.955290 0.675355
0.853698 0.953644 0.680756
0.938698 0.951401 0.701274
0.995848 0.947006 0.797174
1.000003 0.960714 0.923579
0.837824 0.991761 0.782188
0.838686 0.991897 0.782666
0.840013 0.992027 0.783105
0.843285 0.992144 0.783443
0.853439 0.992222 0.783483
0.882023 0.991704 0.782934
0.934538 0.990864 0.784253
0.981360 0.989508 0.804219
1.000003 0.986348 0.906523
0.926422 1.000003 0.890275
0.926823 1.000003 0.890732
0.927276 1.000003 0.891175
0.927991 1.000003 0.891594
0.929729 1.000003 0.891962
0.934428 1.000003 0.890964
0.950369 1.000003 0.889724
0.978794 1.000003 0.890152
1.000003 1.000003 0.903121
0.031337 0.006529 0.867384
0.044873 0.006484 0.869875
0.123942 0.006403 0.871290
0.418742 0.006571 0.871461
0.659368 0.008312 0.869212
0.815541 0.026069 0.861790
0.945683 0.406129 0.842774
0.994740 0.766589 0.856314
1.000003 0.918240 0.923519
0.029820 0.009212 0.877151
0.043456 0.009040 0.877393
0.122246 0.008873 0.878708
0.425633 0.009260 0.878767
0.669767 0.013060 0.876308
0.825358 0.036622 0.869462
0.950973 0.447682 0.849956
0.996860 0.783264 0.863999
1.000003 0.925806 0.929972
0.027078 0.034676 0.881539
0.038497 0.033764 0.881839
0.117483 0.032593 0.880984
0.426730 0.033395 0.881110
0.677543 0.040310 0.879325
0.834073 0.075922 0.874464
0.954952 0.498642 0.856083
0.998502 0.798145 0.870697
1.000003 0.932068 0.935341
0.029438 0.254091 0.881031
0.040873 0.248774 0.881325
0.111080 0.241432 0.880662
0.430552 0.236698 0.878861
0.683612 0.253681 0.877706
0.841122 0.324215 0.874514
0.955496 0.574475 0.859527
0.999057 0.809553 0.874619
1.000003 0.935388 0.938027
0.077684 0.655354 0.873510
0.093726 0.654764 0.873897
0.166418 0.653697 0.873741
0.437405 0.651963 0.872407
0.691241 0.651111 0.869313
0.846505 0.661683 0.867171
0.951660 0.704723 0.856165
0.998148 0.827282 0.873674
1.000003 0.935994 0.937100
0.381882 0.852212 0.859149
0.395162 0.852714 0.859573
0.434913 0.853107 0.859725
0.537998 0.853210 0.859051
0.702420 0.852828 0.856643
0.852667 0.852667 0.852667
0.945370 0.848926 0.843236
0.995645 0.874812 0.864744
1.000003 0.938883 0.932199
0.670445 0.947025 0.822376
0.673134 0.947345 0.822356
0.679627 0.947639 0.822219
0.699866 0.947867 0.821698
0.755032 0.947909 0.820073
0.848684 0.947589 0.816783
0.936671 0.945220 0.826255
0.991656 0.942244 0.846317
1.000003 0.955938 0.921574
0.833059 0.989969 0.833577
0.833962 0.990119 0.833668
0.835379 0.990261 0.833725
0.838920 0.990390 0.833682
0.849929 0.990480 0.833327
0.880253 0.990452 0.832203
0.933500 0.989498 0.835470
0.980956 0.988162 0.848462
1.000003 0.985520 0.907268
0.925116 1.000003 0.898934
0.925523 1.000003 0.899247
0.925987 1.000003 0.899547
0.926733 1.000003 0.899826
0.928576 1.000003 0.900051
0.934284 1.000003 0.900120
0.950206 1.000003 0.899786
0.978695 1.000003 0.900692
1.000003 1.000003 0.911873
0.021732 0.004985 0.951278
0.027129 0.004925 0.952854
0.055245 0.004841 0.953893
0.281221 0.004769 0.953837
0.626465 0.005028 0.952951
0.803408 0.007930 0.949218
0.906175 0.056221 0.940168
0.988945 0.682134 0.923118
1.000003 0.897173 0.936556
0.019215 0.005367 0.957490
0.024650 0.005314 0.957709
0.050872 0.005201 0.958685
0.277613 0.005098 0.958540
0.635069 0.005449 0.957583
0.811647 0.009983 0.953677
0.912510 0.067019 0.945064
0.991405 0.703961 0.927833
1.000003 0.906071 0.941326
0.015884 0.009553 0.960965
0.020060 0.009238 0.961228
0.045125 0.008875 0.960919
0.265927 0.008567 0.960663
0.639286 0.010159 0.959574
0.817676 0.024396 0.955472
0.918268 0.095848 0.948896
0.993296 0.723722 0.932234
1.000003 0.913398 0.945500
0.012278 0.080289 0.958996
0.015372 0.078251 0.959246
0.034228 0.075478 0.958979
0.244984 0.071818 0.957493
0.636483 0.075009 0.956834
0.822011 0.097091 0.954856
0.923103 0.218837 0.950610
0.993824 0.739887 0.936054
1.000003 0.917110 0.948208
0.019206 0.528202 0.955461
0.023463 0.525180 0.955687
0.049177 0.520348 0.955414
0.238438 0.513266 0.954289
0.640196 0.509856 0.952619
0.825311 0.526462 0.951289
0.926657 0.585125 0.948704
0.992493 0.769878 0.938099
1.000003 0.917792 0.948953
0.162009 0.808343 0.947351
0.172905 0.808222 0.947648
0.218258 0.807922 0.947776
0.404564 0.807184 0.947434
0.649777 0.805884 0.946188
0.830339 0.805319 0.943824
0.929159 0.812903 0.942182
0.989292 0.843546 0.935490
1.000003 0.922861 0.947329
0.618088 0.932277 0.936906
0.621401 0.932586 0.937191
0.630103 0.932864 0.937413
0.657626 0.933061 0.937426
0.728984 0.933037 0.936826
0.839151 0.932670 0.935052
0.932489 0.932489 0.932490
0.984980 0.930390 0.927208
1.000003 0.946600 0.941575
0.821406 0.985546 0.916224
0.822382 0.985710 0.916292
0.823957 0.985866 0.916333
0.827993 0.986008 0.916298
0.840586 0.986106 0.916016
0.874578 0.986085 0.915035
0.930508 0.985841 0.913121
0.979724 0.984470 0.918838
1.000003 0.982843 0.931509
0.922414 1.000003 0.925935
0.922837 1.000003 0.926046
0.923326 1.000003 0.926146
0.924123 1.000003 0.926226
0.926118 1.000003 0.926251
0.932311 1.000003 0.926105
0.949226 1.000003 0.925554
0.978106 1.000003 0.927370
1.000003 1.000003 0.934664
0.006207 0.003663 0.998638
0.006680 0.003663 0.999457
0.010116 0.003663 1.000003
0.050346 0.003663 1.000003
0.546134 0.003505 0.999357
0.791145 0.003663 0.998094
0.902031 0.005277 0.993416
0.961163 0.126470 0.983666
1.000003 0.854256 0.970342
0.005302 0.003663 1.000003
0.005760 0.003663 1.000003
0.008039 0.003663 1.000003
0.041829 0.003505 1.000003
0.551158 0.003505 1.000003
0.799337 0.003663 1.000003
0.907773 0.005406 0.995807
0.964816 0.142706 0.986282
1.000003 0.865882 0.973062
0.004571 0.003721 1.000003
0.004814 0.003721 1.000003
0.006383 0.003663 1.000003
0.033152 0.003663 1.000003
0.550686 0.003663 1.000003
0.805262 0.003721 1.000003
0.912239 0.007473 0.997013
0.968182 0.174276 0.988513
1.000003 0.875334 0.975638
0.003936 0.005595 1.000003
0.004037 0.005402 1.000003
0.004643 0.005214 1.000003
0.022980 0.004985 1.000003
0.529864 0.004841 1.000003
0.803319 0.006284 1.000003
0.913756 0.042688 0.995326
0.971134 0.270102 0.990013
1.000003 0.879635 0.978048
0.003663 0.196398 0.998196
0.003721 0.191324 0.998344
0.003897 0.184943 0.998302
0.010979 0.173606 0.997535
0.489087 0.159579 0.995640
0.794713 0.172128 0.994821
0.915243 0.250269 0.993214
0.973427 0.544982 0.990079
1.000003 0.880278 0.980151
0.004705 0.740185 0.994118
0.004889 0.738953 0.994253
0.006302 0.736915 0.994187
0.043083 0.731753 0.993329
0.493737 0.725612 0.992008
0.797149 0.723528 0.990729
0.916470 0.735048 0.989651
0.974879 0.773262 0.987870
1.000003 0.890363 0.981225
0.394193 0.907265 0.986841
0.400060 0.907292 0.987010
0.422960 0.907269 0.987138
0.495376 0.907100 0.987131
0.641818 0.906583 0.986771
0.805822 0.905668 0.985810
0.919315 0.905299 0.984242
0.975795 0.910079 0.983162
1.000003 0.928812 0.979505
0.790955 0.977334 0.980097
0.792051 0.977500 0.980253
0.793996 0.977657 0.980394
0.799358 0.977795 0.980493
0.816290 0.977879 0.980455
0.859843 0.977817 0.980018
0.925247 0.977542 0.978879
0.977399 0.977399 0.977399
1.000003 0.976322 0.974738
0.916011 1.000003 0.969526
0.916463 1.000003 0.969589
0.916991 1.000003 0.969645
0.917877 1.000003 0.969686
0.920148 1.000003 0.969684
0.927223 1.000003 0.969537
0.946158 1.000003 0.968994
0.976489 1.000003 0.967973
1.000003 1.000003 0.971026
0.003505 0.003505 1.000003
0.003505 0.003505 1.000003
0.003505 0.003505 1.000003
0.003663 0.003505 1.000003
0.028333 0.003505 1.000003
0.773128 0.003505 1.000003
0.909717 0.003505 1.000003
0.963760 0.003663 1.000003
0.991174 0.339917 1.000003
0.003505 0.003505 1.000003
0.003505 0.003505 1.000003
0.003505 0.003505 1.000003
0.003505 0.003505 1.000003
0.018978 0.003505 1.000003
0.782593 0.003505 1.000003
0.916499 0.003505 1.000003
0.967458 0.003505 1.000003
0.993077 0.386109 1.000003
0.003505 0.003505 1.000003
0.003505 0.003505 1.000003
0.003505 0.003505 1.000003
0.003505 0.003505 1.000003
0.011714 0.003505 1.000003
0.789939 0.003505 1.000003
0.922244 0.003505 1.000003
0.970509 0.003663 1.000003
0.994838 0.440259 1.000003
0.003505 0.003505 1.000003
0.003505 0.003505 1.000003
0.003505 0.003505 1.000003
0.003505 0.003505 1.000003
0.006644 0.003505 1.000003
0.789661 0.003505 1.000003
0.924701 0.003505 1.000003
0.971679 0.004037 1.000003
0.996424 0.513434 1.000003
0.003505 0.003505 1.000003
0.003505 0.003505 1.000003
0.003505 0.003505 1.000003
0.003505 0.003505 1.000003
0.004104 0.003505 1.000003
0.758133 0.003505 1.000003
0.914739 0.003663 1.000003
0.969074 0.080340 1.000003
0.997748 0.624407 1.000003
0.003505 0.565171 1.000003
0.003505 0.559033 1.000003
0.003505 0.551150 1.000003
0.003505 0.536960 1.000003
0.003505 0.496758 1.000003
0.697466 0.437409 1.000003
0.898956 0.478117 1.000003
0.968932 0.600286 1.000003
0.998660 0.767096 1.000003
0.003505 0.879678 1.000003
0.003505 0.879333 1.000003
0.003505 0.878652 1.000003
0.003505 0.876670 1.000003
0.017406 0.869476 1.000003
0.706743 0.863622 1.000003
0.900160 0.862370 1.000003
0.969078 0.869458 1.000003
0.999097 0.891559 1.000003
0.661309 0.964636 1.000003
0.661880 0.964688 1.000003
0.665098 0.964725 1.000003
0.678380 0.964728 1.000003
0.720854 0.964629 1.000003
0.808755 0.964291 1.000003
0.906474 0.963708 1.000003
0.970492 0.963481 1.000003
0.999316 0.966106 1.000003
0.899905 1.000003 1.000003
0.900394 1.000003 1.000003
0.900993 1.000003 1.000003
0.902088 1.000003 1.000003
0.905091 1.000003 1.000003
0.914533 1.000003 1.000003
0.938621 1.000003 1.000003
0.973891 1.000003 1.000003
1.000003 1.000003 1.000003
