3DLUTS/RED_IPP2CubesSDRCoreV1_13/REC2020/RWG_Log3G10 to REC2020_BT1886 with NO_CONTRAST and R_3_Soft size_33 v1.13.cube
# RED Digital Cinema Output Transform LUT for IPP2
# LUT Name = RWG_Log3G10 to REC2020_BT1886 with NO_CONTRAST and R_3_Soft size_33 v1.13
# Generated by version 1.13
# Settings used in creation of this LUT are:
# Development Color Space = REC2020
# Output Gamma Curve = BT1886
# Output Tonemap = NO_CONTRAST
# Highlight Rolloff = Rolloff 3 - soft
# Resolution = 33 x 33 x 33
TITLE "RED IPP2 LUT to map REDWideGamutRGB/Log3G10 to REC2020/BT1886/NO_CONTRAST/Rolloff 3 - soft"
LUT_3D_SIZE 5
0.000000 0.000000 0.000000
0.306808 0.005674 0.004617
0.739951 0.150924 0.107458
0.966072 0.635314 0.596988
1.000003 0.938912 0.931906
0.012327 0.386346 0.003825
0.340624 0.377120 0.003825
0.766326 0.383857 0.098333
0.974547 0.687649 0.637739
1.000003 0.951332 0.945327
0.279904 0.781816 0.071231
0.379938 0.777918 0.068847
0.738937 0.770606 0.078147
0.973688 0.785395 0.614413
1.000003 0.955234 0.947824
0.705162 0.960003 0.552082
0.706700 0.958900 0.546049
0.767293 0.957395 0.537211
0.938786 0.953745 0.576721
1.000003 0.964735 0.933040
0.929609 1.000003 0.891235
0.928278 1.000003 0.889115
0.928589 1.000003 0.886805
0.949683 1.000003 0.883811
1.000003 1.000003 0.898000
0.004472 0.003505 0.338223
0.293353 0.003663 0.340927
0.736097 0.103730 0.328063
0.965823 0.631037 0.615786
1.000003 0.938965 0.932209
0.004298 0.323368 0.332682
0.324299 0.324299 0.324299
0.760948 0.346186 0.312184
0.973920 0.682629 0.650284
1.000003 0.950844 0.944963
0.265916 0.773177 0.187467
0.373502 0.774421 0.179194
0.738469 0.766545 0.214134
0.973092 0.783613 0.626589
1.000003 0.954840 0.947506
0.700791 0.958690 0.557623
0.707973 0.959208 0.559696
0.767987 0.957660 0.553162
0.939273 0.954000 0.590620
1.000003 0.964656 0.932679
0.928110 1.000003 0.889259
0.928957 1.000003 0.890315
0.929229 1.000003 0.888040
0.950088 1.000003 0.885093
1.000003 1.000003 0.897344
0.027376 0.006164 0.737020
0.209860 0.006180 0.742115
0.680343 0.011142 0.736618
0.956783 0.554658 0.727770
1.000003 0.929817 0.925531
0.026013 0.078392 0.755138
0.213286 0.073918 0.753738
0.705414 0.102755 0.750173
0.965397 0.618511 0.746129
1.000003 0.942441 0.938230
0.150870 0.724257 0.733463
0.301309 0.725271 0.733267
0.724998 0.724998 0.724998
0.963183 0.754032 0.735917
1.000003 0.946012 0.939736
0.689772 0.954475 0.678765
0.697875 0.955049 0.678331
0.764590 0.955290 0.675355
0.938698 0.951401 0.701274
1.000003 0.960714 0.923579
0.926422 1.000003 0.890275
0.927276 1.000003 0.891175
0.929729 1.000003 0.891962
0.950369 1.000003 0.889724
1.000003 1.000003 0.903121
0.021732 0.004985 0.951278
0.055245 0.004841 0.953893
0.626465 0.005028 0.952951
0.906175 0.056221 0.940168
1.000003 0.897173 0.936556
0.015884 0.009553 0.960965
0.045125 0.008875 0.960919
0.639286 0.010159 0.959574
0.918268 0.095848 0.948896
1.000003 0.913398 0.945500
0.019206 0.528202 0.955461
0.049177 0.520348 0.955414
0.640196 0.509856 0.952619
0.926657 0.585125 0.948704
1.000003 0.917792 0.948953
0.618088 0.932277 0.936906
0.630103 0.932864 0.937413
0.728984 0.933037 0.936826
0.932489 0.932489 0.932490
1.000003 0.946600 0.941575
0.922414 1.000003 0.925935
0.923326 1.000003 0.926146
0.926118 1.000003 0.926251
0.949226 1.000003 0.925554
1.000003 1.000003 0.934664
0.003505 0.003505 1.000003
0.003505 0.003505 1.000003
0.028333 0.003505 1.000003
0.909717 0.003505 1.000003
0.991174 0.339917 1.000003
0.003505 0.003505 1.000003
0.003505 0.003505 1.000003
0.011714 0.003505 1.000003
0.922244 0.003505 1.000003
0.994838 0.440259 1.000003
0.003505 0.003505 1.000003
0.003505 0.003505 1.000003
0.004104 0.003505 1.000003
0.914739 0.003663 1.000003
0.997748 0.624407 1.000003
0.003505 0.879678 1.000003
0.003505 0.878652 1.000003
0.017406 0.869476 1.000003
0.900160 0.862370 1.000003
0.999097 0.891559 1.000003
0.899905 1.000003 1.000003
0.900993 1.000003 1.000003
0.905091 1.000003 1.000003
0.938621 1.000003 1.000003
1.000003 1.000003 1.000003
