3DLUTS/RED_IPP2CubesSDRCoreV1_13/REC2020/RWG_Log3G10 to REC2020_BT1886 with LOW_CONTRAST and R_3_Soft size_33 v1.13.cube
# RED Digital Cinema Output Transform LUT for IPP2
# LUT Name = RWG_Log3G10 to REC2020_BT1886 with LOW_CONTRAST and R_3_Soft size_33 v1.13
# Generated by version 1.13
# Settings used in creation of this LUT are:
# Development Color Space = REC2020
# Output Gamma Curve = BT1886
# Output Tonemap = LOW_CONTRAST
# Highlight Rolloff = Rolloff 3 - soft
# Resolution = 33 x 33 x 33
TITLE "RED IPP2 LUT to map REDWideGamutRGB/Log3G10 to REC2020/BT1886/LOW_CONTRAST/Rolloff 3 - soft"
LUT_3D_SIZE 5
0.000000 0.000000 0.000000
0.273703 0.023274 0.015653
0.789804 0.229414 0.171832
0.984825 0.727618 0.699221
1.000003 0.943402 0.936820
0.027079 0.324595 0.004909
0.292059 0.318532 0.005161
0.803418 0.359524 0.161672
0.988259 0.750939 0.719604
1.000003 0.950370 0.944332
0.339551 0.812826 0.103411
0.389800 0.810794 0.101871
0.773465 0.802910 0.116803
0.987920 0.825440 0.705049
1.000003 0.955349 0.947250
0.761263 0.974626 0.638926
0.761013 0.974130 0.635936
0.807483 0.972757 0.627407
0.957155 0.969583 0.660579
1.000003 0.971433 0.927585
0.929397 1.000003 0.890930
0.928623 1.000003 0.889698
0.929369 1.000003 0.886852
0.959254 1.000003 0.883723
1.000003 1.000003 0.898310
0.011016 0.004360 0.298339
0.262886 0.004494 0.298045
0.787639 0.199108 0.301825
0.984701 0.726102 0.704100
1.000003 0.943342 0.936892
0.013675 0.274175 0.280541
0.279669 0.279669 0.279669
0.800473 0.335843 0.293247
0.987979 0.748693 0.722753
1.000003 0.950005 0.944044
0.332399 0.808726 0.161682
0.386737 0.809373 0.158952
0.773348 0.801133 0.194199
0.987660 0.824658 0.707893
1.000003 0.955069 0.947003
0.759139 0.974062 0.639339
0.761766 0.974295 0.640589
0.807918 0.972904 0.632998
0.957392 0.969727 0.665510
1.000003 0.971436 0.927308
0.928528 1.000003 0.889783
0.929016 1.000003 0.890392
0.929731 1.000003 0.887576
0.959453 1.000003 0.884478
1.000003 1.000003 0.898970
0.038461 0.008275 0.781248
0.133244 0.008229 0.783682
0.724850 0.019399 0.777365
0.977180 0.662796 0.776050
1.000003 0.932146 0.928986
0.035488 0.040735 0.789855
0.131235 0.039255 0.788848
0.738162 0.063462 0.784540
0.980789 0.690317 0.786446
1.000003 0.939357 0.936070
0.217734 0.759920 0.768524
0.294066 0.760473 0.768511
0.760172 0.760172 0.760172
0.979181 0.796302 0.780165
1.000003 0.944146 0.937723
0.749563 0.970627 0.729968
0.752552 0.970887 0.729938
0.805531 0.971172 0.727854
0.957060 0.967810 0.751465
1.000003 0.968531 0.916472
0.926422 1.000003 0.891625
0.926917 1.000003 0.892113
0.930298 1.000003 0.893006
0.959721 1.000003 0.890939
1.000003 1.000003 0.904419
0.015746 0.004360 0.975328
0.026735 0.004288 0.976498
0.670937 0.004352 0.975349
0.932671 0.080825 0.961583
1.000003 0.891595 0.949578
0.012103 0.005061 0.979778
0.022171 0.004970 0.979746
0.678182 0.005121 0.978382
0.938408 0.105414 0.965637
1.000003 0.901461 0.953890
0.011281 0.563567 0.973304
0.019373 0.559152 0.973284
0.674439 0.543856 0.970206
0.947132 0.629904 0.966338
1.000003 0.907924 0.958921
0.688679 0.951806 0.955696
0.693030 0.952082 0.955941
0.772828 0.952326 0.955576
0.951795 0.951795 0.951795
1.000003 0.955993 0.952233
0.920997 1.000003 0.940889
0.921538 1.000003 0.940963
0.925492 1.000003 0.940986
0.958078 1.000003 0.939884
1.000003 1.000003 0.946907
0.003505 0.003505 1.000003
0.003505 0.003505 1.000003
0.107012 0.003505 1.000003
0.938065 0.003505 1.000003
0.992391 0.367987 1.000003
0.003505 0.003505 1.000003
0.003505 0.003505 1.000003
0.071960 0.003505 1.000003
0.943915 0.003505 1.000003
0.994474 0.427666 1.000003
0.003505 0.005188 1.000003
0.003505 0.004774 1.000003
0.012558 0.004037 1.000003
0.933916 0.037274 1.000003
0.998008 0.656831 1.000003
0.004571 0.918131 1.000003
0.004830 0.917851 1.000003
0.413552 0.913448 1.000003
0.932433 0.910959 1.000003
0.999174 0.923931 1.000003
0.900210 1.000003 1.000003
0.900843 1.000003 1.000003
0.906476 1.000003 1.000003
0.950920 1.000003 1.000003
1.000003 1.000003 1.000003
