3DLUTS/RED_IPP2CubesSDRCoreV1_13/REC2020/RWG_Log3G10 to REC2020_BT1886 with MEDIUM_CONTRAST and R_3_Soft size_33 v1.13.cube
# RED Digital Cinema Output Transform LUT for IPP2
# LUT Name = RWG_Log3G10 to REC2020_BT1886 with MEDIUM_CONTRAST and R_3_Soft size_33 v1.13
# Generated by version 1.13
# Settings used in creation of this LUT are:
# Development Color Space = REC2020
# Output Gamma Curve = BT1886
# Output Tonemap = MEDIUM_CONTRAST
# Highlight Rolloff = Rolloff 3 - soft
# Resolution = 33 x 33 x 33
TITLE "RED IPP2 LUT to map REDWideGamutRGB/Log3G10 to REC2020/BT1886/MEDIUM_CONTRAST/Rolloff 3 - soft"
LUT_3D_SIZE 5
0.000000 0.000000 0.000000
0.244448 0.021325 0.014346
0.788604 0.229659 0.172372
0.984927 0.728225 0.699896
1.000003 0.943606 0.937043
0.023099 0.287238 0.004624
0.259559 0.282262 0.004873
0.800413 0.334305 0.164561
0.987866 0.747813 0.717334
1.000003 0.949538 0.943445
0.337933 0.811495 0.102719
0.376423 0.809804 0.101557
0.772104 0.801607 0.116118
0.987951 0.824828 0.705430
1.000003 0.955350 0.947287
0.761253 0.974618 0.638920
0.760885 0.974204 0.636429
0.806951 0.972770 0.627536
0.957162 0.969588 0.660654
1.000003 0.971436 0.927589
0.929386 1.000003 0.890915
0.928733 1.000003 0.889884
0.929349 1.000003 0.886882
0.959259 1.000003 0.883740
1.000003 1.000003 0.898325
0.010230 0.004298 0.265567
0.234952 0.004418 0.265157
0.787057 0.206507 0.277319
0.984864 0.727247 0.703784
1.000003 0.943620 0.937162
0.007790 0.248244 0.254086
0.248774 0.248774 0.248774
0.798219 0.315234 0.270868
0.987670 0.746176 0.719922
1.000003 0.949292 0.943265
0.332373 0.808234 0.143866
0.374108 0.808793 0.142187
0.772074 0.800298 0.171245
0.987775 0.824284 0.707692
1.000003 0.955172 0.947141
0.759488 0.974152 0.638935
0.761534 0.974349 0.640017
0.807328 0.972900 0.631863
0.957363 0.969717 0.664472
1.000003 0.971455 0.927429
0.928659 1.000003 0.889942
0.929063 1.000003 0.890456
0.929654 1.000003 0.887477
0.959426 1.000003 0.884359
1.000003 1.000003 0.898866
0.039135 0.008442 0.780200
0.106515 0.008393 0.782337
0.723781 0.019677 0.776269
0.977353 0.664156 0.775573
1.000003 0.932451 0.929234
0.036393 0.030820 0.787852
0.104906 0.029870 0.787072
0.735092 0.050946 0.782663
0.980445 0.687124 0.784481
1.000003 0.938587 0.935277
0.216828 0.758526 0.767144
0.276420 0.759014 0.767195
0.758762 0.758762 0.758762
0.979290 0.795731 0.779494
1.000003 0.944225 0.937809
0.749699 0.970669 0.728987
0.752029 0.970888 0.728975
0.805021 0.971207 0.726909
0.957069 0.967838 0.750626
1.000003 0.968556 0.916521
0.926445 1.000003 0.891585
0.926854 1.000003 0.891996
0.930270 1.000003 0.892955
0.959721 1.000003 0.890865
1.000003 1.000003 0.904358
0.015779 0.004360 0.975482
0.023615 0.004298 0.976496
0.668973 0.004352 0.975478
0.932829 0.081206 0.961702
1.000003 0.891883 0.949697
0.012728 0.004825 0.979388
0.020200 0.004769 0.979391
0.675384 0.004857 0.978193
0.937673 0.100247 0.965160
1.000003 0.900296 0.953345
0.011178 0.559134 0.973361
0.016781 0.555518 0.973380
0.671956 0.539181 0.970267
0.947109 0.627213 0.966373
1.000003 0.907898 0.958917
0.688745 0.951813 0.955703
0.692105 0.952047 0.955912
0.772054 0.952327 0.955585
0.951795 0.951795 0.951795
1.000003 0.955993 0.952233
0.921010 1.000003 0.940891
0.921456 1.000003 0.940954
0.925447 1.000003 0.940987
0.958078 1.000003 0.939884
1.000003 1.000003 0.946907
0.003505 0.003505 1.000003
0.003505 0.003505 1.000003
0.098588 0.003505 1.000003
0.938232 0.003505 1.000003
0.992448 0.369459 1.000003
0.003505 0.003505 1.000003
0.003505 0.003505 1.000003
0.070706 0.003505 1.000003
0.943215 0.003505 1.000003
0.994203 0.418912 1.000003
0.003505 0.004925 1.000003
0.003505 0.004631 1.000003
0.011348 0.003955 1.000003
0.934054 0.034656 1.000003
0.997998 0.655439 1.000003
0.004571 0.918127 1.000003
0.004729 0.917916 1.000003
0.406059 0.913466 1.000003
0.932433 0.910959 1.000003
0.999174 0.923931 1.000003
0.900225 1.000003 1.000003
0.900744 1.000003 1.000003
0.906410 1.000003 1.000003
0.950920 1.000003 1.000003
1.000003 1.000003 1.000003
