3DLUTS/RED_IPP2CubesSDRCoreV1_13/REC2020/RWG_Log3G10 to REC2020_BT1886 with HIGH_CONTRAST and R_3_Soft size_33 v1.13.cube
# RED Digital Cinema Output Transform LUT for IPP2
# LUT Name = RWG_Log3G10 to REC2020_BT1886 with HIGH_CONTRAST and R_3_Soft size_33 v1.13
# Generated by version 1.13
# Settings used in creation of this LUT are:
# Development Color Space = REC2020
# Output Gamma Curve = BT1886
# Output Tonemap = HIGH_CONTRAST
# Highlight Rolloff = Rolloff 3 - soft
# Resolution = 33 x 33 x 33
TITLE "RED IPP2 LUT to map REDWideGamutRGB/Log3G10 to REC2020/BT1886/HIGH_CONTRAST/Rolloff 3 - soft"
LUT_3D_SIZE 9
0.000000 0.000000 0.000000
0.049586 0.003505 0.003505
0.221401 0.018614 0.012462
0.573609 0.097653 0.069771
0.855793 0.321773 0.262796
0.970756 0.658047 0.622303
1.000003 0.841566 0.824990
1.000003 0.913898 0.904499
1.000003 0.943693 0.937138
0.003505 0.064060 0.003505
0.054596 0.062675 0.003505
0.222804 0.049725 0.010273
0.575298 0.112210 0.068253
0.856842 0.327600 0.263738
0.971176 0.660374 0.624332
1.000003 0.842824 0.826313
1.000003 0.914713 0.905379
1.000003 0.944307 0.937805
0.019457 0.258551 0.004385
0.037129 0.258076 0.004410
0.233427 0.252779 0.005161
0.587083 0.250780 0.054053
0.864307 0.388036 0.267490
0.974203 0.679285 0.638995
1.000003 0.852292 0.836032
1.000003 0.920756 0.911844
1.000003 0.948842 0.942700
0.149541 0.631953 0.028458
0.157150 0.631679 0.028477
0.239855 0.629264 0.028418
0.586126 0.621798 0.031050
0.868169 0.615495 0.220405
0.977000 0.731488 0.647097
1.000003 0.867327 0.846544
1.000003 0.929014 0.919542
1.000003 0.954840 0.948720
0.442792 0.864957 0.176133
0.443657 0.864840 0.175955
0.457566 0.863871 0.174302
0.589944 0.861032 0.167923
0.830223 0.855888 0.206043
0.971235 0.849295 0.591794
1.000003 0.890287 0.831161
1.000003 0.933053 0.913521
1.000003 0.955598 0.945271
0.709623 0.961034 0.559439
0.709561 0.960984 0.559174
0.709836 0.960583 0.557007
0.727907 0.959580 0.551284
0.826364 0.957973 0.544476
0.940477 0.955197 0.585470
0.999720 0.950007 0.791342
1.000003 0.956297 0.893161
1.000003 0.965247 0.932815
0.845782 0.993662 0.767012
0.845685 0.993639 0.766841
0.845024 0.993452 0.765460
0.846480 0.993010 0.762202
0.870790 0.992436 0.758088
0.935830 0.991466 0.757121
0.981584 0.990110 0.781656
1.000003 0.987250 0.868724
1.000003 0.986977 0.914541
0.903585 1.000003 0.853004
0.903507 1.000003 0.852882
0.902920 1.000003 0.851903
0.902472 1.000003 0.849646
0.909888 1.000003 0.847072
0.942499 1.000003 0.844516
0.979044 1.000003 0.848551
0.996091 1.000003 0.862668
1.000003 1.000003 0.896818
0.929382 1.000003 0.890909
0.929318 1.000003 0.890811
0.928818 1.000003 0.890026
0.928109 1.000003 0.888228
0.931344 1.000003 0.886264
0.950470 1.000003 0.884147
0.978943 1.000003 0.884520
0.994924 1.000003 0.890452
1.000003 1.000003 0.898331
0.003505 0.003505 0.057779
0.044927 0.003505 0.057346
0.220775 0.015009 0.033307
0.573442 0.095023 0.079662
0.855791 0.321014 0.267108
0.970769 0.658030 0.622840
1.000003 0.841606 0.825097
1.000003 0.913931 0.904550
1.000003 0.943721 0.937174
0.003505 0.049626 0.052032
0.050054 0.050054 0.050054
0.222076 0.040761 0.029086
0.575040 0.109017 0.078319
0.856791 0.326717 0.268136
0.971170 0.660271 0.624792
1.000003 0.842813 0.826365
1.000003 0.914713 0.905393
1.000003 0.944309 0.937813
0.018244 0.255958 0.006110
0.035022 0.256006 0.006001
0.233630 0.252118 0.006846
0.586841 0.248942 0.061416
0.864261 0.387301 0.271570
0.974198 0.679200 0.639392
1.000003 0.852285 0.836078
1.000003 0.920757 0.911858
1.000003 0.948845 0.942708
0.148898 0.631301 0.030754
0.156602 0.631373 0.030669
0.239451 0.628930 0.030756
0.586051 0.621423 0.033790
0.868132 0.615255 0.224282
0.976997 0.731438 0.647433
1.000003 0.867325 0.846583
1.000003 0.929018 0.919555
1.000003 0.954844 0.948728
0.442476 0.864801 0.177637
0.443680 0.864853 0.177679
0.457574 0.863879 0.176124
0.589940 0.861033 0.169922
0.830258 0.855887 0.208630
0.971233 0.849300 0.592179
1.000003 0.890292 0.831204
1.000003 0.933058 0.913536
1.000003 0.955603 0.945280
0.709435 0.960979 0.559398
0.709635 0.961003 0.559527
0.709907 0.960602 0.557379
0.727963 0.959598 0.551698
0.826397 0.957990 0.544930
0.940501 0.955214 0.585855
0.999721 0.950022 0.791406
1.000003 0.956307 0.893180
1.000003 0.965254 0.932825
0.845662 0.993638 0.766866
0.845738 0.993649 0.766954
0.845077 0.993462 0.765576
0.846529 0.993020 0.762322
0.870825 0.992447 0.758215
0.935851 0.991476 0.757249
0.981598 0.990121 0.781768
1.000003 0.987260 0.868760
1.000003 0.986986 0.914558
0.903499 1.000003 0.852887
0.903547 1.000003 0.852949
0.902960 1.000003 0.851971
0.902510 1.000003 0.849715
0.909920 1.000003 0.847144
0.942518 1.000003 0.844588
0.979056 1.000003 0.848620
0.996100 1.000003 0.862731
1.000003 1.000003 0.896857
0.929313 1.000003 0.890812
0.929350 1.000003 0.890862
0.928850 1.000003 0.890078
0.928140 1.000003 0.888279
0.931372 1.000003 0.886318
0.950489 1.000003 0.884201
0.978954 1.000003 0.884573
0.994932 1.000003 0.890502
1.000003 1.000003 0.898379
0.009058 0.004188 0.239990
0.019146 0.004188 0.240071
0.212883 0.004288 0.239534
0.570556 0.068514 0.221399
0.855154 0.310146 0.318231
0.970693 0.656728 0.628682
1.000003 0.841469 0.825773
1.000003 0.913933 0.904740
1.000003 0.943747 0.937280
0.008701 0.005801 0.239735
0.019525 0.005764 0.239399
0.214149 0.006171 0.238775
0.572146 0.079040 0.220152
0.856153 0.315960 0.319074
0.971093 0.658982 0.630551
1.000003 0.842675 0.827028
1.000003 0.914714 0.905579
1.000003 0.944335 0.937916
0.006815 0.224211 0.229374
0.015520 0.224235 0.228997
0.224722 0.224722 0.224722
0.583172 0.225873 0.203559
0.863241 0.376767 0.322184
0.973982 0.677354 0.644011
1.000003 0.851752 0.836231
1.000003 0.920495 0.911737
1.000003 0.948671 0.942586
0.139563 0.623580 0.086158
0.148027 0.623656 0.085813
0.233925 0.624063 0.082332
0.584574 0.615981 0.098135
0.867220 0.611654 0.272494
0.976807 0.730267 0.651258
1.000003 0.866911 0.846673
1.000003 0.928809 0.919447
1.000003 0.954707 0.948626
0.439317 0.863267 0.203536
0.440571 0.863319 0.203519
0.457101 0.863692 0.203080
0.589531 0.860740 0.200091
0.830419 0.855557 0.243334
0.971050 0.849137 0.596693
1.000003 0.890108 0.831316
1.000003 0.932911 0.913433
1.000003 0.955493 0.945183
0.707869 0.960513 0.560765
0.708074 0.960537 0.560883
0.710417 0.960724 0.561764
0.728343 0.959709 0.556696
0.826614 0.958090 0.550522
0.940681 0.955314 0.590562
0.999672 0.950113 0.791766
1.000003 0.956329 0.893083
1.000003 0.965238 0.932719
0.844698 0.993437 0.765939
0.844774 0.993449 0.766024
0.845489 0.993540 0.766686
0.846909 0.993096 0.763513
0.871095 0.992521 0.759499
0.936010 0.991550 0.758571
0.981119 0.989710 0.780222
1.000003 0.987337 0.868907
1.000003 0.987047 0.914513
0.902812 1.000003 0.852017
0.902860 1.000003 0.852079
0.903268 1.000003 0.852562
0.902807 1.000003 0.850327
0.910168 1.000003 0.847782
0.942671 1.000003 0.845247
0.979153 1.000003 0.849258
0.996167 1.000003 0.863307
1.000003 1.000003 0.897111
0.928758 1.000003 0.890068
0.928796 1.000003 0.890118
0.929102 1.000003 0.890510
0.928386 1.000003 0.888721
0.931591 1.000003 0.886771
0.950637 1.000003 0.884666
0.979046 1.000003 0.885033
0.994997 1.000003 0.890938
1.000003 1.000003 0.898788
0.031913 0.007399 0.592550
0.036255 0.007401 0.592856
0.146636 0.007437 0.594445
0.535602 0.010210 0.591618
0.842933 0.204919 0.569084
0.967293 0.631227 0.669194
1.000003 0.832530 0.824918
1.000003 0.908996 0.901415
1.000003 0.940271 0.934324
0.031645 0.008482 0.593657
0.036280 0.008457 0.593566
0.146899 0.008510 0.595143
0.537033 0.012035 0.592307
0.843920 0.212188 0.569754
0.967703 0.633641 0.670544
1.000003 0.833766 0.826081
1.000003 0.909791 0.902237
1.000003 0.940870 0.934959
0.029657 0.052884 0.598335
0.033822 0.052696 0.598258
0.149352 0.051330 0.596731
0.547695 0.063389 0.594621
0.850870 0.284594 0.573005
0.970652 0.653469 0.680301
1.000003 0.843075 0.834624
1.000003 0.915684 0.908282
1.000003 0.945290 0.939620
0.066337 0.569034 0.579065
0.083433 0.559109 0.568834
0.183463 0.569328 0.578011
0.569458 0.569458 0.569458
0.853162 0.573939 0.552716
0.973029 0.711486 0.684478
1.000003 0.857961 0.843296
1.000003 0.923548 0.915123
1.000003 0.950958 0.945100
0.418505 0.853899 0.470370
0.419953 0.853955 0.470237
0.439006 0.854364 0.468897
0.581757 0.854680 0.461603
0.828660 0.849015 0.490446
0.967183 0.844604 0.637206
1.000003 0.885172 0.827793
1.000003 0.928740 0.908895
1.000003 0.952179 0.941529
0.702741 0.958733 0.600192
0.702959 0.958758 0.600234
0.705490 0.958952 0.600522
0.727853 0.959282 0.600328
0.826253 0.957528 0.600215
0.940115 0.954024 0.638441
0.998332 0.949741 0.790667
1.000003 0.955209 0.888104
1.000003 0.963701 0.928544
0.842291 0.992869 0.769497
0.842368 0.992881 0.769566
0.843105 0.992973 0.770103
0.847512 0.993156 0.771119
0.871468 0.992557 0.768242
0.936236 0.991570 0.767946
0.981877 0.990225 0.790738
1.000003 0.987457 0.866590
1.000003 0.987013 0.910732
0.901205 1.000003 0.851678
0.901253 1.000003 0.851735
0.901665 1.000003 0.852176
0.903387 1.000003 0.853079
0.910636 1.000003 0.850861
0.942950 1.000003 0.848610
0.979333 1.000003 0.852555
0.996298 1.000003 0.866160
1.000003 1.000003 0.896613
0.927488 1.000003 0.889159
0.927525 1.000003 0.889206
0.927832 1.000003 0.889576
0.928890 1.000003 0.890346
0.932032 1.000003 0.888549
0.950928 1.000003 0.886589
0.979228 1.000003 0.886990
0.995127 1.000003 0.892768
1.000003 1.000003 0.900451
0.039157 0.008188 0.840398
0.041063 0.008182 0.840638
0.075735 0.008109 0.842127
0.478819 0.008720 0.842488
0.786220 0.026262 0.834456
0.955016 0.504652 0.812491
0.997889 0.795582 0.847937
1.000003 0.890386 0.898584
1.000003 0.927558 0.927912
0.038912 0.008626 0.841342
0.040961 0.008611 0.841345
0.075617 0.008531 0.842828
0.479592 0.009220 0.843168
0.787221 0.027499 0.835199
0.955470 0.507984 0.813214
0.998069 0.797009 0.848744
1.000003 0.891272 0.899307
1.000003 0.928221 0.928522
0.036487 0.019034 0.846783
0.038297 0.018986 0.846793
0.074065 0.018566 0.846406
0.484054 0.020238 0.846652
0.794759 0.045613 0.840063
0.958721 0.536198 0.818582
0.999363 0.807800 0.854778
1.000003 0.897846 0.904661
1.000003 0.933110 0.933019
0.043117 0.386850 0.846658
0.045006 0.386518 0.846672
0.077569 0.383416 0.846464
0.493531 0.377738 0.843479
0.807935 0.417755 0.840024
0.960843 0.628628 0.824707
1.000003 0.825945 0.862136
1.000003 0.906618 0.910961
1.000003 0.939291 0.938327
0.313875 0.818598 0.826209
0.315901 0.818648 0.826247
0.343347 0.819006 0.826434
0.541482 0.819151 0.824942
0.818751 0.818751 0.818751
0.953408 0.818418 0.809209
0.998409 0.864879 0.852929
1.000003 0.913769 0.904885
1.000003 0.940621 0.933970
0.685280 0.951786 0.776938
0.685528 0.951815 0.776925
0.688449 0.952035 0.776781
0.714535 0.952414 0.775785
0.820758 0.952266 0.771715
0.939089 0.949303 0.786514
0.993570 0.945857 0.826466
1.000003 0.950652 0.885564
1.000003 0.958373 0.920453
0.837553 0.991248 0.814270
0.837636 0.991261 0.814288
0.838423 0.991363 0.814421
0.843287 0.991566 0.814553
0.870174 0.991637 0.813752
0.935540 0.990516 0.816873
0.981646 0.989198 0.832285
1.000003 0.986928 0.872174
1.000003 0.986341 0.905237
0.898880 1.000003 0.865273
0.898930 1.000003 0.865307
0.899355 1.000003 0.865564
0.901200 1.000003 0.866067
0.910493 1.000003 0.866229
0.942776 1.000003 0.865892
0.979269 1.000003 0.869723
0.996289 1.000003 0.880814
1.000003 1.000003 0.900361
0.925874 1.000003 0.895141
0.925911 1.000003 0.895175
0.926224 1.000003 0.895442
0.927338 1.000003 0.895989
0.932154 1.000003 0.896348
0.950950 1.000003 0.895438
0.979243 1.000003 0.896223
0.995154 1.000003 0.901366
1.000003 1.000003 0.908093
0.022489 0.005057 0.957461
0.023062 0.005052 0.957596
0.032316 0.004990 0.958521
0.334362 0.004852 0.958736
0.764245 0.006374 0.955819
0.912327 0.063753 0.945062
0.991028 0.699394 0.927986
1.000003 0.849834 0.930979
1.000003 0.902552 0.940462
0.022185 0.005103 0.958002
0.022838 0.005098 0.958016
0.032015 0.005033 0.958937
0.334227 0.004889 0.959141
0.765027 0.006479 0.956209
0.912900 0.064910 0.945498
0.991247 0.701382 0.928414
1.000003 0.850956 0.931414
1.000003 0.903363 0.940893
0.019576 0.006010 0.961557
0.020118 0.006001 0.961574
0.029337 0.005923 0.961549
0.330797 0.005695 0.961652
0.770454 0.008703 0.958563
0.917269 0.078734 0.948643
0.992816 0.716514 0.931714
1.000003 0.859263 0.934737
1.000003 0.909335 0.944142
0.013213 0.098002 0.960435
0.013553 0.097769 0.960454
0.019381 0.095678 0.960468
0.301333 0.088940 0.958575
0.775783 0.103946 0.956916
0.925282 0.256585 0.952062
0.994105 0.743862 0.938004
1.000003 0.870094 0.940323
1.000003 0.916603 0.948995
0.085399 0.743484 0.952070
0.086432 0.743425 0.952092
0.101972 0.742846 0.952198
0.367243 0.740388 0.951518
0.782537 0.738187 0.948683
0.930039 0.754943 0.946336
0.990856 0.816436 0.938668
1.000003 0.883121 0.941227
1.000003 0.919333 0.948875
0.625507 0.934082 0.938640
0.625833 0.934110 0.938666
0.629844 0.934323 0.938852
0.667265 0.934663 0.938941
0.804486 0.934415 0.937344
0.934082 0.934082 0.934082
0.985315 0.931982 0.928887
1.000003 0.938402 0.933683
1.000003 0.947198 0.942260
0.823873 0.986036 0.918256
0.823964 0.986051 0.918262
0.824850 0.986168 0.918304
0.830554 0.986398 0.918276
0.861968 0.986488 0.917474
0.932069 0.986214 0.915134
0.980210 0.984870 0.920704
1.000003 0.983405 0.924276
1.000003 0.983255 0.932441
0.893316 1.000003 0.919238
0.893368 1.000003 0.919244
0.893827 1.000003 0.919287
0.895875 1.000003 0.919325
0.906354 1.000003 0.919028
0.940866 1.000003 0.917794
0.978295 1.000003 0.921130
0.995749 1.000003 0.926338
1.000003 0.999238 0.931233
0.922590 1.000003 0.927050
0.922629 1.000003 0.927060
0.922959 1.000003 0.927134
0.924167 1.000003 0.927263
0.929516 1.000003 0.927205
0.949831 1.000003 0.926548
0.978573 1.000003 0.928402
0.994756 1.000003 0.931678
1.000003 1.000003 0.935518
0.005716 0.003663 1.000003
0.005760 0.003663 1.000003
0.006532 0.003663 1.000003
0.059842 0.003505 1.000003
0.743202 0.003505 1.000003
0.908014 0.005335 0.995503
0.964306 0.138496 0.985945
1.000003 0.777058 0.974949
1.000003 0.861292 0.972785
0.005627 0.003663 1.000003
0.005688 0.003663 1.000003
0.006431 0.003663 1.000003
0.058843 0.003505 1.000003
0.743974 0.003505 1.000003
0.908528 0.005359 0.995709
0.964638 0.140166 0.986180
1.000003 0.778641 0.975193
1.000003 0.862350 0.973033
0.004994 0.003663 1.000003
0.005028 0.003663 1.000003
0.005684 0.003663 1.000003
0.050896 0.003505 1.000003
0.749323 0.003663 1.000003
0.912256 0.005927 0.997024
0.967179 0.157494 0.987929
1.000003 0.790321 0.977099
1.000003 0.870114 0.974953
0.003897 0.006854 1.000003
0.003897 0.006820 1.000003
0.004051 0.006554 1.000003
0.030674 0.005920 1.000003
0.745080 0.006802 1.000003
0.915920 0.052426 0.995510
0.972035 0.297322 0.990554
1.000003 0.805074 0.981189
1.000003 0.878882 0.978876
0.003825 0.636768 0.996278
0.003825 0.636525 0.996289
0.003955 0.634264 0.996326
0.027809 0.621752 0.995225
0.733774 0.608956 0.992878
0.918024 0.638572 0.991421
0.975068 0.712034 0.989312
1.000003 0.831085 0.983840
1.000003 0.884018 0.981648
0.411298 0.909586 0.987335
0.411894 0.909589 0.987350
0.421141 0.909595 0.987460
0.516850 0.909384 0.987494
0.759058 0.908335 0.986588
0.921258 0.907652 0.984634
0.976354 0.912268 0.983578
0.998412 0.919428 0.980919
1.000003 0.929773 0.980000
0.793965 0.977975 0.980706
0.794069 0.977990 0.980720
0.795116 0.978108 0.980828
0.796011 0.975693 0.978454
0.843945 0.978386 0.980730
0.926962 0.978066 0.979378
0.977928 0.977928 0.977928
0.995831 0.976680 0.975739
1.000003 0.976831 0.975292
0.882192 0.997259 0.972975
0.882249 0.997268 0.972983
0.882750 0.997343 0.973046
0.885111 0.997496 0.973147
0.897532 0.997591 0.973013
0.936918 0.997497 0.972093
0.976334 0.997275 0.970844
0.994646 0.996716 0.972594
1.000003 0.996135 0.972056
0.916155 1.000003 0.970270
0.916197 1.000003 0.970276
0.916552 1.000003 0.970320
0.917890 1.000003 0.970392
0.924003 1.000003 0.970314
0.946794 1.000003 0.969681
0.976965 1.000003 0.968667
0.993796 1.000003 0.970221
1.000003 1.000003 0.971631
0.003663 0.003505 1.000003
0.003663 0.003505 1.000003
0.003721 0.003505 1.000003
0.005798 0.003505 1.000003
0.718482 0.003505 1.000003
0.911331 0.003505 1.000003
0.962839 0.030902 1.000003
0.984120 0.246924 0.999969
1.000003 0.762626 0.993940
0.003663 0.003505 1.000003
0.003663 0.003505 1.000003
0.003721 0.003505 1.000003
0.005688 0.003505 1.000003
0.719266 0.003505 1.000003
0.911892 0.003505 1.000003
0.963150 0.031229 1.000003
0.984344 0.249819 1.000003
1.000003 0.764447 0.994093
0.003505 0.003505 1.000003
0.003505 0.003505 1.000003
0.003663 0.003505 1.000003
0.004935 0.003505 1.000003
0.724688 0.003505 1.000003
0.916027 0.003505 1.000003
0.965493 0.035682 1.000003
0.986061 0.277844 1.000003
1.000003 0.777983 0.995281
0.003505 0.003505 1.000003
0.003505 0.003505 1.000003
0.003505 0.003505 1.000003
0.003850 0.003505 1.000003
0.719900 0.003505 1.000003
0.919392 0.003505 1.000003
0.969550 0.084335 1.000003
0.989400 0.431683 1.000003
1.000003 0.797237 0.997888
0.003505 0.462382 1.000003
0.003505 0.461624 1.000003
0.003505 0.454967 1.000003
0.003505 0.426319 1.000003
0.653330 0.351061 1.000003
0.909004 0.428659 1.000003
0.971592 0.590516 1.000003
0.991633 0.709107 1.000003
1.000003 0.825571 0.999774
0.013161 0.891437 1.000003
0.013224 0.891416 1.000003
0.014990 0.891162 1.000003
0.097618 0.888938 1.000003
0.689094 0.886092 1.000003
0.911032 0.884793 1.000003
0.972355 0.890543 1.000003
0.992451 0.899631 0.999831
1.000003 0.911108 0.998407
0.742368 0.970507 0.998418
0.742456 0.970516 0.998428
0.743528 0.970584 0.998501
0.754262 0.970693 0.998614
0.813857 0.970575 0.998409
0.916907 0.970053 0.997469
0.973849 0.969887 0.996332
0.992916 0.970962 0.995954
1.000003 0.971069 0.994997
0.867157 0.993694 0.995573
0.867217 0.993703 0.995582
0.867760 0.993779 0.995653
0.870555 0.993933 0.995783
0.885875 0.994018 0.995753
0.932014 0.993888 0.995172
0.974873 0.993664 0.994224
0.993639 0.993639 0.993639
1.000003 0.993071 0.992738
0.908163 1.000003 0.992433
0.908207 1.000003 0.992440
0.908583 1.000003 0.992495
0.910070 1.000003 0.992598
0.917146 1.000003 0.992594
0.942988 1.000003 0.992171
0.975598 1.000003 0.991344
0.992838 1.000003 0.990792
1.000003 1.000003 0.991403
0.003505 0.003505 1.000003
0.003505 0.003505 1.000003
0.003505 0.003505 1.000003
0.003663 0.003505 1.000003
0.677647 0.003505 1.000003
0.916419 0.003505 1.000003
0.966815 0.003663 1.000003
0.983455 0.113690 1.000003
0.992473 0.370091 1.000003
0.003505 0.003505 1.000003
0.003505 0.003505 1.000003
0.003505 0.003505 1.000003
0.003663 0.003505 1.000003
0.678172 0.003505 1.000003
0.917031 0.003505 1.000003
0.967147 0.003663 1.000003
0.983673 0.114671 1.000003
0.992647 0.374636 1.000003
0.003505 0.003505 1.000003
0.003505 0.003505 1.000003
0.003505 0.003505 1.000003
0.003505 0.003505 1.000003
0.681268 0.003505 1.000003
0.921597 0.003505 1.000003
0.969600 0.003663 1.000003
0.985345 0.124634 1.000003
0.993985 0.412127 1.000003
0.003505 0.003505 1.000003
0.003505 0.003505 1.000003
0.003505 0.003505 1.000003
0.003505 0.003505 1.000003
0.667769 0.003505 1.000003
0.926436 0.003505 1.000003
0.971965 0.004637 1.000003
0.988526 0.193764 1.000003
0.996604 0.524778 1.000003
0.003505 0.222393 1.000003
0.003505 0.221601 1.000003
0.003505 0.215049 1.000003
0.003505 0.194345 1.000003
0.492404 0.141801 1.000003
0.902720 0.180332 1.000003
0.969665 0.396096 1.000003
0.990452 0.626475 1.000003
0.998430 0.722152 1.000003
0.003505 0.882965 1.000003
0.003505 0.882933 1.000003
0.003505 0.882591 1.000003
0.003505 0.879843 1.000003
0.567343 0.868897 1.000003
0.902960 0.866733 1.000003
0.969830 0.873499 1.000003
0.991025 0.884300 1.000003
0.999103 0.894222 1.000003
0.670421 0.965591 1.000003
0.670483 0.965596 1.000003
0.671673 0.965630 1.000003
0.689122 0.965651 1.000003
0.780675 0.965373 1.000003
0.909004 0.964657 1.000003
0.971227 0.964441 1.000003
0.991404 0.965653 1.000003
0.999321 0.966949 1.000003
0.849938 0.990992 1.000003
0.849990 0.991000 1.000003
0.850485 0.991061 1.000003
0.853612 0.991180 1.000003
0.872216 0.991219 1.000003
0.925625 0.991024 1.000003
0.972245 0.990756 1.000003
0.992135 0.990740 1.000003
0.999633 0.991055 1.000003
0.900232 1.000003 1.000003
0.900277 1.000003 1.000003
0.900669 1.000003 1.000003
0.902305 1.000003 1.000003
0.910439 1.000003 1.000003
0.939495 1.000003 1.000003
0.974450 1.000003 1.000003
0.992335 0.999997 1.000003
1.000003 1.000003 1.000003
