3DLUTS/GC_VENOM_LUTS/Additional_Formats/3DL/GC_Venom_V-LOG/GC_Venom_Damyan_V-Log.3dl
# Converted by Briz LUT Converter
0 256 512 768 1023
0 310 434
0 346 805
0 293 2238
0 224 3860
0 172 4095
0 1132 686
0 1140 1160
0 1029 3135
0 914 4095
0 856 4095
0 2551 152
0 2631 735
0 2618 2349
0 2560 4095
0 2574 4095
0 4095 7
0 4095 741
0 4095 2038
0 4095 4095
0 4095 4095
2641 4095 3094
3494 4095 3743
4043 4095 4075
4093 4095 4095
4095 4095 4095
984 162 388
1011 166 824
840 79 2654
642 0 4095
440 0 4095
694 896 480
599 944 981
372 892 2975
214 823 4095
175 798 4095
0 2683 249
0 2772 822
0 2769 2493
0 2720 4095
0 2740 4095
0 4095 161
0 4095 875
0 4095 2200
0 4095 4095
0 4095 4095
4095 4095 4095
4095 4095 4095
4095 4095 4095
4095 4095 4095
4095 4095 4095
3354 0 71
3461 0 498
3409 0 2365
3321 0 4095
3275 0 4095
3520 395 34
3574 448 527
3508 403 2398
3424 343 4095
3423 344 4095
3073 2255 0
3163 2344 545
3166 2354 2098
3112 2309 4095
3130 2329 4095
2657 4095 52
2842 4095 1114
2991 4095 2411
3160 4073 3943
3419 4047 4095
4095 4095 4095
4095 4095 4095
4095 4095 4095
4095 4095 4095
4095 4095 4095
4095 0 0
4095 0 357
4095 0 2097
4095 0 4095
4095 0 4095
4095 338 0
4095 417 530
4095 397 2309
4095 346 4095
4095 357 4095
4095 2234 0
4095 2320 651
4095 2329 2094
4095 2273 4095
4095 2289 4095
4095 3990 2006
4095 4015 3002
4095 4037 3666
4094 4068 4056
4095 4095 4095
4095 4095 4095
4095 4095 4095
4095 4095 4095
4095 4095 4095
4095 4095 4095
4095 0 0
4095 0 331
4095 0 1991
4095 0 4095
4095 0 4095
4095 495 157
4095 582 694
4095 570 2490
4095 526 4095
4095 543 4095
4095 2420 151
4095 2502 817
4095 2502 2264
4095 2436 4095
4095 2469 4095
4095 4095 4076
4095 4095 4095
4095 4095 4095
4095 4095 4095
4095 4095 4095
4095 4095 4095
4095 4095 4095
4095 4095 4095
4095 4095 4095
4095 4095 4095
