3DLUTS/GC_VENOM_LUTS/Additional_Formats/3DL/GC_Venom_V-LOG/GC_Venom_Sakata_V-Log.3dl
# Converted by Briz LUT Converter
0 64 128 192 256 320 384 448 512 576 640 704 768 832 896 960 1023
0 0 0
0 0 0
0 0 0
0 0 0
0 0 0
0 0 0
0 0 0
0 0 0
0 0 0
0 0 0
0 0 0
0 0 0
0 0 0
0 0 0
0 0 0
0 0 0
0 0 0
0 0 0
0 0 0
0 0 0
0 0 0
0 0 0
0 0 0
0 0 0
0 0 0
0 0 0
0 0 0
0 0 0
0 0 0
0 0 0
0 0 0
0 0 0
0 0 0
0 0 0
0 0 0
0 0 0
0 0 0
0 0 0
0 0 0
0 0 0
0 0 0
0 0 0
0 0 0
0 0 0
0 0 0
0 0 0
0 0 0
0 0 0
0 0 0
0 0 0
0 0 0
0 0 0
0 0 0
0 0 0
0 0 0
0 0 0
0 4 11
0 13 66
0 20 158
0 25 297
0 26 478
0 24 698
0 19 956
0 13 1241
0 7 1548
0 0 1891
0 0 2262
0 0 2664
0 161 0
0 177 0
0 192 0
0 205 73
0 215 215
0 214 467
0 207 787
0 196 1158
0 181 1579
0 164 2046
0 143 2547
0 122 3075
0 105 3563
0 92 4035
0 75 4095
0 57 4095
0 36 4095
0 544 0
0 555 0
0 564 0
0 574 0
0 582 115
0 572 572
0 553 1123
0 531 1743
0 505 2422
0 476 3143
0 445 3883
0 412 4095
0 390 4095
0 376 4095
0 357 4095
0 338 4095
0 317 4095
0 1062 0
0 1066 0
0 1066 0
0 1065 0
0 1058 0
0 1032 327
0 996 996
0 957 1706
0 916 2440
0 875 3179
0 835 3907
0 798 4095
0 773 4095
0 756 4095
0 736 4095
0 717 4095
0 698 4095
0 1495 0
0 1484 0
0 1472 0
0 1461 0
0 1449 0
0 1423 0
0 1390 644
0 1354 1354
0 1317 2089
0 1282 2832
0 1254 3571
0 1233 4095
0 1227 4095
0 1231 4095
0 1237 4095
0 1247 4095
0 1261 4095
0 1941 0
0 1949 0
0 1960 0
0 1977 0
0 1997 0
0 2003 0
0 2001 490
0 1997 1228
0 1994 1994
0 1996 2772
0 1996 3538
0 1999 4095
0 2017 4095
0 2044 4095
0 2069 4095
0 2092 4095
0 2113 4095
0 2715 0
0 2748 0
0 2781 0
0 2814 0
0 2843 0
0 2852 0
0 2853 575
0 2849 1308
0 2842 2068
0 2833 2833
0 2823 3587
0 2814 4095
0 2819 4095
0 2833 4095
0 2843 4095
0 2854 4095
0 2864 4095
0 3520 0
0 3539 0
0 3558 0
0 3577 0
0 3594 0
0 3593 0
0 3590 559
0 3580 1281
0 3567 2032
0 3554 2791
0 3540 3540
0 3529 4095
0 3532 4095
0 3543 4095
0 3552 4095
0 3561 4095
0 3569 4095
0 4095 0
0 4095 0
0 4095 0
0 4095 0
0 4095 0
0 4095 0
0 4095 528
0 4095 1243
0 4095 1989
0 4095 2743
0 4095 3489
0 4095 4095
0 4095 4095
0 4095 4095
0 4095 4095
0 4095 4095
0 4095 4095
0 4095 0
0 4095 0
0 4095 0
0 4095 0
0 4095 0
0 4095 0
0 4095 583
0 4095 1293
0 4095 2035
0 4095 2786
0 4095 3528
0 4095 4095
0 4095 4095
0 4095 4095
0 4095 4095
0 4095 4095
0 4095 4095
0 4095 0
0 4095 0
0 4095 0
0 4095 0
0 4095 0
0 4095 8
0 4095 643
0 4095 1344
0 4095 2077
0 4095 2819
0 4095 3553
0 4095 4095
0 4095 4095
0 4095 4095
0 4095 4095
0 4095 4095
0 4095 4095
0 4095 0
0 4095 0
0 4095 0
0 4095 0
0 4095 0
0 4095 0
0 4095 622
0 4095 1336
0 4095 2084
0 4095 2833
0 4095 3557
0 4095 4095
0 4095 4095
0 4095 4095
0 4095 4095
0 4095 4095
0 4095 4095
0 4095 0
0 4095 0
0 4095 0
0 4095 0
0 4095 226
0 4095 845
0 4095 1503
0 4095 2142
0 4095 2729
235 4095 3263
487 4095 3727
748 4095 4095
1018 4095 4095
1296 4095 4095
1574 4095 4095
1857 4095 4095
2147 4095 4095
1071 4095 1071
1406 4095 1561
1724 4095 2000
2027 4095 2391
2327 4095 2752
2601 4095 3112
2860 4095 3424
3095 4095 3674
3322 4095 3871
3543 4095 4017
3759 4095 4095
3957 4095 4095
4095 4095 4095
4095 4095 4095
4095 4095 4095
4095 4095 4095
4095 4095 4095
0 0 0
0 0 0
0 0 0
0 0 0
0 0 0
0 0 0
0 0 0
0 0 0
0 0 0
0 0 0
0 0 0
0 0 0
0 0 0
0 0 0
0 0 0
0 0 0
0 0 0
0 0 0
0 0 0
0 0 0
0 0 0
0 0 0
0 0 0
0 0 0
0 0 0
0 0 0
0 0 0
0 0 0
0 0 0
0 0 0
0 0 0
0 0 0
0 0 0
0 0 0
0 0 0
0 0 0
0 0 0
0 0 0
0 0 0
0 0 0
0 0 0
0 0 0
0 0 0
0 0 0
0 0 0
0 0 0
0 0 0
0 0 0
0 0 28
0 0 221
0 0 460
0 0 0
0 0 0
0 11 4
0 24 24
0 36 68
0 43 160
0 45 296
0 44 476
0 39 698
0 31 964
0 20 1270
0 6 1611
0 0 1958
0 0 2315
0 0 2712
0 0 3138
0 0 3599
0 214 0
0 224 0
0 234 0
0 241 64
0 245 245
0 236 563
0 222 955
0 203 1405
0 180 1904
0 154 2448
0 127 3033
0 98 3647
0 76 4095
0 57 4095
0 36 4095
0 13 4095
0 0 4095
0 584 0
0 591 0
0 596 0
0 601 0
0 603 77
0 588 588
0 564 1202
0 534 1881
0 500 2606
0 464 3359
0 426 4095
0 389 4095
0 364 4095
0 347 4095
0 327 4095
0 307 4095
0 288 4095
0 1070 0
0 1063 0
0 1053 0
0 1042 0
0 1031 0
0 1004 299
0 968 968
0 929 1679
0 889 2414
0 848 3152
0 807 3880
0 769 4095
0 743 4095
0 727 4095
0 710 4095
0 694 4095
0 678 4095
0 1465 0
0 1454 0
0 1444 0
0 1437 0
0 1428 0
0 1405 0
0 1378 632
0 1354 1354
0 1330 2103
0 1307 2858
0 1287 3606
0 1275 4095
0 1281 4095
0 1298 4095
0 1314 4095
0 1332 4095
0 1355 4095
0 1986 0
0 2008 0
0 2031 0
0 2056 0
0 2084 0
0 2097 0
0 2105 593
0 2107 1337
0 2107 2107
0 2106 2883
0 2107 3650
0 2110 4095
0 2127 4095
0 2149 4095
0 2167 4095
0 2185 4095
0 2200 4095
0 2826 0
0 2856 0
0 2883 0
0 2909 0
0 2934 0
0 2939 0
0 2936 656
0 2926 1385
0 2914 2140
0 2902 2902
0 2890 3654
0 2880 4095
0 2884 4095
0 2898 4095
0 2909 4095
0 2919 4095
0 2928 4095
0 3587 0
0 3605 0
0 3625 0
0 3644 0
0 3660 0
0 3659 0
0 3653 621
0 3642 1342
0 3628 2092
0 3613 2850
0 3599 3599
0 3589 4095
0 3591 4095
0 3602 4095
0 3609 4095
0 3617 4095
0 3624 4095
0 4095 0
0 4095 0
0 4095 0
0 4095 0
0 4095 0
0 4095 0
0 4095 581
0 4095 1295
0 4095 2040
0 4095 2795
0 4095 3541
0 4095 4095
0 4095 4095
0 4095 4095
0 4095 4095
0 4095 4095
0 4095 4095
0 4095 0
0 4095 0
0 4095 0
0 4095 0
0 4095 0
0 4095 0
0 4095 625
0 4095 1335
0 4095 2076
0 4095 2824
0 4095 3561
0 4095 4095
0 4095 4095
0 4095 4095
0 4095 4095
0 4095 4095
0 4095 4095
0 4095 0
0 4095 0
0 4095 0
0 4095 0
0 4095 0
0 4095 19
0 4095 654
0 4095 1355
0 4095 2088
0 4095 2830
0 4095 3565
0 4095 4095
0 4095 4095
0 4095 4095
0 4095 4095
0 4095 4095
0 4095 4095
0 4095 0
0 4095 0
0 4095 0
0 4095 0
0 4095 0
0 4095 68
0 4095 736
0 4095 1466
0 4095 2204
0 4095 2921
0 4095 3595
0 4095 4095
0 4095 4095
0 4095 4095
0 4095 4095
0 4095 4095
140 4095 4095
0 4095 0
0 4095 0
0 4095 0
0 4095 393
183 4095 891
411 4095 1482
653 4095 2062
906 4095 2601
1156 4095 3081
1392 4095 3491
1620 4095 3834
1856 4095 4095
2118 4095 4095
2397 4095 4095
2653 4095 4095
2905 4095 4095
3157 4095 4095
2251 4095 2136
2540 4095 2540
2835 4095 2915
3114 4095 3241
3371 4095 3519
3590 4095 3756
3793 4095 3944
3976 4095 4078
4095 4095 4095
4095 4095 4095
4095 4095 4095
4095 4095 4095
4095 4095 4095
4095 4095 4095
4095 4095 4095
4095 4095 4095
4095 4095 4095
0 0 0
0 0 0
0 0 0
0 0 0
0 0 0
0 0 0
0 0 0
0 0 0
0 0 0
0 0 0
0 0 0
0 0 0
0 0 0
0 0 0
0 0 0
0 0 0
0 0 0
0 0 0
0 0 0
0 0 0
0 0 0
0 0 0
0 0 0
0 0 0
0 0 0
0 0 0
0 0 0
0 0 0
0 0 0
0 0 0
0 0 0
0 0 0
0 0 0
0 0 0
0 0 0
0 0 0
0 0 0
0 0 0
0 0 0
0 0 0
0 0 0
0 0 0
0 0 0
0 0 0
0 0 0
0 0 99
0 0 275
0 0 495
0 0 748
0 0 1035
0 0 1357
7 30 0
8 43 0
5 53 5
2 62 62
0 67 148
0 66 307
0 60 520
0 49 781
0 35 1088
0 19 1439
0 0 1829
0 0 2249
0 0 2657
0 0 3062
0 0 3508
0 0 3981
0 0 4095
0 250 0
0 254 0
0 257 0
0 260 40
0 258 258
0 243 638
0 221 1101
0 195 1626
0 165 2211
0 132 2838
0 98 3495
0 62 4095
0 35 4095
0 13 4095
0 0 4095
0 0 4095
0 0 4095
0 609 0
0 611 0
0 612 0
0 613 0
0 611 32
0 588 588
0 557 1244
0 522 1956
0 482 2700
0 440 3452
0 399 4095
0 360 4095
0 336 4095
0 319 4095
0 300 4095
0 282 4095
0 263 4095
0 1047 0
0 1036 0
0 1025 0
0 1016 0
0 1006 0
0 978 273
0 942 942
0 902 1652
0 860 2385
0 819 3124
0 780 3854
0 744 4095
0 722 4095
0 710 4095
0 700 4095
0 695 4095
0 694 4095
0 1441 0
0 1434 0
0 1429 0
0 1429 0
0 1435 0
0 1426 0
0 1410 663
0 1393 1393
0 1378 2151
0 1367 2919
0 1359 3678
0 1355 4095
0 1368 4095
0 1395 4095
0 1419 4095
0 1443 4095
0 1466 4095
0 2068 0
0 2096 0
0 2129 0
0 2163 0
0 2194 0
0 2210 6
0 2217 704
0 2219 1449
0 2219 2219
0 2216 2993
0 2211 3754
0 2208 4095
0 2219 4095
0 2237 4095
0 2250 4095
0 2262 4095
0 2273 4095
0 2921 0
0 2947 0
0 2970 0
0 2991 0
0 3009 0
0 3010 52
0 3005 724
0 2995 1452
0 2982 2207
0 2969 2969
0 2958 3723
0 2947 4095
0 2951 4095
0 2963 4095
0 2973 4095
0 2982 4095
0 2990 4095
0 3654 0
0 3672 0
0 3689 0
0 3707 0
0 3723 0
0 3721 27
0 3714 680
0 3703 1402
0 3689 2153
0 3674 2910
0 3659 3659
0 3646 4095
0 3647 4095
0 3657 4095
0 3664 4095
0 3671 4095
0 3677 4095
0 4095 0
0 4095 0
0 4095 0
0 4095 0
0 4095 0
0 4095 0
0 4095 633
0 4095 1347
0 4095 2092
0 4095 2846
0 4095 3590
0 4095 4095
0 4095 4095
0 4095 4095
0 4095 4095
0 4095 4095
0 4095 4095
0 4095 0
0 4095 0
0 4095 0
0 4095 0
0 4095 0
0 4095 21
0 4095 660
0 4095 1365
0 4095 2101
0 4095 2845
0 4095 3581
0 4095 4095
0 4095 4095
0 4095 4095
0 4095 4095
0 4095 4095
0 4095 4095
0 4095 0
0 4095 0
0 4095 0
0 4095 0
0 4095 0
0 4095 30
0 4095 664
0 4095 1367
0 4095 2103
0 4095 2847
0 4095 3584
0 4095 4095
0 4095 4095
0 4095 4095
0 4095 4095
0 4095 4095
0 4095 4095
0 4095 0
0 4095 0
0 4095 0
0 4095 0
0 4095 0
0 4095 304
0 4095 986
0 4095 1696
0 4095 2395
0 4095 3054
0 4095 3653
19 4095 4095
229 4095 4095
457 4095 4095
705 4095 4095
956 4095 4095
1197 4095 4095
218 4095 0
471 4095 251
734 4095 734
1008 4095 1211
1293 4095 1678
1548 4095 2187
1781 4095 2651
1999 4095 3059
2216 4095 3414
2443 4095 3714
2666 4095 3950
2879 4095 4095
3107 4095 4095
3346 4095 4095
3576 4095 4095
3794 4095 4095
3991 4095 4095
3276 4095 3162
3519 4095 3478
3747 4095 3747
3954 4095 3968
4095 4095 4095
4095 4095 4095
4095 4095 4095
4095 4095 4095
4095 4095 4095
4095 4095 4095
4095 4095 4095
4095 4095 4095
4095 4095 4095
4095 4095 4095
4095 4095 4095
4095 4095 4095
4095 4095 4095
0 0 0
0 0 0
0 0 0
0 0 0
0 0 0
0 0 0
0 0 0
0 0 0
0 0 0
0 0 0
0 0 0
0 0 0
0 0 0
0 0 0
0 0 0
0 0 0
0 0 0
0 0 0
0 0 0
0 0 0
0 0 0
0 0 0
0 0 0
0 0 0
0 0 0
0 0 0
0 0 0
0 0 0
0 0 0
0 0 0
0 0 0
0 0 0
0 0 0
