3DLUTS/GC_VENOM_LUTS/Additional_Formats/3DL/GC_Venom_V-LOG/GC_Venom_Sarkan_V-Log.3dl
# Converted by Briz LUT Converter
0 128 256 384 512 640 768 896 1023
0 0 0
0 0 0
0 0 0
0 0 0
0 0 0
0 0 0
0 0 0
0 0 0
0 0 0
0 0 0
0 0 0
0 0 0
0 0 0
0 0 0
0 0 0
0 0 0
0 0 0
0 0 0
0 105 8
0 128 69
0 149 143
0 140 432
0 107 914
0 76 1406
0 50 1924
0 28 2543
0 0 3320
0 830 0
0 884 0
0 952 0
0 955 788
0 866 2703
0 746 4095
0 669 4095
0 621 4095
0 560 4095
0 2318 0
0 2342 0
0 2375 0
0 2375 0
0 2273 1961
0 2122 4095
0 2048 4095
0 2013 4095
0 1968 4095
0 3738 0
0 3766 0
0 3799 0
0 3811 0
0 3736 1032
0 3590 3583
0 3508 4095
0 3474 4095
0 3430 4095
0 4095 0
0 4095 0
0 4095 0
0 4095 0
0 4095 653
0 4095 3102
0 4095 4095
0 4095 4095
0 4095 4095
0 4095 0
0 4095 0
0 4095 0
0 4095 0
0 4095 877
0 4095 3163
0 4095 4095
0 4095 4095
0 4095 4095
3121 4095 3214
3690 4095 3761
4045 4095 4059
4065 4095 4082
4076 4095 4095
4082 4095 4095
4090 4095 4095
4095 4095 4095
4095 4095 4095
0 0 0
0 0 0
0 0 0
0 0 0
0 0 0
0 0 0
0 0 0
0 0 0
0 0 0
0 0 0
0 0 0
0 0 0
0 0 0
0 0 0
0 0 0
0 0 0
0 0 0
0 0 0
0 175 0
0 188 81
0 203 195
0 181 673
0 126 1528
0 71 2438
0 21 3410
0 0 4095
0 0 4095
0 1007 0
0 1055 0
0 1114 0
0 1095 891
0 973 3101
0 827 4095
0 734 4095
0 686 4095
0 629 4095
0 2410 0
0 2440 0
0 2478 0
0 2482 47
0 2382 2072
0 2233 4095
0 2162 4095
0 2127 4095
0 2081 4095
0 3853 0
0 3880 0
0 3912 0
0 3922 0
0 3845 1140
0 3700 3711
0 3620 4095
0 3585 4095
0 3540 4095
0 4095 0
0 4095 0
0 4095 0
0 4095 0
0 4095 766
0 4095 3234
0 4095 4095
0 4095 4095
0 4095 4095
0 4095 0
0 4095 0
0 4095 0
0 4095 474
0 4095 1903
119 4095 3498
757 4095 4095
1427 4095 4095
1934 4095 4095
4090 4095 4091
4095 4095 4095
4095 4095 4095
4095 4095 4095
4095 4095 4095
4095 4095 4095
4095 4095 4095
4095 4095 4095
4095 4095 4095
0 0 0
0 0 0
0 0 0
0 0 0
0 0 0
0 0 0
0 0 0
0 0 0
0 0 0
0 0 0
0 0 0
17 7 13
26 9 60
22 5 127
19 0 214
17 0 346
15 0 571
8 0 847
238 187 0
247 194 36
258 203 194
213 169 901
115 85 2250
8 0 3739
0 0 4095
0 0 4095
0 0 4095
0 1103 0
0 1128 0
0 1164 0
0 1132 917
0 1009 3161
0 871 4095
0 785 4095
0 741 4095
0 690 4095
0 2495 0
0 2526 0
0 2568 0
0 2572 121
0 2474 2167
0 2328 4095
0 2254 4095
0 2219 4095
0 2172 4095
0 3946 0
0 3974 0
0 4007 0
0 4019 0
0 3939 1235
0 3795 3821
0 3717 4095
0 3681 4095
0 3636 4095
0 4095 0
0 4095 0
0 4095 0
0 4095 0
0 4095 858
0 4095 3338
0 4095 4095
0 4095 4095
0 4095 4095
0 4095 0
515 4095 585
1340 4095 1643
2042 4095 2482
2543 4095 3248
2814 4095 3856
3086 4095 4095
3410 4095 4095
3647 4095 4095
4095 4095 4095
4095 4095 4095
4095 4095 4095
4095 4095 4095
4095 4095 4095
4095 4095 4095
4095 4095 4095
4095 4095 4095
4095 4095 4095
0 0 0
0 0 0
0 0 0
0 0 0
0 0 0
0 0 0
0 0 0
0 0 0
0 0 0
200 0 0
285 0 3
367 0 45
386 0 251
361 0 614
334 0 984
331 0 1382
351 0 1847
372 0 2464
1295 16 0
1409 0 0
1535 0 0
1562 0 912
1492 0 2758
1403 0 4095
1358 0 4095
1357 0 4095
1324 0 4095
1425 853 0
1451 877 0
1492 917 0
1465 900 707
1342 793 2909
1198 664 4095
1111 587 4095
1072 549 4095
1023 501 4095
454 2335 0
485 2365 0
523 2403 0
531 2416 7
434 2327 2013
284 2184 4095
210 2115 4095
173 2077 4095
127 2032 4095
0 3834 0
0 3860 0
0 3893 0
0 3908 0
0 3837 1133
0 3696 3688
0 3617 4095
0 3582 4095
0 3535 4095
0 4095 0
0 4095 0
0 4095 0
0 4095 0
0 4095 797
0 4095 3191
0 4095 4095
0 4095 4095
96 4095 4095
2800 4095 2292
3293 4095 3085
3670 4095 3609
3922 4095 3921
4062 4095 4072
4069 4095 4094
4078 4095 4095
4091 4095 4095
4095 4095 4095
4095 4095 4095
4095 4095 4095
4095 4095 4095
4095 4095 4095
4095 4095 4095
4095 4095 4095
4095 4095 4095
4095 4095 4095
4095 4095 4095
0 0 0
0 0 0
0 0 0
0 0 0
0 0 0
0 0 0
0 0 0
0 0 0
0 0 0
907 0 0
1034 0 0
1172 0 0
1226 0 310
1206 0 985
1195 0 1767
1237 0 2527
1345 0 3366
1467 0 4095
3111 0 0
3331 0 0
3556 0 0
3646 0 713
3594 0 2889
3494 0 4095
3420 0 4095
3373 0 4095
3313 0 4095
3503 568 0
3531 597 0
3573 638 0
3566 634 468
3463 532 2605
3325 400 4095
3250 327 4095
3213 291 4095
3167 246 4095
2649 2051 0
2675 2078 0
2710 2112 0
2724 2125 0
2641 2041 1720
2499 1897 4095
2429 1826 4095
2393 1791 4095
2348 1745 4095
1763 3537 0
1789 3561 0
1818 3590 0
1834 3607 0
1774 3545 848
1639 3410 3353
1555 3326 4095
1518 3289 4095
1473 3243 4095
1380 4095 0
1474 4095 0
1620 4095 0
1775 4095 0
1912 4095 1239
2022 4095 3114
2226 4095 4095
2493 4095 4095
2755 4095 4095
4085 4095 4058
4095 4095 4083
4095 4095 4095
4095 4095 4095
4095 4095 4095
4095 4095 4095
4095 4095 4095
4095 4095 4095
4095 4095 4095
4095 4095 4095
4095 4095 4095
4095 4095 4095
4095 4095 4095
4095 4095 4095
4095 4095 4095
4095 4095 4095
4095 4095 4095
4095 4095 4095
0 0 0
0 0 0
0 0 0
0 0 0
2 2 2
11 0 11
54 0 73
135 0 218
210 0 406
1937 0 0
2124 0 0
2354 0 0
2497 0 281
2562 0 1312
2642 0 2640
2806 0 3889
3033 0 4095
3261 0 4095
4095 0 0
4095 0 0
4095 0 0
4095 0 490
4095 0 2678
4095 0 4095
4095 0 4095
4095 0 4095
4095 0 4095
4095 410 0
4095 441 0
4095 483 0
4095 486 345
4095 386 2419
4095 248 4095
4095 174 4095
4095 139 4095
4095 92 4095
4095 1842 0
4095 1872 0
4095 1906 0
4095 1916 0
4095 1833 1507
4095 1687 4095
4095 1613 4095
4095 1578 4095
4095 1532 4095
3744 3305 0
3765 3327 0
3790 3354 0
3809 3364 0
3763 3307 623
3641 3172 3066
3556 3080 4095
3518 3042 4095
3471 2993 4095
3401 4095 0
3470 4095 0
3557 4095 522
3638 4095 1566
3696 4095 2555
3724 4087 3514
3761 4052 4090
3820 4043 4095
3876 4042 4095
4095 4095 4095
4095 4095 4095
4095 4095 4095
4095 4095 4095
4095 4095 4095
4095 4095 4095
4095 4095 4095
4095 4095 4095
4095 4095 4095
4095 4095 4095
4095 4095 4095
4095 4095 4095
4095 4095 4095
4095 4095 4095
4095 4095 4095
4095 4095 4095
4095 4095 4095
4095 4095 4095
215 0 0
413 0 0
628 0 0
748 0 94
769 0 336
767 0 621
827 0 908
953 0 1266
1081 0 1713
3306 0 0
3604 0 0
3983 0 0
4095 0 216
4095 0 1684
4095 0 3608
4095 0 4095
4095 0 4095
4095 0 4095
4095 0 0
4095 0 0
4095 0 0
4095 0 402
4095 0 2560
4095 0 4095
4095 0 4095
4095 0 4095
4095 0 4095
4095 382 0
4095 414 0
4095 455 0
4095 460 331
4095 365 2376
4095 222 4095
4095 150 4095
4095 112 4095
4095 65 4095
4095 1815 0
4095 1843 0
4095 1877 0
4095 1890 0
4095 1810 1485
4095 1664 4072
4095 1585 4095
4095 1551 4095
4095 1504 4095
4095 3254 0
4095 3275 0
4095 3300 0
4095 3303 0
4095 3243 572
4095 3109 2975
4095 3025 4095
4095 3014 4095
4095 3014 4095
4095 4095 1015
4095 4095 2134
4095 4091 2930
4095 4083 3455
4093 4080 3789
4086 4079 3993
4087 4084 4086
4095 4095 4095
4095 4095 4095
4095 4095 4095
4095 4095 4095
4095 4095 4095
4095 4095 4095
4095 4095 4095
4095 4095 4095
4095 4095 4095
4095 4095 4095
4095 4095 4095
4095 4095 4095
4095 4095 4095
4095 4095 4095
4095 4095 4095
4095 4095 4095
4095 4095 4095
4095 4095 4095
4095 4095 4095
4095 4095 4095
1205 0 0
1443 0 0
1689 0 0
1833 0 146
1865 0 666
1864 0 1304
1989 0 1910
2203 0 2569
2452 0 3424
4095 0 0
4095 0 0
4095 0 0
4095 0 167
4095 0 2069
4095 0 4095
4095 0 4095
4095 0 4095
4095 0 4095
4095 0 0
4095 0 0
4095 0 0
4095 0 454
4095 0 2624
4095 0 4095
4095 0 4095
4095 0 4095
4095 0 4095
4095 445 0
4095 477 0
4095 517 0
4095 519 388
4095 420 2435
4095 278 4095
4095 204 4095
4095 167 4095
4095 119 4095
4095 1875 0
4095 1902 0
4095 1935 0
4095 1946 0
4095 1865 1539
4095 1717 4095
4095 1636 4095
4095 1598 4095
4095 1552 4095
4095 3295 0
4095 3314 0
4095 3342 0
4095 3356 0
4095 3323 1004
4095 3242 3133
4095 3227 4095
4095 3290 4095
4095 3357 4095
4095 4086 3637
4095 4094 4033
4095 4095 4075
4095 4095 4095
4095 4095 4095
4095 4095 4095
4095 4095 4095
4095 4095 4095
4095 4095 4095
4095 4095 4095
4095 4095 4095
4095 4095 4095
4095 4095 4095
4095 4095 4095
4095 4095 4095
4095 4095 4095
4095 4095 4095
4095 4095 4095
4095 4095 4095
4095 4095 4095
4095 4095 4095
4095 4095 4095
4095 4095 4095
4095 4095 4095
4095 4095 4095
4095 4095 4095
4095 4095 4095
2439 0 0
2710 0 0
3015 0 0
3245 0 147
3347 0 986
3449 0 2101
3731 0 3155
4095 0 4095
4095 0 4095
4095 0 0
4095 0 0
4095 0 0
4095 0 121
4095 0 2226
4095 0 4095
4095 0 4095
4095 0 4095
4095 0 4095
4095 0 0
4095 0 0
4095 0 0
4095 0 513
4095 0 2688
4095 0 4095
4095 0 4095
4095 0 4095
4095 0 4095
4095 501 0
4095 530 0
4095 571 0
4095 573 439
4095 474 2495
4095 331 4095
4095 258 4095
4095 221 4095
4095 174 4095
4095 1928 0
4095 1954 0
4095 1986 0
4095 1996 0
4095 1912 1586
4095 1762 4095
4095 1680 4095
4095 1639 4095
4095 1588 4095
4095 3357 0
4095 3403 0
4095 3466 0
4095 3527 899
4095 3562 2162
4095 3562 3500
4095 3603 4095
4095 3680 4095
4095 3732 4095
4095 4095 4095
4095 4095 4095
4095 4095 4095
4095 4095 4095
4095 4095 4095
4095 4095 4095
4095 4095 4095
4095 4095 4095
4095 4095 4095
4095 4095 4095
4095 4095 4095
4095 4095 4095
4095 4095 4095
4095 4095 4095
4095 4095 4095
4095 4095 4095
4095 4095 4095
4095 4095 4095
4095 4095 4095
4095 4095 4095
4095 4095 4095
4095 4095 4095
4095 4095 4095
4095 4095 4095
4095 4095 4095
4095 4095 4095
4095 4095 4095
