3DLUTS/GC_VENOM_LUTS/Additional_Formats/3DL/GC_Venom_V-LOG/GC_Venom_Sarkan_V-Log.3dl
# Converted by Briz LUT Converter
0 64 128 192 256 320 384 448 512 576 640 704 768 832 896 960 1023
0 0 0
0 0 0
0 0 0
0 0 0
0 0 0
0 0 0
0 0 0
0 0 0
0 0 0
0 0 0
0 0 0
0 0 0
0 0 0
0 0 0
0 0 0
0 0 0
0 0 0
0 0 0
0 0 0
0 0 0
0 0 0
0 0 0
0 0 0
0 0 0
0 0 0
0 0 0
0 0 0
0 0 0
0 0 0
0 0 0
0 0 0
0 0 0
0 0 0
0 0 0
0 0 0
0 0 0
0 0 0
0 0 0
0 0 0
0 0 0
0 0 0
0 0 0
0 0 0
0 0 0
0 0 0
0 0 0
0 0 0
0 0 0
0 0 0
0 0 0
0 0 0
0 0 0
0 0 0
0 0 0
0 0 0
0 0 0
0 0 0
0 0 0
0 0 0
0 0 0
1 1 1
2 2 5
0 3 27
0 5 78
0 5 147
0 6 236
0 5 340
0 3 439
0 105 8
0 116 38
0 128 69
0 139 96
0 149 143
0 149 256
0 140 432
0 126 654
0 107 914
0 89 1165
0 76 1406
0 61 1654
0 50 1924
0 40 2206
0 28 2543
0 14 2910
0 0 3320
0 360 0
0 369 0
0 381 30
0 396 99
0 413 172
0 414 370
0 397 752
0 369 1259
0 333 1899
0 290 2636
0 262 3246
0 231 3935
0 207 4095
0 188 4095
0 164 4095
0 137 4095
0 106 4095
0 830 0
0 854 0
0 884 0
0 916 0
0 952 0
0 968 200
0 955 788
0 920 1642
0 866 2703
0 795 3979
0 746 4095
0 699 4095
0 669 4095
0 649 4095
0 621 4095
0 591 4095
0 560 4095
0 1628 0
0 1653 0
0 1674 0
0 1694 0
0 1713 0
0 1716 0
0 1692 383
0 1641 1334
0 1573 2483
0 1487 3844
0 1421 4095
0 1367 4095
0 1333 4095
0 1314 4095
0 1289 4095
0 1263 4095
0 1237 4095
0 2318 0
0 2329 0
0 2342 0
0 2357 0
0 2375 0
0 2385 0
0 2375 0
0 2333 853
0 2273 1961
0 2200 3264
0 2122 4095
0 2078 4095
0 2048 4095
0 2034 4095
0 2013 4095
0 1991 4095
0 1968 4095
0 3020 0
0 3033 0
0 3049 0
0 3066 0
0 3085 0
0 3096 0
0 3095 0
0 3062 417
0 3010 1479
0 2941 2722
0 2861 4095
0 2814 4095
0 2786 4095
0 2772 4095
0 2752 4095
0 2730 4095
0 2706 4095
0 3738 0
0 3752 0
0 3766 0
0 3783 0
0 3799 0
0 3806 0
0 3811 0
0 3787 21
0 3736 1032
0 3670 2219
0 3590 3583
0 3536 4095
0 3508 4095
0 3494 4095
0 3474 4095
0 3453 4095
0 3430 4095
0 4095 0
0 4095 0
0 4095 0
0 4095 0
0 4095 0
0 4095 0
0 4095 0
0 4095 0
0 4095 714
0 4095 1852
0 4095 3177
0 4095 4095
0 4095 4095
0 4095 4095
0 4095 4095
0 4095 4095
0 4095 4095
0 4095 0
0 4095 0
0 4095 0
0 4095 0
0 4095 0
0 4095 0
0 4095 0
0 4095 0
0 4095 653
0 4095 1788
0 4095 3102
0 4095 4095
0 4095 4095
0 4095 4095
0 4095 4095
0 4095 4095
0 4095 4095
0 4095 0
0 4095 0
0 4095 0
0 4095 0
0 4095 0
0 4095 0
0 4095 0
0 4095 0
0 4095 674
0 4095 1815
0 4095 3138
0 4095 4095
0 4095 4095
0 4095 4095
0 4095 4095
0 4095 4095
0 4095 4095
0 4095 0
0 4095 0
0 4095 0
0 4095 0
0 4095 0
0 4095 0
0 4095 0
0 4095 0
0 4095 877
0 4095 1969
0 4095 3163
0 4095 4095
0 4095 4095
0 4095 4095
0 4095 4095
0 4095 4095
0 4095 4095
0 4095 0
0 4095 0
0 4095 0
0 4095 276
0 4095 811
133 4095 1346
589 4095 1794
1003 4095 2294
1330 4095 2806
1612 4095 3277
1861 4095 3707
2063 4095 4023
2290 4095 4095
2527 4095 4095
2730 4095 4095
2932 4095 4095
3115 4095 4095
3121 4095 3214
3436 4095 3525
3690 4095 3761
3898 4095 3939
4045 4095 4059
4055 4095 4071
4065 4095 4082
4071 4095 4092
4076 4095 4095
4079 4095 4095
4082 4095 4095
4084 4095 4095
4090 4095 4095
4095 4095 4095
4095 4095 4095
4095 4095 4095
4095 4095 4095
0 0 0
0 0 0
0 0 0
0 0 0
0 0 0
0 0 0
0 0 0
0 0 0
0 0 0
0 0 0
0 0 0
0 0 0
0 0 0
0 0 0
0 0 0
0 0 0
0 0 0
0 0 0
0 0 0
0 0 0
0 0 0
0 0 0
0 0 0
0 0 0
0 0 0
0 0 0
0 0 0
0 0 0
0 0 0
0 0 0
0 0 0
0 0 0
0 0 0
0 0 0
0 0 0
0 0 0
0 0 0
0 0 0
0 0 0
0 0 0
0 0 0
0 0 0
0 0 0
0 0 0
0 0 0
0 0 0
0 0 0
0 0 0
0 0 0
0 0 0
0 0 0
0 0 0
1 1 1
2 7 7
0 16 16
0 26 34
0 30 66
0 30 111
0 27 167
0 23 229
0 19 285
0 16 356
0 13 437
0 10 533
0 8 667
0 3 816
0 0 965
0 0 1151
0 145 0
0 154 38
0 163 80
0 174 115
0 181 174
0 178 319
0 166 557
0 146 851
0 121 1209
0 97 1567
0 78 1890
0 58 2262
0 42 2624
0 27 3005
0 9 3435
0 0 3929
0 0 4095
0 402 0
0 414 0
0 425 6
0 439 89
0 456 173
0 459 407
0 442 872
0 411 1497
0 366 2276
0 313 3178
0 279 3923
0 239 4095
0 209 4095
0 186 4095
0 156 4095
0 123 4095
0 86 4095
0 923 0
0 950 0
0 977 0
0 1006 0
0 1039 0
0 1053 184
0 1035 847
0 992 1792
0 930 2954
0 850 4095
0 795 4095
0 740 4095
0 704 4095
0 681 4095
0 652 4095
0 623 4095
0 592 4095
0 1696 0
0 1705 0
0 1716 0
0 1730 0
0 1747 0
0 1752 0
0 1729 414
0 1680 1370
0 1613 2526
0 1530 3893
0 1465 4095
0 1411 4095
0 1378 4095
0 1361 4095
0 1337 4095
0 1312 4095
0 1289 4095
0 2363 0
0 2375 0
0 2390 0
0 2407 0
0 2426 0
0 2437 0
0 2429 4
0 2388 904
0 2329 2016
0 2253 3326
0 2178 4095
0 2133 4095
0 2105 4095
0 2090 4095
0 2069 4095
0 2049 4095
0 2026 4095
0 3077 0
0 3091 0
0 3107 0
0 3125 0
0 3145 0
0 3157 0
0 3156 0
0 3122 472
0 3068 1537
0 2998 2785
0 2918 4095
0 2872 4095
0 2843 4095
0 2829 4095
0 2809 4095
0 2787 4095
0 2763 4095
0 3797 0
0 3810 0
0 3825 0
0 3842 0
0 3858 0
0 3864 0
0 3868 0
0 3841 68
0 3790 1086
0 3724 2279
0 3645 3647
0 3593 4095
0 3566 4095
0 3552 4095
0 3531 4095
0 3509 4095
0 3487 4095
0 4095 0
0 4095 0
0 4095 0
0 4095 0
0 4095 0
0 4095 0
0 4095 0
0 4095 0
0 4095 778
0 4095 1921
0 4095 3252
0 4095 4095
0 4095 4095
0 4095 4095
0 4095 4095
0 4095 4095
0 4095 4095
0 4095 0
0 4095 0
0 4095 0
0 4095 0
0 4095 0
0 4095 0
0 4095 0
0 4095 0
0 4095 712
0 4095 1850
0 4095 3171
0 4095 4095
0 4095 4095
0 4095 4095
0 4095 4095
0 4095 4095
0 4095 4095
0 4095 0
0 4095 0
0 4095 0
0 4095 0
0 4095 0
0 4095 0
0 4095 0
0 4095 0
0 4095 728
0 4095 1871
0 4095 3197
0 4095 4095
0 4095 4095
0 4095 4095
0 4095 4095
0 4095 4095
0 4095 4095
0 4095 0
0 4095 0
0 4095 0
0 4095 0
0 4095 0
0 4095 0
0 4095 0
0 4095 403
0 4095 1307
0 4095 2284
0 4095 3312
0 4095 4095
0 4095 4095
0 4095 4095
0 4095 4095
250 4095 4095
595 4095 4095
0 4095 0
25 4095 465
504 4095 1043
989 4095 1576
1469 4095 2064
1881 4095 2490
2240 4095 2822
2528 4095 3139
2747 4095 3434
2893 4095 3674
2999 4095 3885
3125 4095 4048
3292 4095 4095
3480 4095 4095
3614 4095 4095
3744 4095 4095
3852 4095 4095
4045 4095 4048
4057 4095 4062
4068 4095 4076
4079 4095 4088
4089 4095 4095
4095 4095 4095
4095 4095 4095
4095 4095 4095
4095 4095 4095
4095 4095 4095
4095 4095 4095
4095 4095 4095
4095 4095 4095
4095 4095 4095
4095 4095 4095
4095 4095 4095
4095 4095 4095
0 0 0
0 0 0
0 0 0
0 0 0
0 0 0
0 0 0
0 0 0
0 0 0
0 0 0
0 0 0
0 0 0
0 0 0
0 0 0
0 0 0
0 0 0
0 0 0
0 0 0
0 0 0
0 0 0
0 0 0
0 0 0
0 0 0
0 0 0
0 0 0
0 0 0
0 0 0
0 0 0
0 0 0
0 0 0
0 0 0
0 0 0
0 0 0
0 0 0
0 0 0
0 0 0
0 0 0
0 0 0
0 0 0
0 0 0
0 0 0
0 0 0
0 0 0
0 0 0
0 0 0
0 0 0
0 0 0
0 0 0
0 0 0
0 0 0
0 0 0
0 0 0
8 24 7
10 33 19
10 41 33
10 50 51
9 57 80
3 58 144
0 54 243
0 46 366
0 36 500
0 27 634
0 20 773
0 11 911
0 4 1077
0 0 1270
0 0 1468
0 0 1701
0 0 1947
0 175 0
0 180 26
0 188 81
0 197 123
0 203 195
0 199 375
0 181 673
0 158 1057
0 126 1528
0 96 2014
0 71 2438
0 44 2927
0 21 3410
0 0 3910
0 0 4095
0 0 4095
0 0 4095
0 440 0
0 451 0
0 465 0
0 483 65
0 503 163
0 504 442
0 481 993
0 443 1736
0 391 2672
0 329 3741
0 287 4095
0 239 4095
0 202 4095
0 175 4095
0 141 4095
0 105 4095
0 66 4095
0 1007 0
0 1030 0
0 1055 0
0 1083 0
0 1114 0
0 1122 170
0 1095 891
0 1043 1892
0 973 3101
0 886 4095
0 827 4095
0 770 4095
0 734 4095
0 712 4095
0 686 4095
0 658 4095
0 629 4095
0 1728 0
0 1738 0
0 1750 0
0 1765 0
0 1785 0
0 1791 0
0 1770 446
0 1720 1409
0 1654 2571
0 1572 3944
0 1509 4095
0 1457 4095
0 1425 4095
0 1410 4095
0 1387 4095
0 1364 4095
0 1339 4095
0 2410 0
0 2423 0
0 2440 0
0 2458 0
0 2478 0
0 2491 0
0 2482 47
0 2440 954
0 2382 2072
0 2307 3388
0 2233 4095
0 2189 4095
0 2162 4095
0 2147 4095
0 2127 4095
0 2105 4095
0 2081 4095
0 3135 0
0 3150 0
0 3166 0
0 3184 0
0 3203 0
0 3215 0
0 3212 0
0 3178 521
0 3123 1593
0 3053 2848
0 2974 4095
0 2927 4095
0 2898 4095
0 2882 4095
0 2861 4095
0 2839 4095
0 2815 4095
0 3853 0
0 3866 0
0 3880 0
0 3895 0
0 3912 0
0 3919 0
0 3922 0
0 3896 116
0 3845 1140
0 3780 2341
0 3700 3711
0 3648 4095
0 3620 4095
0 3606 4095
0 3585 4095
0 3563 4095
0 3540 4095
0 4095 0
0 4095 0
0 4095 0
0 4095 0
0 4095 0
0 4095 0
0 4095 0
0 4095 0
0 4095 843
0 4095 1992
0 4095 3324
0 4095 4095
0 4095 4095
0 4095 4095
0 4095 4095
0 4095 4095
0 4095 4095
0 4095 0
0 4095 0
0 4095 0
0 4095 0
0 4095 0
0 4095 0
0 4095 0
0 4095 0
0 4095 766
0 4095 1908
0 4095 3234
0 4095 4095
0 4095 4095
0 4095 4095
0 4095 4095
0 4095 4095
0 4095 4095
0 4095 0
0 4095 0
0 4095 0
0 4095 0
0 4095 0
0 4095 0
0 4095 0
0 4095 0
0 4095 780
0 4095 1932
0 4095 3255
0 4095 4095
0 4095 4095
0 4095 4095
0 4095 4095
0 4095 4095
0 4095 4095
0 4095 0
0 4095 0
0 4095 0
0 4095 0
0 4095 0
0 4095 3
0 4095 474
0 4095 1115
0 4095 1903
0 4095 2705
119 4095 3498
426 4095 4091
757 4095 4095
1106 4095 4095
1427 4095 4095
1709 4095 4095
1934 4095 4095
1324 4095 1386
1780 4095 1938
2192 4095 2405
2577 4095 2808
2905 4095 3132
3161 4095 3386
3387 4095 3586
3554 4095 3748
3669 4095 3874
3771 4095 3973
3832 4095 4040
3898 4095 4083
3995 4095 4095
4050 4095 4095
4056 4095 4095
4063 4095 4095
4069 4095 4095
4090 4095 4091
4095 4095 4095
4095 4095 4095
4095 4095 4095
4095 4095 4095
4095 4095 4095
4095 4095 4095
4095 4095 4095
4095 4095 4095
4095 4095 4095
4095 4095 4095
4095 4095 4095
4095 4095 4095
4095 4095 4095
4095 4095 4095
4095 4095 4095
4095 4095 4095
0 0 0
0 0 0
0 0 0
0 0 0
0 0 0
0 0 0
0 0 0
0 0 0
0 0 0
0 0 0
0 0 0
0 0 0
0 0 0
0 0 0
0 0 0
0 0 0
0 0 0
0 0 0
0 0 0
0 0 0
0 0 0
0 0 0
0 0 0
0 0 0
0 0 0
0 0 0
0 0 0
0 0 0
0 0 0
0 0 0
0 0 0
0 0 0
0 0 0
