3DLUTS/GC_VENOM_LUTS/Additional_Formats/3DL/GC_Venom_V-LOG/GC_Venom_Jomei_V-Log.3dl
# Converted by Briz LUT Converter
0 256 512 768 1023
7 7 7
23 23 23
37 37 37
51 51 51
67 67 67
81 242 81
10 268 268
0 197 1603
0 71 3720
0 39 4095
0 1957 0
0 2062 0
0 1999 1999
0 1970 4095
0 2053 4095
0 4095 0
0 4095 0
0 4095 1782
0 4095 4095
0 4095 4095
1178 4095 1237
2445 4095 3062
3547 4095 3984
4095 4095 4095
4095 4095 4095
63 63 63
78 78 78
90 91 91
103 104 104
118 119 119
304 304 0
309 309 309
158 159 3050
97 98 4095
113 114 4095
0 2327 0
0 2446 0
0 2386 2386
0 2368 4095
0 2457 4095
0 4095 0
31 4095 30
16 4095 2158
0 4095 4095
9 4095 4095
4095 4095 4095
4095 4095 4095
4095 4095 4095
4095 4095 4095
4095 4095 4095
115 115 115
130 131 131
143 144 144
158 159 159
286 105 566
2915 0 0
2980 0 0
2809 0 2838
2743 0 4095
2804 0 4095
2190 2284 0
2311 2402 0
2274 2374 2374
2254 2361 4095
2338 2445 4095
1884 4095 0
1978 4095 69
2018 4095 2151
2208 4095 4095
2674 4095 4095
4095 4095 4095
4095 4095 4095
4095 4095 4095
4095 4095 4095
4095 4095 4095
330 130 130
895 0 116
1550 0 613
2135 0 2211
2803 0 3566
4095 0 0
4095 0 0
4095 0 2766
4095 0 4095
4095 0 4095
4095 2278 0
4095 2396 5
4095 2358 2358
4095 2314 4095
4095 2389 4095
4095 4095 0
4095 4095 1195
4095 4095 3380
4084 4084 4084
4095 4095 4095
4095 4095 4095
4095 4095 4095
4095 4095 4095
4095 4095 4095
4095 4095 4095
3607 0 0
4056 0 0
4095 0 1507
4095 0 3721
4095 0 4095
4095 136 0
4095 245 245
4095 190 3065
4095 204 4095
4095 292 4095
4095 2569 0
4095 2676 263
4095 2622 2622
4095 2566 4095
4095 2621 4095
4095 4095 3768
4095 4095 4095
4095 4095 4095
4095 4095 4095
4095 4095 4095
4095 4095 4095
4095 4095 4095
4095 4095 4095
4095 4095 4095
4095 4095 4095
