3DLUTS/GC_VENOM_LUTS/Additional_Formats/3DL/GC_Venom_V-LOG/GC_Venom_Vlasta_V-Log.3dl
# Converted by Briz LUT Converter
0 128 256 384 512 640 768 896 1023
0 0 0
0 0 0
0 0 0
0 0 0
0 0 0
0 0 0
0 0 0
0 0 0
0 0 0
0 0 0
0 0 0
0 0 0
0 0 0
0 0 0
0 0 0
0 0 0
0 0 0
0 0 0
0 146 0
0 158 0
0 156 218
0 139 601
0 118 1021
0 97 1483
0 81 1976
0 70 2527
0 55 3186
0 996 0
0 1028 0
0 1037 0
0 972 1340
0 924 2957
0 877 4095
0 851 4095
0 851 4095
0 844 4095
0 2488 0
0 2478 0
0 2455 0
0 2331 778
0 2244 2664
0 2176 4095
0 2137 4095
0 2135 4095
0 2132 4095
0 3807 0
0 3808 0
0 3799 0
0 3682 88
0 3593 2073
0 3526 3800
0 3491 4095
0 3493 4095
0 3495 4095
0 4095 0
0 4095 0
0 4095 0
0 4095 0
0 4095 1725
0 4095 3474
0 4095 4095
0 4095 4095
0 4095 4095
0 4095 0
0 4095 0
0 4095 0
0 4095 0
0 4095 1695
0 4095 3406
0 4095 4095
0 4095 4095
0 4095 4095
1816 4095 1621
2581 4095 2619
3195 4095 3325
3561 4095 3780
3838 4095 4003
4043 4095 4091
4060 4095 4095
4086 4095 4095
4095 4095 4095
0 0 0
0 0 0
0 0 0
0 0 0
0 0 0
0 0 0
0 0 0
0 0 0
0 0 0
0 0 0
0 0 0
0 0 0
0 0 0
0 0 0
0 0 0
0 0 0
0 0 0
3 1 66
0 227 0
0 222 0
0 202 304
0 164 946
0 123 1650
0 81 2411
0 45 3213
0 17 4063
0 0 4095
0 1157 0
0 1177 0
0 1158 0
0 1068 1509
0 987 3314
0 913 4095
0 869 4095
0 862 4095
0 854 4095
0 2497 0
0 2490 0
0 2470 0
0 2349 801
0 2263 2678
0 2195 4095
0 2160 4095
0 2159 4095
0 2158 4095
0 3833 0
0 3834 0
0 3826 0
0 3708 125
0 3621 2098
0 3554 3820
0 3519 4095
0 3521 4095
0 3521 4095
0 4095 0
0 4095 0
0 4095 0
0 4095 0
0 4095 1742
0 4095 3484
0 4095 4095
0 4095 4095
0 4095 4095
0 4095 0
0 4095 0
0 4095 0
0 4095 280
0 4095 2137
0 4095 3510
0 4095 4095
281 4095 4095
891 4095 4095
4053 4095 4042
4078 4095 4073
4095 4095 4095
4095 4095 4095
4095 4095 4095
4095 4095 4095
4095 4095 4095
4095 4095 4095
4095 4095 4095
0 0 0
0 0 0
0 0 0
0 0 0
0 0 0
0 0 0
0 0 0
0 0 0
0 0 0
0 0 0
0 0 0
13 5 18
26 7 86
34 3 192
39 0 336
46 0 549
56 0 853
62 0 1198
201 276 0
183 263 0
144 227 369
89 169 1333
32 106 2401
0 40 3562
0 0 4095
0 0 4095
0 0 4095
0 1291 0
0 1278 0
0 1230 0
0 1119 1570
0 1028 3363
0 951 4095
0 908 4095
0 903 4095
0 897 4095
0 2535 0
0 2530 0
0 2513 0
0 2392 848
0 2307 2719
0 2238 4095
0 2201 4095
0 2204 4095
0 2205 4095
0 3873 0
0 3876 0
0 3868 0
0 3748 175
0 3660 2134
0 3593 3852
0 3558 4095
0 3559 4095
0 3559 4095
0 4095 0
0 4095 0
0 4095 0
0 4095 0
0 4095 1766
0 4095 3501
0 4095 4095
0 4095 4095
0 4095 4095
0 4095 0
0 4095 0
455 4095 49
935 4095 1788
1380 4095 2969
1797 4095 3737
2204 4095 4095
2672 4095 4095
3070 4095 4095
4095 4095 4095
4095 4095 4095
4095 4095 4095
4095 4095 4095
4095 4095 4095
4095 4095 4095
4095 4095 4095
4095 4095 4095
4095 4095 4095
0 0 0
0 0 0
0 0 0
0 0 0
0 0 0
0 0 0
0 0 0
0 0 0
0 0 0
218 11 0
278 3 0
317 0 163
332 0 455
339 0 781
347 0 1140
373 0 1551
415 0 2009
463 0 2583
1022 192 0
1065 162 0
1076 101 264
1051 9 1639
1023 0 3096
999 0 4095
997 0 4095
1017 0 4095
1025 0 4095
865 1190 0
850 1176 0
814 1140 0
705 1028 1475
626 944 3290
562 875 4095
527 836 4095
525 834 4095
523 831 4095
248 2489 0
244 2486 0
228 2472 0
116 2354 800
41 2270 2690
0 2203 4095
0 2168 4095
0 2170 4095
0 2173 4095
0 3843 0
0 3846 0
0 3840 0
0 3720 126
0 3628 2108
0 3556 3831
0 3520 4095
0 3520 4095
0 3518 4095
0 4095 0
0 4095 0
0 4095 0
0 4095 0
0 4095 1713
0 4095 3455
0 4095 4095
0 4095 4095
0 4095 4095
2009 4095 360
2521 4095 1580
2961 4095 2520
3220 4095 3275
3453 4095 3741
3665 4095 3991
3894 4095 4093
4068 4095 4095
4092 4095 4095
4095 4095 4095
4095 4095 4095
4095 4095 4095
4095 4095 4095
4095 4095 4095
4095 4095 4095
4095 4095 4095
4095 4095 4095
4095 4095 4095
0 0 0
0 0 0
0 0 0
0 0 0
0 0 0
0 0 0
0 0 0
0 0 0
0 0 0
922 0 0
1012 0 0
1077 0 172
1096 0 736
1118 0 1324
1166 0 1973
1245 0 2640
1379 0 3355
1530 0 4095
2640 0 0
2764 0 0
2854 0 0
2863 0 1735
2856 0 3491
2834 0 4095
2815 0 4095
2808 0 4095
2800 0 4095
2625 983 0
2615 972 0
2589 945 0
2471 831 1270
2386 750 3108
2316 683 4095
2279 649 4095
2279 649 4095
2277 648 4095
1976 2322 0
1976 2321 0
1964 2309 0
1845 2191 621
1761 2109 2538
1696 2045 4095
1662 2011 4095
1665 2014 4095
1665 2015 4095
1381 3699 0
1384 3702 0
1377 3695 0
1262 3579 0
1170 3487 1973
1101 3416 3710
1064 3378 4095
1062 3376 4095
1060 3374 4095
1002 4095 0
1018 4095 0
1079 4095 0
1077 4095 0
1133 4095 1833
1271 4095 3400
1508 4095 4095
1807 4095 4095
2109 4095 4095
3798 4095 3345
4010 4095 3902
4088 4095 4064
4095 4095 4093
4095 4095 4095
4095 4095 4095
4095 4095 4095
4095 4095 4095
4095 4095 4095
4095 4095 4095
4095 4095 4095
4095 4095 4095
4095 4095 4095
4095 4095 4095
4095 4095 4095
4095 4095 4095
4095 4095 4095
4095 4095 4095
0 0 0
0 0 0
0 0 0
0 0 0
2 2 2
67 0 69
165 0 209
303 0 435
441 0 711
2111 0 0
2262 0 0
2410 0 0
2463 0 921
2572 0 1853
2734 0 2876
2941 0 3895
3214 0 4095
3487 0 4095
4095 0 0
4095 0 0
4095 0 0
4095 0 1552
4095 0 3356
4095 0 4095
4095 0 4095
4095 0 4095
4095 0 4095
4095 748 0
4095 741 0
4095 719 0
4095 604 1033
4095 525 2894
4095 462 4095
4095 428 4095
4095 430 4095
4095 431 4095
3867 2114 0
3871 2116 0
3863 2107 0
3740 1990 398
3649 1906 2344
3577 1842 4057
3541 1810 4095
3543 1812 4095
3543 1812 4095
3237 3502 0
3240 3504 0
3234 3497 0
3114 3383 0
3012 3286 1777
2936 3215 3529
2892 3176 4095
2888 3172 4095
2881 3166 4095
2906 4095 0
2977 4095 0
3068 4095 0
3101 4095 869
3142 4095 2482
3223 4095 3530
3325 4084 4095
3452 4063 4095
3575 4051 4095
4095 4095 4095
4095 4095 4095
4095 4095 4095
4095 4095 4095
4095 4095 4095
4095 4095 4095
4095 4095 4095
4095 4095 4095
4095 4095 4095
4095 4095 4095
4095 4095 4095
4095 4095 4095
4095 4095 4095
4095 4095 4095
4095 4095 4095
4095 4095 4095
4095 4095 4095
4095 4095 4095
323 0 0
537 0 0
725 0 35
810 0 252
897 0 494
987 0 768
1132 0 1092
1338 0 1468
1551 0 1914
3780 0 0
4057 0 0
4095 0 0
4095 0 1068
4095 0 2407
4095 0 3795
4095 0 4095
4095 0 4095
4095 0 4095
4095 0 0
4095 0 0
4095 0 0
4095 0 1349
4095 0 3166
4095 0 4095
4095 0 4095
4095 0 4095
4095 0 4095
4095 575 0
4095 570 0
4095 551 0
4095 436 858
4095 359 2734
4095 297 4095
4095 265 4095
4095 267 4095
4095 270 4095
4095 1959 0
4095 1961 0
4095 1952 0
4095 1837 233
4095 1753 2194
4095 1689 3915
4095 1655 4095
4095 1658 4095
4095 1657 4095
4095 3348 0
4095 3350 0
4095 3341 0
4095 3228 0
4095 3126 1619
4095 3053 3378
4095 3014 4095
4095 3019 4095
4095 3036 4095
4095 4095 0
4095 4095 288
4095 4095 1499
4057 4094 2583
4022 4054 3369
4014 4040 3831
4024 4043 4063
4051 4061 4095
4083 4086 4095
4095 4095 4095
4095 4095 4095
4095 4095 4095
4095 4095 4095
4095 4095 4095
4095 4095 4095
4095 4095 4095
4095 4095 4095
4095 4095 4095
4095 4095 4095
4095 4095 4095
4095 4095 4095
4095 4095 4095
4095 4095 4095
4095 4095 4095
4095 4095 4095
4095 4095 4095
4095 4095 4095
1598 0 0
1851 0 0
2063 0 0
2114 0 492
2211 0 982
2340 0 1504
2567 0 2064
2884 0 2646
3252 0 3363
4095 0 0
4095 0 0
4095 0 0
4095 0 1188
4095 0 2885
4095 0 4095
4095 0 4095
4095 0 4095
4095 0 4095
4095 0 0
4095 0 0
4095 0 0
4095 0 1263
4095 0 3081
4095 0 4095
4095 0 4095
4095 0 4095
4095 0 4095
4095 506 0
4095 503 0
4095 486 0
4095 373 797
4095 297 2670
4095 237 4095
4095 206 4095
4095 209 4095
4095 211 4095
4095 1904 0
4095 1905 0
4095 1896 0
4095 1780 179
4095 1696 2137
4095 1631 3854
4095 1597 4095
4095 1596 4095
4095 1596 4095
4095 3284 0
4095 3284 0
4095 3275 0
4095 3165 0
4095 3081 1647
4095 3040 3334
4095 3056 4095
4095 3125 4095
4095 3201 4095
4095 4091 2288
4095 4083 3117
4095 4085 3717
4095 4090 4010
4095 4095 4082
4095 4095 4095
4095 4095 4095
4095 4095 4095
4095 4095 4095
4095 4095 4095
4095 4095 4095
4095 4095 4095
4095 4095 4095
4095 4095 4095
4095 4095 4095
4095 4095 4095
4095 4095 4095
4095 4095 4095
4095 4095 4095
4095 4095 4095
4095 4095 4095
4095 4095 4095
4095 4095 4095
4095 4095 4095
4095 4095 4095
4095 4095 4095
4095 4095 4095
3209 0 0
3496 0 0
3784 0 0
3900 0 669
4085 0 1464
4095 0 2312
4095 0 3209
4095 0 4074
4095 0 4095
4095 0 0
4095 0 0
4095 0 0
4095 0 1164
4095 0 2998
4095 0 4095
4095 0 4095
4095 0 4095
4095 0 4095
4095 0 0
4095 0 0
4095 0 0
4095 0 1165
4095 0 2985
4095 0 4095
4095 0 4095
4095 0 4095
4095 0 4095
4095 422 0
4095 420 0
4095 405 0
4095 293 718
4095 217 2589
4095 158 4095
4095 129 4095
4095 132 4095
4095 134 4095
4095 1827 0
4095 1827 0
4095 1817 0
4095 1700 100
4095 1616 2056
4095 1550 3773
4095 1514 4095
4095 1512 4095
4095 1508 4095
4095 3209 0
4095 3228 0
4095 3258 0
4095 3216 360
4095 3211 2171
4095 3248 3446
4095 3321 4095
4095 3425 4095
4095 3514 4095
4095 4095 4061
4095 4095 4092
4095 4095 4095
4095 4095 4095
4095 4095 4095
4095 4095 4095
4095 4095 4095
4095 4095 4095
4095 4095 4095
4095 4095 4095
4095 4095 4095
4095 4095 4095
4095 4095 4095
4095 4095 4095
4095 4095 4095
4095 4095 4095
4095 4095 4095
4095 4095 4095
4095 4095 4095
4095 4095 4095
4095 4095 4095
4095 4095 4095
4095 4095 4095
4095 4095 4095
4095 4095 4095
4095 4095 4095
4095 4095 4095
