3DLUTS/GC_VENOM_LUTS/Additional_Formats/3DL/GC_Venom_V-LOG/GC_Venom_Gituku_V-Log.3dl
# Converted by Briz LUT Converter
0 256 512 768 1023
0 0 0
0 0 0
0 0 0
0 0 0
0 0 0
0 108 0
0 153 185
0 150 967
0 127 2099
0 106 3429
0 2050 0
0 2059 0
0 1968 2340
0 1908 4095
0 1919 4095
0 4095 0
0 4095 0
0 4095 2098
0 4095 4095
0 4095 4095
2558 4095 2528
3469 4095 3611
4055 4095 4082
4094 4095 4095
4095 4095 4095
0 0 0
0 0 0
0 0 0
0 0 0
0 0 0
185 215 0
181 220 296
107 156 2024
8 70 4095
0 11 4095
0 2158 0
0 2181 0
0 2106 2483
0 2059 4095
0 2085 4095
0 4095 0
0 4095 0
0 4095 2335
0 4095 4095
0 4095 4095
4095 4095 4095
4095 4095 4095
4095 4095 4095
4095 4095 4095
4095 4095 4095
0 0 0
0 0 0
0 0 0
10 0 18
208 0 545
2023 54 0
2271 5 127
2302 0 2863
2250 0 4095
2243 0 4095
1910 2057 0
1946 2095 0
1890 2034 2398
1862 2002 4095
1902 2041 4095
1854 4095 0
2024 4095 0
2282 4095 2598
2736 4095 4095
3225 4087 4095
4095 4095 4095
4095 4095 4095
4095 4095 4095
4095 4095 4095
4095 4095 4095
135 0 0
535 0 64
892 0 576
1217 0 1402
1589 0 2408
4095 0 0
4095 0 0
4095 0 2756
4095 0 4095
4095 0 4095
4095 2050 0
4095 2102 0
4095 2051 2400
4095 2024 4095
4095 2067 4095
4022 4095 933
4020 4092 2697
4029 4062 3769
4075 4082 4092
4095 4095 4095
4095 4095 4095
4095 4095 4095
4095 4095 4095
4095 4095 4095
4095 4095 4095
1834 0 0
2376 0 82
2901 0 1346
3592 0 3113
4095 0 4095
4095 0 0
4095 0 4
4095 0 2839
4095 0 4095
4095 0 4095
4095 2251 0
4095 2304 0
4095 2249 2600
4095 2214 4095
4095 2245 4095
4095 4095 4057
4095 4095 4095
4095 4095 4095
4095 4095 4095
4095 4095 4095
4095 4095 4095
4095 4095 4095
4095 4095 4095
4095 4095 4095
4095 4095 4095
