3DLUTS/GC_VENOM_LUTS/Additional_Formats/3DL/GC_Venom_V-LOG/GC_Venom_Nirnasha_V-Log.3dl
# Converted by Briz LUT Converter
0 64 128 192 256 320 384 448 512 576 640 704 768 832 896 960 1023
0 0 0
0 0 0
0 0 0
0 0 0
0 0 0
0 0 0
0 0 0
0 0 0
0 0 0
0 0 0
0 0 0
0 0 0
0 0 0
0 0 0
0 0 0
0 0 0
0 0 0
0 0 0
0 0 0
0 0 0
0 0 0
0 0 0
0 0 0
0 0 0
0 0 0
0 0 0
0 0 0
0 0 0
0 0 0
0 0 0
0 0 0
0 0 0
0 0 0
0 0 0
0 0 0
0 0 0
0 0 0
0 0 0
0 0 0
0 0 0
0 0 0
0 0 0
0 0 0
0 0 0
0 0 0
0 0 0
0 0 0
0 0 0
0 0 0
0 0 0
0 0 0
0 0 0
0 0 0
0 0 0
0 0 0
0 0 0
0 4 15
0 13 77
0 20 177
0 23 326
0 22 514
0 19 740
0 12 1002
0 5 1289
0 0 1595
0 0 1933
0 0 2298
0 0 2689
0 158 0
0 172 0
0 185 0
0 194 78
0 201 230
0 197 493
0 187 818
0 174 1193
0 156 1611
0 136 2070
0 114 2561
0 91 3072
0 73 3543
0 58 3996
0 41 4095
0 22 4095
0 1 4095
0 510 0
0 518 0
0 524 0
0 530 0
0 534 118
0 520 593
0 500 1151
0 476 1768
0 452 2436
0 426 3140
0 398 3856
0 371 4095
0 357 4095
0 351 4095
0 344 4095
0 336 4095
0 327 4095
0 1015 0
0 1024 0
0 1033 0
0 1040 0
0 1042 0
0 1021 414
0 992 1104
0 962 1820
0 931 2550
0 901 3278
0 872 3989
0 845 4095
0 833 4095
0 829 4095
0 822 4095
0 815 4095
0 809 4095
0 1546 0
0 1547 0
0 1546 0
0 1546 0
0 1544 0
0 1522 164
0 1494 855
0 1465 1573
0 1435 2306
0 1405 3036
0 1378 3751
0 1353 4095
0 1341 4095
0 1338 4095
0 1332 4095
0 1327 4095
0 1321 4095
0 2062 0
0 2064 0
0 2065 0
0 2066 0
0 2065 0
0 2043 0
0 2017 598
0 1987 1317
0 1957 2049
0 1928 2781
0 1900 3495
0 1874 4095
0 1862 4095
0 1860 4095
0 1855 4095
0 1851 4095
0 1846 4095
0 2585 0
0 2587 0
0 2588 0
0 2590 0
0 2590 0
0 2570 0
0 2544 339
0 2518 1061
0 2490 1796
0 2462 2529
0 2436 3246
0 2413 3932
0 2405 4095
0 2406 4095
0 2405 4095
0 2405 4095
0 2406 4095
0 3122 0
0 3127 0
0 3133 0
0 3138 0
0 3143 0
0 3129 0
0 3110 132
0 3088 858
0 3066 1600
0 3045 2339
0 3026 3063
0 3010 3757
0 3009 4095
0 3018 4095
0 3026 4095
0 3034 4095
0 3043 4095
0 3710 0
0 3723 0
0 3737 0
0 3752 0
0 3765 0
0 3758 0
0 3746 31
0 3731 765
0 3715 1511
0 3699 2256
0 3685 2985
0 3675 3683
0 3678 4095
0 3693 4095
0 3705 4095
0 3715 4095
0 3726 4095
0 4095 0
0 4095 0
0 4095 0
0 4095 0
0 4095 0
0 4095 0
0 4095 105
0 4095 840
0 4095 1587
0 4095 2331
0 4095 3059
0 4095 3756
0 4095 4095
0 4095 4095
0 4095 4095
0 4095 4095
0 4095 4095
0 4095 0
0 4095 0
0 4095 0
0 4095 0
0 4095 0
0 4095 0
0 4095 235
0 4095 965
0 4095 1708
0 4095 2448
0 4095 3172
0 4095 3864
0 4095 4095
0 4095 4095
0 4095 4095
0 4095 4095
0 4095 4095
0 4095 0
0 4095 0
0 4095 0
0 4095 0
0 4095 0
0 4095 0
0 4095 280
0 4095 1011
0 4095 1757
0 4095 2495
0 4095 3202
0 4095 3858
0 4095 4095
0 4095 4095
0 4095 4095
0 4095 4095
0 4095 4095
0 4095 0
0 4095 0
0 4095 0
0 4095 0
0 4095 0
0 4095 575
0 4095 1261
0 4095 1914
0 4095 2508
0 4095 3041
213 4095 3504
445 4095 3890
686 4095 4095
949 4095 4095
1235 4095 4095
1529 4095 4095
1834 4095 4095
728 4095 910
1053 4095 1415
1383 4095 1858
1700 4095 2247
2018 4095 2604
2308 4095 2957
2586 4095 3262
2838 4095 3504
3080 4095 3695
3317 4095 3837
3546 4095 3932
3756 4052 3983
3943 4006 3999
3954 4016 4011
3964 4026 4024
3974 4037 4036
3987 4049 4051
0 0 0
0 0 0
0 0 0
0 0 0
0 0 0
0 0 0
0 0 0
0 0 0
0 0 0
0 0 0
0 0 0
0 0 0
0 0 0
0 0 0
0 0 0
0 0 0
0 0 0
0 0 0
0 0 0
0 0 0
0 0 0
0 0 0
0 0 0
0 0 0
0 0 0
0 0 0
0 0 0
0 0 0
0 0 0
0 0 0
0 0 0
0 0 0
0 0 0
0 0 0
0 0 0
0 0 0
0 0 0
0 0 0
0 0 0
0 0 0
0 0 0
0 0 0
0 0 0
0 0 0
0 0 0
0 0 0
0 0 0
0 0 0
0 0 35
0 0 247
0 0 500
0 0 0
0 0 2
0 12 7
0 25 30
0 36 80
0 42 179
0 43 324
0 40 511
0 34 740
0 25 1010
0 12 1317
0 0 1658
0 0 2001
0 0 2351
0 0 2738
0 0 3152
0 0 3598
0 210 0
0 218 0
0 224 0
0 229 70
0 229 262
0 218 592
0 200 990
0 180 1441
0 156 1935
0 128 2467
0 100 3036
0 71 3629
0 49 4095
0 31 4095
0 10 4095
0 0 4095
0 0 4095
0 553 0
0 559 0
0 562 0
0 565 0
0 566 94
0 551 628
0 530 1252
0 503 1929
0 474 2644
0 444 3381
0 417 4095
0 391 4095
0 377 4095
0 371 4095
0 364 4095
0 357 4095
0 351 4095
0 1065 0
0 1069 0
0 1070 0
0 1069 0
0 1066 0
0 1044 438
0 1016 1128
0 986 1844
0 956 2575
0 926 3303
0 896 4014
0 870 4095
0 857 4095
0 853 4095
0 847 4095
0 841 4095
0 835 4095
0 1571 0
0 1570 0
0 1571 0
0 1571 0
0 1569 0
0 1548 190
0 1522 882
0 1494 1603
0 1464 2334
0 1435 3065
0 1406 3779
0 1381 4095
0 1369 4095
0 1366 4095
0 1361 4095
0 1355 4095
0 1350 4095
0 2090 0
0 2091 0
0 2093 0
0 2094 0
0 2092 0
0 2071 0
0 2046 626
0 2017 1346
0 1986 2078
0 1957 2808
0 1928 3523
0 1903 4095
0 1892 4095
0 1890 4095
0 1886 4095
0 1883 4095
0 1880 4095
0 2615 0
0 2617 0
0 2619 0
0 2621 0
0 2623 0
0 2605 0
0 2580 374
0 2553 1096
0 2527 1832
0 2501 2566
0 2476 3285
0 2455 3973
0 2448 4095
0 2453 4095
0 2455 4095
0 2457 4095
0 2460 4095
0 3163 0
0 3170 0
0 3179 0
0 3188 0
0 3195 0
0 3183 0
0 3166 187
0 3147 917
0 3127 1659
0 3108 2401
0 3091 3127
0 3078 3823
0 3080 4095
0 3091 4095
0 3100 4095
0 3109 4095
0 3119 4095
0 3779 0
0 3795 0
0 3810 0
0 3827 0
0 3841 0
0 3834 0
0 3822 109
0 3809 842
0 3794 1589
0 3779 2335
0 3767 3066
0 3757 3764
0 3760 4095
0 3773 4095
0 3783 4095
0 3793 4095
0 3802 4095
0 4095 0
0 4095 0
0 4095 0
0 4095 0
0 4095 0
0 4095 0
0 4095 181
0 4095 914
0 4095 1660
0 4095 2404
0 4095 3130
0 4095 3826
0 4095 4095
0 4095 4095
0 4095 4095
0 4095 4095
0 4095 4095
0 4095 0
0 4095 0
0 4095 0
0 4095 0
0 4095 0
0 4095 0
0 4095 297
0 4095 1026
0 4095 1767
0 4095 2505
0 4095 3226
0 4095 3915
0 4095 4095
0 4095 4095
0 4095 4095
0 4095 4095
0 4095 4095
0 4095 0
0 4095 0
0 4095 0
0 4095 0
0 4095 0
0 4095 0
0 4095 415
0 4095 1160
0 4095 1899
0 4095 2611
0 4095 3277
0 4095 3878
0 4095 4095
0 4095 4095
0 4095 4095
0 4095 4095
0 4095 4095
0 4095 0
0 4095 0
0 4095 0
0 4095 133
0 4095 672
137 4095 1283
353 4095 1876
577 4095 2425
806 4095 2908
1040 4095 3315
1277 4095 3651
1524 4095 3921
1799 4095 4089
2096 4095 4095
2368 4095 4095
2637 4095 4095
2906 4095 4095
1933 4095 1995
2241 4095 2394
2556 4095 2764
2855 4095 3082
3131 4095 3353
3364 4095 3583
3581 4095 3766
3774 4055 3897
3947 4006 3983
3955 4014 3994
3964 4023 4007
3974 4032 4020
3982 4042 4033
3995 4055 4047
4009 4067 4062
4022 4080 4076
4035 4092 4090
0 0 0
0 0 0
0 0 0
0 0 0
0 0 0
0 0 0
0 0 0
0 0 0
0 0 0
0 0 0
0 0 0
0 0 0
0 0 0
0 0 0
0 0 0
0 0 0
0 0 0
0 0 0
0 0 0
0 0 0
0 0 0
0 0 0
0 0 0
0 0 0
0 0 0
0 0 0
0 0 0
0 0 0
0 0 0
0 0 0
0 0 0
0 0 0
0 0 0
0 0 0
0 0 0
0 0 0
0 0 0
0 0 0
0 0 0
0 0 0
0 0 0
0 0 0
0 0 0
0 0 0
0 0 0
0 0 116
0 0 305
0 0 537
0 0 795
0 0 1088
0 0 1412
5 32 0
4 44 0
1 54 9
0 61 72
0 66 165
0 63 335
0 55 556
0 44 824
0 29 1136
0 10 1486
0 0 1874
0 0 2288
0 0 2686
0 0 3080
0 0 3512
0 0 3968
0 0 4095
0 245 0
0 247 0
0 248 0
0 247 47
0 244 280
0 226 673
0 203 1141
0 175 1665
0 146 2242
0 113 2854
0 79 3491
0 45 4095
0 21 4095
0 4 4095
0 0 4095
0 0 4095
0 0 4095
0 589 0
0 592 0
0 596 0
0 599 0
0 599 76
0 580 661
0 556 1329
0 528 2043
0 498 2780
0 468 3518
0 439 4095
0 412 4095
0 399 4095
0 395 4095
0 388 4095
0 382 4095
0 376 4095
0 1094 0
0 1093 0
0 1093 0
0 1093 0
0 1090 0
0 1069 462
0 1040 1153
0 1010 1869
0 980 2600
0 950 3327
0 921 4039
0 895 4095
0 883 4095
0 880 4095
0 875 4095
0 870 4095
0 865 4095
0 1596 0
0 1597 0
0 1598 0
0 1599 0
0 1599 0
0 1578 219
0 1551 911
0 1522 1630
0 1492 2363
0 1463 3093
0 1435 3807
0 1409 4095
0 1397 4095
0 1395 4095
0 1389 4095
0 1384 4095
0 1379 4095
0 2118 0
0 2119 0
0 2120 0
0 2123 0
0 2122 0
0 2101 0
0 2074 653
0 2046 1373
0 2016 2107
0 1987 2838
0 1959 3553
0 1935 4095
0 1926 4095
0 1925 4095
0 1922 4095
0 1919 4095
0 1917 4095
0 2647 0
0 2651 0
0 2654 0
0 2658 0
0 2660 0
0 2642 0
0 2619 411
0 2594 1136
0 2569 1873
0 2545 2609
0 2523 3330
0 2505 4022
0 2500 4095
0 2507 4095
0 2511 4095
0 2516 4095
0 2521 4095
0 3214 0
0 3223 0
0 3234 0
0 3245 0
0 3255 0
0 3244 0
0 3229 248
0 3213 981
0 3196 1727
0 3180 2470
0 3164 3199
0 3152 3896
0 3155 4095
0 3167 4095
0 3177 4095
0 3187 4095
0 3198 4095
0 3853 0
0 3870 0
0 3886 0
0 3904 0
0 3919 0
0 3914 0
0 3904 189
0 3890 924
0 3876 1670
0 3861 2415
0 3847 3145
0 3836 3843
0 3839 4095
0 3851 4095
0 3860 4095
0 3869 4095
0 3878 4095
0 4095 0
0 4095 0
0 4095 0
0 4095 0
0 4095 0
0 4095 0
0 4095 253
0 4095 984
0 4095 1728
0 4095 2470
0 4095 3196
0 4095 3890
0 4095 4095
0 4095 4095
0 4095 4095
0 4095 4095
0 4095 4095
0 4095 0
0 4095 0
0 4095 0
0 4095 0
0 4095 0
0 4095 0
0 4095 353
0 4095 1079
0 4095 1816
0 4095 2551
0 4095 3269
0 4095 3956
0 4095 4095
0 4095 4095
0 4095 4095
0 4095 4095
0 4095 4095
0 4095 0
0 4095 0
0 4095 0
0 4095 0
0 4095 0
0 4095 0
0 4095 703
0 4095 1429
0 4095 2132
0 4095 2791
0 4095 3386
0 4095 3905
0 4095 4095
183 4095 4095
406 4095 4095
627 4095 4095
850 4095 4095
0 4095 0
190 4095 0
422 4095 534
664 4095 1039
932 4095 1521
1194 4095 2034
1437 4095 2496
1667 4095 2899
1898 4095 3247
2140 4095 3539
2379 4095 3769
2607 4095 3939
2851 4095 4033
3107 4095 4076
3351 4095 4094
3583 4082 4084
3791 4035 4052
3028 4095 3005
3287 4095 3312
3530 4095 3575
3751 4071 3791
3949 4007 3964
3959 4015 3977
3968 4024 3990
3976 4034 4003
3985 4043 4016
3994 4051 4029
4006 4062 4043
4017 4073 4058
4030 4085 4073
4043 4095 4087
4056 4095 4095
4069 4095 4095
4082 4095 4095
0 0 0
0 0 0
0 0 0
0 0 0
0 0 0
0 0 0
0 0 0
0 0 0
0 0 0
0 0 0
0 0 0
0 0 0
0 0 0
0 0 0
0 0 0
0 0 0
0 0 0
0 0 0
0 0 0
0 0 0
0 0 0
0 0 0
0 0 0
0 0 0
0 0 0
0 0 0
0 0 0
0 0 0
0 0 0
0 0 0
0 0 0
0 0 0
0 0 0
