3DLUTS/GC_VENOM_LUTS/Additional_Formats/3DL/GC_Venom_V-LOG/GC_Venom_Ayla_V-Log.3dl
# Converted by Briz LUT Converter
0 256 512 768 1023
0 0 0
0 0 0
0 0 0
0 0 0
0 0 0
0 31 0
0 81 81
0 96 528
0 92 1254
0 86 2162
0 2069 0
0 2125 0
0 2085 2086
0 2098 4095
0 2196 4095
0 4095 0
0 4095 0
0 4095 2619
0 4095 4095
171 4095 4095
4095 4095 4095
4095 4095 4095
4095 4095 4095
4095 4095 4095
4095 4095 4095
0 0 0
0 0 0
0 0 0
0 0 0
0 0 0
136 146 0
137 149 149
89 101 1323
20 30 2955
0 0 4095
0 2346 0
0 2453 0
0 2445 2447
0 2482 4095
0 2598 4095
598 4095 0
1583 4095 1549
2353 4095 3492
3068 4095 4095
3749 4095 4095
4095 4095 4095
4095 4095 4095
4095 4095 4095
4095 4095 4095
4095 4095 4095
0 0 0
0 0 0
0 0 0
0 0 0
0 0 0
1639 0 0
1962 0 0
2204 0 2235
2379 0 4095
2505 0 4095
2385 2435 0
2507 2557 0
2500 2552 2554
2531 2585 4095
2634 2687 4095
3746 4095 2954
4010 4095 3890
4095 4095 4095
4095 4095 4095
4095 4095 4095
4095 4095 4095
4095 4095 4095
4095 4095 4095
4095 4095 4095
4095 4095 4095
0 0 0
76 0 9
409 0 229
735 0 726
1099 0 1406
4095 0 0
4095 0 0
4095 0 2497
4095 0 4095
4095 0 4095
4095 2604 0
4095 2714 0
4095 2686 2687
4095 2689 4095
4095 2847 4095
4095 4095 4095
4095 4095 4095
4095 4095 4095
4095 4095 4095
4095 4095 4095
4095 4095 4095
4095 4095 4095
4095 4095 4095
4095 4095 4095
4095 4095 4095
1223 0 0
1720 0 12
2194 0 874
2797 0 2085
3565 0 3479
4095 0 0
4095 0 0
4095 0 2782
4095 0 4095
4095 0 4095
4095 2910 0
4095 3093 456
4095 3246 3247
4095 3452 4095
4095 3692 4095
4095 4095 4095
4095 4095 4095
4095 4095 4095
4095 4095 4095
4095 4095 4095
4095 4095 4095
4095 4095 4095
4095 4095 4095
4095 4095 4095
4095 4095 4095
