3DLUTS/GC_VENOM_LUTS/Additional_Formats/3DL/GC_Venom_V-LOG/GC_Venom_Hadria_V-Log.3dl
# Converted by Briz LUT Converter
0 128 256 384 512 640 768 896 1023
0 0 0
0 0 0
0 0 0
0 0 0
0 0 0
0 0 0
0 0 0
0 0 0
0 0 0
0 0 0
0 0 0
0 0 0
0 0 0
0 0 0
0 0 0
0 0 0
0 0 0
0 0 0
0 106 16
0 130 80
0 153 169
0 152 511
0 132 1109
0 121 1588
0 112 2067
0 106 2534
0 97 3065
0 583 0
0 604 0
0 624 139
0 614 732
0 539 2186
0 493 3306
0 475 4095
0 472 4095
0 469 4095
0 1639 0
0 1673 0
0 1705 0
0 1710 0
0 1633 1748
0 1577 3382
0 1594 4095
0 1637 4095
0 1679 4095
0 2963 0
0 3030 0
0 3098 0
0 3139 0
0 3112 1262
0 3060 3089
0 3086 3980
0 3138 4095
0 3189 4095
0 4095 0
0 4095 0
0 4095 0
0 4095 202
0 4095 1524
0 4095 3396
0 4095 4095
0 4095 4095
0 4095 4095
0 4095 0
0 4095 0
0 4095 220
0 4095 1041
0 4095 2328
225 4095 3772
779 4095 4095
1405 4095 4095
2010 4095 4095
3671 4095 3705
3998 4095 4012
4076 4095 4084
4094 4095 4095
4095 4095 4095
4095 4095 4095
4095 4095 4095
4095 4095 4095
4095 4095 4095
0 0 0
0 0 0
0 0 0
0 0 0
0 0 0
0 0 0
0 0 0
0 0 0
0 0 0
0 0 0
0 0 0
0 0 0
0 0 0
0 0 0
0 0 0
3 7 149
0 10 390
0 7 687
15 182 0
5 199 104
0 213 240
0 197 734
0 154 1597
0 129 2230
0 108 2819
0 94 3346
0 75 3919
0 653 0
0 678 0
0 700 106
0 684 827
0 592 2530
0 540 3797
0 522 4095
0 527 4095
0 532 4095
0 1755 0
0 1806 0
0 1863 0
0 1886 107
0 1821 1932
0 1775 3545
0 1797 4095
0 1845 4095
0 1891 4095
0 3177 0
0 3247 0
0 3315 0
0 3356 0
0 3329 1497
0 3280 3306
0 3307 4095
0 3358 4095
0 3405 4095
0 4095 0
0 4095 0
0 4095 0
0 4095 383
0 4095 1738
0 4095 3593
0 4095 4095
0 4095 4095
0 4095 4095
0 4095 0
368 4095 667
886 4095 1391
1388 4095 2160
1887 4095 3104
2357 4095 3919
2812 4095 4095
3251 4095 4095
3595 4095 4095
4095 4095 4095
4095 4095 4095
4095 4095 4095
4095 4095 4095
4095 4095 4095
4095 4095 4095
4095 4095 4095
4095 4095 4095
4095 4095 4095
0 0 0
0 0 0
0 0 0
0 0 0
0 0 0
0 0 0
0 0 0
0 0 0
0 0 0
0 0 0
0 0 0
20 13 25
38 22 129
45 19 367
48 13 624
48 5 933
48 0 1285
45 0 1690
163 226 0
164 236 100
164 244 280
122 216 913
46 150 2016
2 112 2779
0 82 3448
0 61 4033
0 38 4095
0 728 0
0 754 0
0 780 79
0 760 924
0 662 2820
0 609 4095
0 599 4095
0 616 4095
0 639 4095
0 1931 0
0 1995 0
0 2059 0
0 2087 284
0 2025 2134
0 1985 3723
0 2009 4095
0 2061 4095
0 2110 4095
0 3393 0
0 3464 0
0 3533 0
0 3573 142
0 3540 1722
0 3492 3515
0 3518 4095
0 3566 4095
0 3611 4095
0 4095 0
0 4095 0
0 4095 0
0 4095 542
0 4095 1917
0 4095 3749
0 4095 4095
0 4095 4095
225 4095 4095
1772 4095 1559
2302 4095 2284
2781 4095 2878
3173 4095 3366
3503 4095 3796
3773 4095 4050
3993 4095 4095
4078 4095 4095
4095 4095 4095
4095 4095 4095
4095 4095 4095
4095 4095 4095
4095 4095 4095
4095 4095 4095
4095 4095 4095
4095 4095 4095
4095 4095 4095
4095 4095 4095
0 0 0
0 0 0
0 0 0
0 0 0
0 0 0
0 0 0
0 0 0
0 0 0
0 0 0
135 23 3
195 27 45
249 29 114
273 18 371
272 0 874
276 0 1302
286 0 1739
304 0 2176
318 0 2679
606 191 0
631 190 13
655 188 241
622 153 944
540 71 2294
497 22 3242
476 0 4030
475 0 4095
470 0 4095
496 728 0
517 757 0
541 783 99
543 774 934
468 687 2843
444 654 4095
462 665 4095
503 705 4095
544 745 4095
24 2046 0
83 2114 0
143 2182 0
211 2213 468
205 2156 2270
212 2111 3920
269 2138 4095
321 2190 4095
375 2241 4095
0 3528 0
0 3598 0
55 3666 0
108 3703 313
97 3673 1823
61 3617 3646
94 3639 4095
139 3683 4095
181 3723 4095
276 4095 0
327 4095 0
436 4095 42
585 4095 826
752 4095 2127
956 4095 3760
1276 4095 4095
1671 4095 4095
2095 4095 4095
3429 4095 3235
3729 4095 3658
3972 4095 3960
4078 4095 4080
4095 4095 4095
4095 4095 4095
4095 4095 4095
4095 4095 4095
4095 4095 4095
4095 4095 4095
4095 4095 4095
4095 4095 4095
4095 4095 4095
4095 4095 4095
4095 4095 4095
4095 4095 4095
4095 4095 4095
4095 4095 4095
0 0 0
0 0 0
0 0 0
0 0 0
0 0 0
0 0 0
0 0 0
47 0 91
147 0 324
753 0 0
876 0 0
994 0 74
1064 0 419
1087 0 1180
1128 0 1796
1185 0 2331
1267 0 2839
1335 0 3381
1913 0 0
2014 0 0
2119 0 0
2157 0 714
2117 0 2316
2108 0 3449
2139 0 4095
2199 0 4095
2246 0 4095
2307 461 0
2351 501 0
2401 546 0
2399 570 710
2309 515 2621
2257 501 4054
2265 531 4095
2311 578 4095
2354 624 4095
1701 1965 0
1771 2034 0
1841 2101 0
1877 2144 484
1834 2106 2229
1791 2069 3964
1820 2102 4095
1872 2153 4095
1920 2202 4095
1237 3551 0
1305 3616 0
1370 3677 0
1393 3719 399
1355 3702 1814
1280 3648 3684
1285 3664 4095
1320 3700 4095
1351 3733 4095
1520 4095 0
1727 4095 160
1969 4095 857
2194 4095 1698
2419 4095 2694
2663 4095 3806
2963 4095 4095
3248 4095 4095
3512 4095 4095
4094 4095 4081
4095 4095 4095
4095 4095 4095
4095 4095 4095
4095 4095 4095
4095 4095 4095
4095 4095 4095
4095 4095 4095
4095 4095 4095
4095 4095 4095
4095 4095 4095
4095 4095 4095
4095 4095 4095
4095 4095 4095
4095 4095 4095
4095 4095 4095
4095 4095 4095
4095 4095 4095
0 0 0
0 0 0
0 0 0
53 0 17
185 0 131
319 0 317
461 0 551
622 0 838
782 0 1181
1617 0 0
1768 0 0
1924 0 0
2041 0 365
2106 0 1368
2185 0 2178
2286 0 2787
2404 0 3322
2517 0 3913
3237 0 0
3385 0 0
3529 0 0
3627 0 519
3620 0 2325
3637 0 3618
3662 0 4095
3682 0 4095
3695 0 4095
3887 334 0
3946 394 0
4007 455 0
4043 487 615
3996 430 2472
3974 403 3984
4005 432 4095
4056 483 4095
4095 533 4095
3658 1813 0
3726 1886 0
3791 1955 0
3849 1994 431
3832 1956 2089
3802 1908 3874
3840 1937 4095
3889 1986 4095
3936 2032 4095
3274 3365 0
3336 3425 0
3394 3483 0
3417 3512 279
3389 3495 1577
3311 3426 3471
3306 3428 4095
3338 3457 4095
3372 3486 4095
3470 4095 669
3573 4095 1459
3680 4095 2196
3757 4095 2860
3825 4095 3430
3888 4079 3922
3966 4078 4078
4043 4087 4095
4093 4095 4095
4095 4095 4095
4095 4095 4095
4095 4095 4095
4095 4095 4095
4095 4095 4095
4095 4095 4095
4095 4095 4095
4095 4095 4095
4095 4095 4095
4095 4095 4095
4095 4095 4095
4095 4095 4095
4095 4095 4095
4095 4095 4095
4095 4095 4095
4095 4095 4095
4095 4095 4095
4095 4095 4095
173 0 0
384 0 0
603 0 11
782 0 131
947 0 503
1098 0 878
1269 0 1231
1468 0 1609
1658 0 2040
2561 0 0
2724 0 0
2896 0 0
3029 0 301
3102 0 1518
3192 0 2515
3334 0 3233
3502 0 3861
3660 0 4095
4095 0 0
4095 0 0
4095 0 0
4095 0 431
4095 0 2316
4095 0 3637
4095 0 4095
4095 0 4095
4095 0 4095
4095 408 0
4095 473 0
4095 537 0
4095 576 699
4095 530 2533
4095 504 4092
4095 538 4095
4095 590 4095
4095 641 4095
4095 1909 0
4095 1979 0
4095 2049 0
4095 2085 577
4095 2045 2181
4095 1990 3988
4095 2011 4095
4095 2059 4095
4095 2100 4095
4095 3401 0
4095 3456 0
4095 3503 0
4095 3517 380
4095 3491 1653
4095 3424 3470
4095 3440 4095
4095 3496 4095
4095 3561 4095
4088 4083 2540
4082 4079 3129
4082 4081 3583
4085 4085 3896
4094 4094 4074
4095 4095 4095
4095 4095 4095
4095 4095 4095
4095 4095 4095
4095 4095 4095
4095 4095 4095
4095 4095 4095
4095 4095 4095
4095 4095 4095
4095 4095 4095
4095 4095 4095
4095 4095 4095
4095 4095 4095
4095 4095 4095
4095 4095 4095
4095 4095 4095
4095 4095 4095
4095 4095 4095
4095 4095 4095
4095 4095 4095
4095 4095 4095
4095 4095 4095
1043 0 0
1290 0 0
1528 0 0
1720 0 190
1878 0 826
2043 0 1412
2231 0 1884
2435 0 2328
2651 0 2849
3512 0 0
3703 0 0
3906 0 0
4088 0 265
4095 0 1727
4095 0 2913
4095 0 3726
4095 0 4095
4095 0 4095
4095 0 0
4095 0 0
4095 0 0
4095 0 495
4095 0 2401
4095 0 3736
4095 0 4095
4095 0 4095
4095 0 4095
4095 554 0
4095 623 0
4095 691 110
4095 729 855
4095 683 2697
4095 662 4095
4095 697 4095
4095 748 4095
4095 798 4095
4095 2068 0
4095 2136 0
4095 2202 15
4095 2234 713
4095 2191 2326
4095 2131 4095
4095 2148 4095
4095 2189 4095
4095 2225 4095
4095 3497 0
4095 3542 0
4095 3588 218
4095 3611 1089
4095 3614 2260
4095 3600 3631
4095 3657 4095
4095 3742 4095
4095 3815 4095
4095 4089 3956
4095 4095 4075
4095 4095 4095
4095 4095 4095
4095 4095 4095
4095 4095 4095
4095 4095 4095
4095 4095 4095
4095 4095 4095
4095 4095 4095
4095 4095 4095
4095 4095 4095
4095 4095 4095
4095 4095 4095
4095 4095 4095
4095 4095 4095
4095 4095 4095
4095 4095 4095
4095 4095 4095
4095 4095 4095
4095 4095 4095
4095 4095 4095
4095 4095 4095
4095 4095 4095
4095 4095 4095
4095 4095 4095
4095 4095 4095
2097 0 0
2352 0 0
2592 0 0
2794 0 192
2951 0 1076
3118 0 1875
3306 0 2437
3507 0 2936
3708 0 3496
4095 0 0
4095 0 0
4095 0 0
4095 0 208
4095 0 1908
4095 0 3251
4095 0 4095
4095 0 4095
4095 0 4095
4095 0 0
4095 0 0
4095 0 0
4095 0 611
4095 0 2530
4095 0 3867
4095 0 4095
4095 0 4095
4095 0 4095
4095 704 0
4095 774 0
4095 844 259
4095 883 1009
4095 835 2857
4095 812 4095
4095 846 4095
4095 897 4095
4095 945 4095
4095 2209 0
4095 2273 0
4095 2335 142
4095 2363 836
4095 2313 2448
4095 2247 4095
4095 2255 4095
4095 2286 4095
4095 2337 4095
4095 3596 45
4095 3657 823
4095 3721 1570
4095 3774 2364
4095 3815 3156
4095 3847 3860
4095 3911 4093
4095 3981 4095
4095 4036 4095
4095 4095 4095
4095 4095 4095
4095 4095 4095
4095 4095 4095
4095 4095 4095
4095 4095 4095
4095 4095 4095
4095 4095 4095
4095 4095 4095
4095 4095 4095
4095 4095 4095
4095 4095 4095
4095 4095 4095
4095 4095 4095
4095 4095 4095
4095 4095 4095
4095 4095 4095
4095 4095 4095
4095 4095 4095
4095 4095 4095
4095 4095 4095
4095 4095 4095
4095 4095 4095
4095 4095 4095
4095 4095 4095
4095 4095 4095
4095 4095 4095
