3DLUTS/GC_VENOM_LUTS/Additional_Formats/3DL/GC_Venom_V-LOG/GC_Venom_Sarkan_V-Log.3dl
# Converted by Briz LUT Converter
0 256 512 768 1023
0 0 0
0 0 0
0 0 0
0 0 0
0 0 0
0 105 8
0 149 143
0 107 914
0 50 1924
0 0 3320
0 2318 0
0 2375 0
0 2273 1961
0 2048 4095
0 1968 4095
0 4095 0
0 4095 0
0 4095 653
0 4095 4095
0 4095 4095
3121 4095 3214
4045 4095 4059
4076 4095 4095
4090 4095 4095
4095 4095 4095
0 0 0
0 0 0
0 0 0
0 0 0
0 0 0
238 187 0
258 203 194
115 85 2250
0 0 4095
0 0 4095
0 2495 0
0 2568 0
0 2474 2167
0 2254 4095
0 2172 4095
0 4095 0
0 4095 0
0 4095 858
0 4095 4095
0 4095 4095
4095 4095 4095
4095 4095 4095
4095 4095 4095
4095 4095 4095
4095 4095 4095
0 0 0
0 0 0
0 0 0
0 0 0
0 0 0
3111 0 0
3556 0 0
3594 0 2889
3420 0 4095
3313 0 4095
2649 2051 0
2710 2112 0
2641 2041 1720
2429 1826 4095
2348 1745 4095
1380 4095 0
1620 4095 0
1912 4095 1239
2226 4095 4095
2755 4095 4095
4095 4095 4095
4095 4095 4095
4095 4095 4095
4095 4095 4095
4095 4095 4095
215 0 0
628 0 0
769 0 336
827 0 908
1081 0 1713
4095 0 0
4095 0 0
4095 0 2560
4095 0 4095
4095 0 4095
4095 1815 0
4095 1877 0
4095 1810 1485
4095 1585 4095
4095 1504 4095
4095 4095 1015
4095 4091 2930
4093 4080 3789
4087 4084 4086
4095 4095 4095
4095 4095 4095
4095 4095 4095
4095 4095 4095
4095 4095 4095
4095 4095 4095
2439 0 0
3015 0 0
3347 0 986
3731 0 3155
4095 0 4095
4095 0 0
4095 0 0
4095 0 2688
4095 0 4095
4095 0 4095
4095 1928 0
4095 1986 0
4095 1912 1586
4095 1680 4095
4095 1588 4095
4095 4095 4095
4095 4095 4095
4095 4095 4095
4095 4095 4095
4095 4095 4095
4095 4095 4095
4095 4095 4095
4095 4095 4095
4095 4095 4095
4095 4095 4095
