3DLUTS/GC_VENOM_LUTS/Additional_Formats/3DL/GC_Venom_V-LOG/GC_Venom_Glendin_V-Log.3dl
# Converted by Briz LUT Converter
0 128 256 384 512 640 768 896 1023
0 0 0
0 0 0
0 0 0
0 0 0
0 0 0
0 0 0
0 0 0
16 16 16
42 42 42
0 0 0
0 0 0
0 0 0
0 0 0
26 26 26
61 61 61
92 92 92
118 118 118
144 144 144
15 15 15
38 38 38
60 60 60
92 92 92
126 126 126
161 161 161
192 192 192
218 218 218
246 246 246
128 128 128
174 174 174
227 227 227
299 299 299
383 383 383
471 471 471
560 560 560
646 646 646
734 734 734
792 792 792
887 887 887
983 983 983
1086 1086 1086
1191 1191 1191
1300 1300 1300
1406 1406 1406
1511 1511 1511
1616 1616 1616
1715 1715 1715
1821 1821 1821
1928 1928 1928
2040 2040 2040
2153 2153 2153
2264 2264 2264
2373 2373 2373
2478 2478 2478
2584 2584 2584
2668 2668 2668
2766 2766 2766
2862 2862 2862
2962 2962 2962
3063 3063 3063
3161 3161 3161
3255 3255 3255
3343 3343 3343
3427 3427 3427
3438 3438 3438
3503 3503 3503
3564 3564 3564
3632 3632 3632
3699 3699 3699
3764 3764 3764
3825 3825 3825
3879 3879 3879
3932 3932 3932
3866 3866 3866
3908 3908 3908
3947 3947 3947
3993 3993 3993
4039 4039 4039
4085 4085 4085
4095 4095 4095
4095 4095 4095
4095 4095 4095
0 0 0
0 0 0
0 0 0
0 0 0
0 0 0
0 0 0
22 22 22
47 47 47
73 73 73
0 0 0
0 0 0
0 0 0
22 22 22
58 58 58
93 93 93
125 125 125
151 151 151
177 177 177
43 43 43
65 65 65
88 88 88
121 121 121
157 157 157
195 195 195
231 231 231
267 267 267
306 306 306
262 262 262
339 339 339
420 420 420
510 510 510
604 604 604
698 698 698
791 791 791
885 885 885
979 979 979
1052 1052 1052
1152 1152 1152
1255 1255 1255
1362 1362 1362
1471 1471 1471
1582 1582 1582
1692 1692 1692
1799 1799 1799
1906 1906 1906
2007 2007 2007
2113 2113 2113
2218 2218 2218
2328 2328 2328
2440 2440 2440
2550 2550 2550
2656 2656 2656
2757 2757 2757
2857 2857 2857
2928 2928 2928
3019 3019 3019
3111 3111 3111
3205 3205 3205
3298 3298 3298
3388 3388 3388
3472 3472 3472
3547 3547 3547
3617 3617 3617
3588 3588 3588
3645 3645 3645
3701 3701 3701
3762 3762 3762
3825 3825 3825
3886 3886 3886
3941 3941 3941
3988 3988 3988
4031 4031 4031
3950 3950 3950
3986 3986 3986
4022 4022 4022
4063 4063 4063
4095 4095 4095
4095 4095 4095
4095 4095 4095
4095 4095 4095
4095 4095 4095
0 0 0
0 0 0
0 0 0
0 0 0
0 0 0
22 22 22
53 53 53
79 79 79
105 105 105
0 0 0
0 0 0
21 21 21
55 55 55
91 91 91
127 127 127
157 157 157
182 182 182
207 207 207
71 71 71
96 96 96
123 123 123
163 163 163
208 208 208
259 259 259
314 314 314
370 370 370
443 443 443
475 475 475
560 560 560
648 648 648
743 743 743
844 844 844
944 944 944
1044 1044 1044
1141 1141 1141
1241 1241 1241
1329 1329 1329
1432 1432 1432
1537 1537 1537
1649 1649 1649
1761 1761 1761
1873 1873 1873
1984 1984 1984
2093 2093 2093
2200 2200 2200
2296 2296 2296
2401 2401 2401
2503 2503 2503
2609 2609 2609
2716 2716 2716
2822 2822 2822
2925 2925 2925
3021 3021 3021
3116 3116 3116
3169 3169 3169
3254 3254 3254
3334 3334 3334
3418 3418 3418
3498 3498 3498
3574 3574 3574
3644 3644 3644
3705 3705 3705
3766 3766 3766
3718 3718 3718
3771 3771 3771
3822 3822 3822
3878 3878 3878
3934 3934 3934
3986 3986 3986
4031 4031 4031
4071 4071 4071
4095 4095 4095
4021 4021 4021
4055 4055 4055
4091 4091 4091
4095 4095 4095
4095 4095 4095
4095 4095 4095
4095 4095 4095
4095 4095 4095
4095 4095 4095
0 0 0
0 0 0
0 0 0
0 0 0
17 17 17
52 52 52
84 84 84
109 109 109
135 135 135
6 6 6
30 30 30
53 53 53
86 86 86
120 120 120
154 154 154
184 184 184
209 209 209
236 236 236
113 113 113
148 148 148
192 192 192
251 251 251
321 321 321
403 403 403
486 486 486
572 572 572
657 657 657
709 709 709
802 802 802
895 895 895
996 996 996
1101 1101 1101
1208 1208 1208
1312 1312 1312
1415 1415 1415
1519 1519 1519
1616 1616 1616
1721 1721 1721
1828 1828 1828
1940 1940 1940
2053 2053 2053
2165 2165 2165
2276 2276 2276
2382 2382 2382
2489 2489 2489
2575 2575 2575
2675 2675 2675
2774 2774 2774
2876 2876 2876
2978 2978 2978
3077 3077 3077
3174 3174 3174
3265 3265 3265
3353 3353 3353
3378 3378 3378
3447 3447 3447
3514 3514 3514
3583 3583 3583
3652 3652 3652
3720 3720 3720
3782 3782 3782
3838 3838 3838
3892 3892 3892
3833 3833 3833
3878 3878 3878
3921 3921 3921
3969 3969 3969
4017 4017 4017
4063 4063 4063
4095 4095 4095
4095 4095 4095
4095 4095 4095
4094 4094 4094
4095 4095 4095
4095 4095 4095
4095 4095 4095
4095 4095 4095
4095 4095 4095
4095 4095 4095
4095 4095 4095
4095 4095 4095
0 0 0
0 0 0
0 0 0
12 12 12
47 47 47
82 82 82
114 114 114
140 140 140
167 167 167
35 35 35
57 57 57
79 79 79
111 111 111
146 146 146
183 183 183
216 216 216
246 246 246
282 282 282
207 207 207
272 272 272
349 349 349
436 436 436
527 527 527
619 619 619
710 710 710
801 801 801
894 894 894
962 962 962
1060 1060 1060
1160 1160 1160
1266 1266 1266
1374 1374 1374
1485 1485 1485
1594 1594 1594
1700 1700 1700
1807 1807 1807
1908 1908 1908
2014 2014 2014
2120 2120 2120
2230 2230 2230
2342 2342 2342
2453 2453 2453
2560 2560 2560
2663 2663 2663
2765 2765 2765
2840 2840 2840
2934 2934 2934
3026 3026 3026
3124 3124 3124
3221 3221 3221
3315 3315 3315
3402 3402 3402
3483 3483 3483
3560 3560 3560
3539 3539 3539
3599 3599 3599
3656 3656 3656
3719 3719 3719
3783 3783 3783
3845 3845 3845
3904 3904 3904
3953 3953 3953
4001 4001 4001
3924 3924 3924
3962 3962 3962
3998 3998 3998
4042 4042 4042
4086 4086 4086
4095 4095 4095
4095 4095 4095
4095 4095 4095
4095 4095 4095
4095 4095 4095
4095 4095 4095
4095 4095 4095
4095 4095 4095
4095 4095 4095
4095 4095 4095
4095 4095 4095
4095 4095 4095
4095 4095 4095
0 0 0
0 0 0
9 9 9
42 42 42
78 78 78
114 114 114
145 145 145
171 171 171
197 197 197
60 60 60
83 83 83
108 108 108
143 143 143
185 185 185
230 230 230
275 275 275
324 324 324
380 380 380
399 399 399
482 482 482
567 567 567
662 662 662
758 758 758
857 857 857
954 954 954
1051 1051 1051
1149 1149 1149
1233 1233 1233
1335 1335 1335
1439 1439 1439
1549 1549 1549
1660 1660 1660
1772 1772 1772
1882 1882 1882
1990 1990 1990
2099 2099 2099
2196 2196 2196
2302 2302 2302
2406 2406 2406
2515 2515 2515
2623 2623 2623
2730 2730 2730
2834 2834 2834
2932 2932 2932
3029 3029 3029
3088 3088 3088
3175 3175 3175
3261 3261 3261
3348 3348 3348
3436 3436 3436
3517 3517 3517
3591 3591 3591
3656 3656 3656
3719 3719 3719
3675 3675 3675
3728 3728 3728
3780 3780 3780
3840 3840 3840
3898 3898 3898
3954 3954 3954
4003 4003 4003
4044 4044 4044
4083 4083 4083
3996 3996 3996
4031 4031 4031
4066 4066 4066
4095 4095 4095
4095 4095 4095
4095 4095 4095
4095 4095 4095
4095 4095 4095
4095 4095 4095
4095 4095 4095
4095 4095 4095
4095 4095 4095
4095 4095 4095
4095 4095 4095
4095 4095 4095
4095 4095 4095
4095 4095 4095
4095 4095 4095
0 0 0
17 17 17
42 42 42
75 75 75
110 110 110
144 144 144
174 174 174
198 198 198
224 224 224
94 94 94
124 124 124
159 159 159
209 209 209
270 270 270
335 335 335
412 412 412
493 493 493
576 576 576
625 625 625
716 716 716
808 808 808
908 908 908
1010 1010 1010
1114 1114 1114
1217 1217 1217
1318 1318 1318
1421 1421 1421
1515 1515 1515
1621 1621 1621
1726 1726 1726
1838 1838 1838
1953 1953 1953
2065 2065 2065
2175 2175 2175
2282 2282 2282
2390 2390 2390
2480 2480 2480
2581 2581 2581
2682 2682 2682
2786 2786 2786
2890 2890 2890
2992 2992 2992
3091 3091 3091
3185 3185 3185
3276 3276 3276
3310 3310 3310
3388 3388 3388
3458 3458 3458
3532 3532 3532
3604 3604 3604
3675 3675 3675
3739 3739 3739
3797 3797 3797
3854 3854 3854
3795 3795 3795
3843 3843 3843
3889 3889 3889
3940 3940 3940
3989 3989 3989
4037 4037 4037
4080 4080 4080
4095 4095 4095
4095 4095 4095
4066 4066 4066
4095 4095 4095
4095 4095 4095
4095 4095 4095
4095 4095 4095
4095 4095 4095
4095 4095 4095
4095 4095 4095
4095 4095 4095
4095 4095 4095
4095 4095 4095
4095 4095 4095
4095 4095 4095
4095 4095 4095
4095 4095 4095
4095 4095 4095
4095 4095 4095
4095 4095 4095
26 26 26
48 48 48
70 70 70
102 102 102
137 137 137
172 172 172
204 204 204
231 231 231
261 261 261
165 165 165
215 215 215
277 277 277
361 361 361
448 448 448
538 538 538
628 628 628
715 715 715
806 806 806
873 873 873
968 968 968
1067 1067 1067
1172 1172 1172
1279 1279 1279
1387 1387 1387
1494 1494 1494
1600 1600 1600
1706 1706 1706
1806 1806 1806
1913 1913 1913
2019 2019 2019
2130 2130 2130
2242 2242 2242
2356 2356 2356
2465 2465 2465
2569 2569 2569
2672 2672 2672
2753 2753 2753
2849 2849 2849
2943 2943 2943
3042 3042 3042
3141 3141 3141
3237 3237 3237
3329 3329 3329
3416 3416 3416
3498 3498 3498
3491 3491 3491
3552 3552 3552
3613 3613 3613
3678 3678 3678
3744 3744 3744
3808 3808 3808
3867 3867 3867
3921 3921 3921
3971 3971 3971
3897 3897 3897
3936 3936 3936
3974 3974 3974
4019 4019 4019
4064 4064 4064
4095 4095 4095
4095 4095 4095
4095 4095 4095
4095 4095 4095
4095 4095 4095
4095 4095 4095
4095 4095 4095
4095 4095 4095
4095 4095 4095
4095 4095 4095
4095 4095 4095
4095 4095 4095
4095 4095 4095
4095 4095 4095
4095 4095 4095
4095 4095 4095
4095 4095 4095
4095 4095 4095
4095 4095 4095
4095 4095 4095
4095 4095 4095
4095 4095 4095
52 52 52
75 75 75
99 99 99
132 132 132
170 170 170
210 210 210
251 251 251
289 289 289
337 337 337
324 324 324
404 404 404
488 488 488
578 578 578
673 673 673
769 769 769
866 866 866
959 959 959
1055 1055 1055
1138 1138 1138
1239 1239 1239
1341 1341 1341
1450 1450 1450
1561 1561 1561
1673 1673 1673
1782 1782 1782
1889 1889 1889
1998 1998 1998
2099 2099 2099
2204 2204 2204
2310 2310 2310
2419 2419 2419
2529 2529 2529
2637 2637 2637
2743 2743 2743
2843 2843 2843
2942 2942 2942
3007 3007 3007
3097 3097 3097
3186 3186 3186
3279 3279 3279
3370 3370 3370
3458 3458 3458
3537 3537 3537
3607 3607 3607
3675 3675 3675
3635 3635 3635
3690 3690 3690
3743 3743 3743
3805 3805 3805
3867 3867 3867
3924 3924 3924
3977 3977 3977
4022 4022 4022
4063 4063 4063
3975 3975 3975
4011 4011 4011
4045 4045 4045
4088 4088 4088
4095 4095 4095
4095 4095 4095
4095 4095 4095
4095 4095 4095
4095 4095 4095
4095 4095 4095
4095 4095 4095
4095 4095 4095
4095 4095 4095
4095 4095 4095
4095 4095 4095
4095 4095 4095
4095 4095 4095
4095 4095 4095
4095 4095 4095
4095 4095 4095
4095 4095 4095
4095 4095 4095
4095 4095 4095
4095 4095 4095
4095 4095 4095
4095 4095 4095
4095 4095 4095
