3DLUTS/GC_VENOM_LUTS/Additional_Formats/3DL/GC_Venom_V-LOG/GC_Venom_Sakata_V-Log.3dl
# Converted by Briz LUT Converter
0 256 512 768 1023
0 0 0
0 0 0
0 0 0
0 0 0
0 0 0
0 161 0
0 215 215
0 181 1579
0 105 3563
0 36 4095
0 1941 0
0 1997 0
0 1994 1994
0 2017 4095
0 2113 4095
0 4095 0
0 4095 0
0 4095 2035
0 4095 4095
0 4095 4095
1071 4095 1071
2327 4095 2752
3322 4095 3871
4095 4095 4095
4095 4095 4095
0 0 0
0 0 0
0 0 0
0 0 0
0 0 0
267 267 0
241 241 241
102 102 2720
0 0 4095
0 0 4095
0 2286 0
0 2405 0
0 2390 2390
0 2361 4095
0 2406 4095
0 4095 0
0 4095 0
0 4095 2125
0 4095 4095
0 4095 4095
4095 4095 4095
4095 4095 4095
4095 4095 4095
4095 4095 4095
4095 4095 4095
0 0 0
0 0 0
0 0 0
0 0 0
256 0 655
2717 0 0
2683 0 0
2530 0 2530
2372 0 4095
2311 0 4095
2347 2347 0
2418 2418 0
2387 2387 2387
2348 2348 4095
2380 2380 4095
2008 4095 0
2054 4095 0
2119 4095 2119
2309 4095 4095
2660 4095 4095
4095 4095 4095
4095 4095 4095
4095 4095 4095
4095 4095 4095
4095 4095 4095
318 0 0
1115 0 21
1741 0 855
2314 0 2314
2964 0 4047
4095 0 0
4095 0 0
4095 0 2223
4095 0 4095
4095 0 4095
4095 2316 0
4095 2376 0
4095 2335 2335
4095 2284 4095
4095 2301 4095
4095 4095 0
4095 4095 1396
4095 4095 3246
4095 4095 4095
4095 4095 4095
4095 4095 4095
4095 4095 4095
4095 4095 4095
4095 4095 4095
4095 4095 4095
3915 0 0
4095 0 0
4095 0 1814
4095 0 4095
4095 0 4095
4095 0 0
4095 0 0
4095 0 2543
4095 0 4095
4095 0 4095
4095 2444 0
4095 2483 0
4095 2405 2405
4095 2312 4095
4095 2289 4095
4095 4095 3581
4095 4095 4095
4095 4095 4095
4095 4095 4095
4095 4095 4095
4095 4095 4095
4095 4095 4095
4095 4095 4095
4095 4095 4095
4095 4095 4095
