3DLUTS/GC_VENOM_LUTS/Additional_Formats/3DL/GC_Venom_V-LOG/GC_Venom_Jomei_V-Log.3dl
# Converted by Briz LUT Converter
0 128 256 384 512 640 768 896 1023
7 7 7
15 15 15
23 23 23
31 30 30
37 37 37
44 44 44
51 51 51
59 59 59
67 67 67
98 99 99
106 106 106
114 114 114
120 121 121
126 127 127
133 134 134
140 141 141
148 149 149
156 157 157
81 242 81
48 257 144
10 268 268
0 251 695
0 197 1603
0 125 2747
0 71 3720
0 57 4095
0 39 4095
0 858 0
0 895 0
0 926 0
0 885 885
0 789 2647
0 739 3854
0 738 4095
0 765 4095
0 791 4095
0 1957 0
0 2010 0
0 2062 0
0 2069 242
0 1999 1999
0 1952 3500
0 1970 4095
0 2013 4095
0 2053 4095
0 3196 0
0 3255 0
0 3314 0
0 3345 0
0 3299 1559
0 3245 3245
0 3267 3996
0 3312 4095
0 3356 4095
0 4095 0
0 4095 0
0 4095 0
0 4095 313
0 4095 1782
0 4095 3501
0 4095 4095
0 4095 4095
0 4095 4095
0 4095 0
0 4095 0
0 4095 103
0 4095 702
0 4095 2192
0 4095 3867
0 4095 4095
0 4095 4095
0 4095 4095
1178 4095 1237
1775 4095 2255
2445 4095 3062
3049 4095 3714
3547 4095 3984
3898 4095 4095
4095 4095 4095
4095 4095 4095
4095 4095 4095
35 35 35
43 43 43
51 51 51
58 58 58
65 65 65
72 72 72
77 78 78
85 85 85
92 92 92
124 125 125
132 133 133
140 141 141
147 148 148
154 155 155
161 163 163
159 161 306
142 143 647
98 99 1327
108 288 0
91 295 92
72 297 297
17 254 1069
0 170 2393
0 89 3702
0 65 4095
0 56 4095
0 49 4095
0 971 0
0 1001 0
0 1033 0
0 1004 1004
0 920 2778
0 885 3980
0 894 4095
0 930 4095
0 964 4095
0 2139 0
0 2196 0
0 2252 0
0 2260 425
0 2192 2192
0 2146 3667
0 2170 4095
0 2214 4095
0 2255 4095
0 3394 0
0 3454 0
0 3513 0
0 3542 161
0 3495 1778
0 3442 3442
0 3466 4095
0 3508 4095
0 3548 4095
0 4095 0
0 4095 0
0 4095 0
0 4095 488
0 4095 1981
0 4095 3687
0 4095 4095
0 4095 4095
0 4095 4095
0 4095 0
0 4095 0
1 4095 304
113 4095 1032
187 4095 2651
306 4095 4061
507 4095 4095
789 4095 4095
1147 4095 4095
3512 4095 3397
3890 4095 3888
4095 4095 4095
4095 4095 4095
4095 4095 4095
4095 4095 4095
4095 4095 4095
4095 4095 4095
4095 4095 4095
63 63 63
71 71 71
78 78 78
84 84 84
90 91 91
97 97 97
103 104 104
111 111 111
118 119 119
152 153 153
160 162 162
180 167 181
198 164 267
205 150 486
190 116 973
157 61 1716
117 0 2570
72 0 3481
304 304 0
308 308 32
309 309 309
252 252 1405
158 159 3050
110 111 4095
97 98 4095
102 104 4095
113 114 4095
0 1091 0
0 1135 0
31 1181 32
40 1157 1157
6 1083 2940
17 1054 4095
55 1067 4095
96 1106 4095
136 1143 4095
0 2327 0
0 2386 0
0 2446 0
0 2454 612
0 2386 2386
0 2345 3839
0 2368 4095
0 2415 4095
0 2457 4095
0 3588 0
0 3649 0
0 3707 0
0 3734 354
0 3683 1987
0 3632 3632
0 3653 4095
0 3693 4095
0 3730 4095
0 4095 0
0 4095 0
31 4095 30
59 4095 649
16 4095 2158
0 4095 3853
0 4095 4095
0 4095 4095
9 4095 4095
466 4095 0
634 4095 379
873 4095 873
1088 4095 2119
1371 4095 3392
1776 4095 4095
2240 4095 4095
2779 4095 4095
3259 4095 4095
4095 4095 4095
4095 4095 4095
4095 4095 4095
4095 4095 4095
4095 4095 4095
4095 4095 4095
4095 4095 4095
4095 4095 4095
4095 4095 4095
89 89 89
96 96 96
104 104 104
110 111 111
117 117 117
123 124 124
130 131 131
137 138 138
145 146 146
308 155 109
386 141 141
459 123 224
503 91 517
509 29 1215
491 0 2200
480 0 3226
507 0 3875
552 0 4095
1182 174 0
1259 175 0
1321 180 180
1271 129 1411
1157 47 3143
1096 26 4095
1076 32 4095
1095 54 4095
1114 80 4095
956 1091 0
1007 1142 0
1057 1193 116
1052 1185 1185
992 1120 2977
976 1097 4095
1003 1120 4095
1044 1161 4095
1085 1200 4095
525 2410 0
581 2471 0
635 2530 0
669 2546 719
632 2485 2485
615 2444 3991
656 2468 4095
701 2513 4095
745 2557 4095
326 3709 0
383 3767 0
439 3824 0
469 3851 471
426 3802 2064
378 3745 3745
403 3763 4095
440 3800 4095
477 3835 4095
628 4095 0
675 4095 0
716 4095 134
731 4095 731
676 4095 2174
606 4095 3872
633 4095 4095
720 4095 4095
844 4095 4095
2029 4095 564
2459 4095 1281
2861 4095 2272
3170 4095 3205
3462 4095 3813
3726 4095 4039
3918 4095 4095
4074 4095 4095
4095 4095 4095
4095 4095 4095
4095 4095 4095
4095 4095 4095
4095 4095 4095
4095 4095 4095
4095 4095 4095
4095 4095 4095
4095 4095 4095
4095 4095 4095
115 115 115
123 123 123
130 131 131
137 138 138
143 144 144
150 152 152
158 159 159
204 148 258
286 105 566
1008 12 0
1206 0 0
1400 0 77
1524 0 602
1586 0 1711
1647 0 3023
1760 0 3796
1926 0 4095
2082 0 4095
2915 0 0
2951 0 0
2980 0 0
2920 0 1092
2809 0 2838
2752 0 3948
2743 0 4095
2773 0 4095
2804 0 4095
2713 908 0
2768 962 0
2824 1018 34
2821 1021 1021
2754 960 2813
2721 938 4095
2744 965 4095
2787 1008 4095
2827 1050 4095
2190 2284 0
2251 2344 0
2311 2402 0
2331 2426 633
2274 2374 2374
2230 2335 3953
2254 2361 4095
2297 2404 4095
2338 2445 4095
1756 3641 0
1813 3694 0
1868 3746 0
1881 3777 413
1822 3735 1952
1747 3677 3677
1753 3690 4095
1785 3724 4095
1815 3755 4095
1884 4095 0
1921 4095 0
1978 4095 69
2017 4095 686
2018 4095 2151
2047 4095 3718
2208 4095 4095
2430 4095 4095
2674 4095 4095
3762 4095 2430
3892 4095 3293
3996 4095 3833
4081 4095 4057
4095 4095 4095
4095 4095 4095
4095 4095 4095
4095 4095 4095
4095 4095 4095
4095 4095 4095
4095 4095 4095
4095 4095 4095
4095 4095 4095
4095 4095 4095
4095 4095 4095
4095 4095 4095
4095 4095 4095
4095 4095 4095
142 143 143
150 151 151
158 159 159
210 153 181
335 118 270
479 63 488
628 0 963
824 0 1647
1058 0 2478
2652 0 0
2913 0 0
3160 0 0
3276 0 455
3307 0 1944
3341 0 3340
3413 0 4051
3478 0 4095
3512 0 4095
3940 0 0
3981 0 0
4022 0 0
4001 0 972
3930 0 2725
3904 0 3904
3920 0 4095
3957 0 4095
3993 0 4095
4060 850 0
4095 909 0
4095 966 69
4095 971 971
4095 905 2749
4095 871 4095
4095 895 4095
4095 941 4095
4095 984 4095
3792 2175 0
3847 2237 0
3901 2296 0
3945 2317 571
3917 2258 2258
3893 2205 3891
3930 2227 4095
3971 2268 4095
4011 2306 4095
3478 3479 0
3529 3530 0
3579 3579 0
3601 3603 285
3556 3560 1750
3487 3494 3494
3488 3497 4095
3515 3524 4095
3536 3546 4095
3543 4095 0
3597 4095 0
3664 4095 160
3687 4095 1027
3657 4095 2510
3658 4095 3659
3722 4095 4095
3796 4090 4095
3864 4085 4095
4095 4095 4095
4095 4095 4095
4095 4095 4095
4095 4095 4095
4095 4095 4095
4095 4095 4095
4095 4095 4095
4095 4095 4095
4095 4095 4095
4095 4095 4095
4095 4095 4095
4095 4095 4095
4095 4095 4095
4095 4095 4095
4095 4095 4095
4095 4095 4095
4095 4095 4095
4095 4095 4095
330 130 130
579 71 111
895 0 116
1229 0 240
1550 0 613
1835 0 1349
2135 0 2211
2475 0 3030
2803 0 3566
3885 0 0
4041 0 0
4095 0 0
4095 0 509
4095 0 2224
4095 0 3508
4095 0 4095
4095 0 4095
4095 0 4095
4095 0 0
4095 0 0
4095 0 0
4095 0 1011
4095 0 2766
4095 0 3988
4095 0 4095
4095 0 4095
4095 0 4095
4095 950 0
4095 1009 0
4095 1068 212
4095 1077 1077
4095 1016 2852
4095 981 4095
4095 1006 4095
4095 1051 4095
4095 1095 4095
4095 2278 0
4095 2338 0
4095 2396 5
4095 2416 700
4095 2358 2358
4095 2298 4016
4095 2314 4095
4095 2354 4095
4095 2389 4095
4095 3538 0
4095 3589 0
4095 3634 0
4095 3649 364
4095 3594 1775
4095 3512 3512
4095 3495 4095
4095 3508 4095
4095 3526 4095
4095 4095 0
4095 4095 361
4095 4095 1195
4095 4095 2438
4095 4095 3380
4082 4082 3896
4084 4084 4084
4095 4095 4095
4095 4095 4095
4095 4095 4095
4095 4095 4095
4095 4095 4095
4095 4095 4095
4095 4095 4095
4095 4095 4095
4095 4095 4095
4095 4095 4095
4095 4095 4095
4095 4095 4095
4095 4095 4095
4095 4095 4095
4095 4095 4095
4095 4095 4095
4095 4095 4095
4095 4095 4095
4095 4095 4095
4095 4095 4095
1818 0 0
2337 0 0
2799 0 0
3122 0 100
3313 0 982
3420 0 2170
3537 0 3211
3723 0 3725
3910 0 4095
4095 0 0
4095 0 0
4095 0 0
4095 0 573
4095 0 2307
4095 0 3576
4095 0 4095
4095 0 4095
4095 0 4095
4095 2 0
4095 54 0
4095 108 108
4095 105 1155
4095 46 2914
4095 32 4095
4095 58 4095
4095 101 4095
4095 142 4095
4095 1104 0
4095 1166 0
4095 1226 357
4095 1235 1235
4095 1174 3012
4095 1140 4095
4095 1165 4095
4095 1208 4095
4095 1251 4095
4095 2431 0
4095 2488 0
4095 2542 138
4095 2561 837
4095 2499 2499
4095 2436 4095
4095 2450 4095
4095 2483 4095
4095 2515 4095
4095 3652 0
4095 3692 0
4095 3728 0
4095 3726 452
4095 3660 1905
4095 3577 3577
4095 3574 4095
4095 3611 4095
4095 3652 4095
4095 4095 1363
4095 4095 2402
4095 4095 3246
4095 4095 3803
4095 4095 4028
4095 4095 4095
4095 4095 4095
4095 4095 4095
4095 4095 4095
4095 4095 4095
4095 4095 4095
4095 4095 4095
4095 4095 4095
4095 4095 4095
4095 4095 4095
4095 4095 4095
4095 4095 4095
4095 4095 4095
4095 4095 4095
4095 4095 4095
4095 4095 4095
4095 4095 4095
4095 4095 4095
4095 4095 4095
4095 4095 4095
4095 4095 4095
4095 4095 4095
3607 0 0
3829 0 0
4056 0 0
4095 0 189
4095 0 1507
4095 0 2980
4095 0 3721
4095 0 4095
4095 0 4095
4095 0 0
4095 0 0
4095 0 0
4095 0 650
4095 0 2397
4095 0 3681
4095 0 4095
4095 0 4095
4095 0 4095
4095 136 0
4095 190 0
4095 245 245
4095 245 1302
4095 190 3065
4095 176 4095
4095 204 4095
4095 248 4095
4095 292 4095
4095 1258 0
4095 1319 126
4095 1380 502
4095 1388 1388
4095 1326 3166
4095 1290 4095
4095 1314 4095
4095 1357 4095
4095 1396 4095
4095 2569 0
4095 2623 0
4095 2676 263
4095 2688 960
4095 2622 2622
4095 2558 4095
4095 2566 4095
4095 2597 4095
4095 2621 4095
4095 3723 0
4095 3753 0
4095 3786 63
4095 3791 803
4095 3734 2378
4095 3696 3696
4095 3726 4095
4095 3781 4095
4095 3828 4095
4095 4095 3768
4095 4095 4078
4095 4095 4095
4095 4095 4095
4095 4095 4095
4095 4095 4095
4095 4095 4095
4095 4095 4095
4095 4095 4095
4095 4095 4095
4095 4095 4095
4095 4095 4095
4095 4095 4095
4095 4095 4095
4095 4095 4095
4095 4095 4095
4095 4095 4095
4095 4095 4095
4095 4095 4095
4095 4095 4095
4095 4095 4095
4095 4095 4095
4095 4095 4095
4095 4095 4095
4095 4095 4095
4095 4095 4095
4095 4095 4095
