3DLUTS/GC_VENOM_LUTS/Additional_Formats/3DL/GC_Venom_V-LOG/GC_Venom_Hadria_V-Log.3dl
# Converted by Briz LUT Converter
0 64 128 192 256 320 384 448 512 576 640 704 768 832 896 960 1023
0 0 0
0 0 0
0 0 0
0 0 0
0 0 0
0 0 0
0 0 0
0 0 0
0 0 0
0 0 0
0 0 0
0 0 0
0 0 0
0 0 0
0 0 0
0 0 0
0 0 0
0 0 0
0 0 0
0 0 0
0 0 0
0 0 0
0 0 0
0 0 0
0 0 0
0 0 0
0 0 0
0 0 0
0 0 0
0 0 0
0 0 0
0 0 0
0 0 0
0 0 0
0 0 0
0 0 0
0 0 0
0 0 0
0 0 0
0 0 0
0 0 0
0 0 0
0 0 0
0 0 0
0 0 0
0 0 0
0 0 0
0 0 0
0 0 0
0 0 0
0 0 0
0 0 0
0 0 0
0 0 0
0 0 0
0 0 0
2 4 6
0 13 40
0 20 106
0 25 200
0 29 298
0 32 413
0 33 537
0 35 683
0 36 840
0 36 1003
0 36 1187
0 34 1374
0 106 16
0 118 44
0 130 80
0 141 126
0 153 169
0 157 279
0 152 511
0 143 804
0 132 1109
0 126 1363
0 121 1588
0 116 1833
0 112 2067
0 110 2288
0 106 2534
0 102 2794
0 97 3065
0 313 0
0 323 5
0 331 80
0 341 165
0 350 258
0 354 407
0 340 769
0 315 1275
0 288 1813
0 268 2259
0 258 2575
0 248 2915
0 241 3211
0 237 3483
0 231 3777
0 224 4078
0 217 4095
0 583 0
0 593 0
0 604 0
0 615 0
0 624 139
0 627 322
0 614 732
0 579 1427
0 539 2186
0 507 2860
0 493 3306
0 480 3753
0 475 4095
0 474 4095
0 472 4095
0 470 4095
0 469 4095
0 1025 0
0 1046 0
0 1066 0
0 1086 0
0 1106 0
0 1114 0
0 1109 373
0 1069 1214
0 1021 2174
0 978 3059
0 960 3647
0 948 4095
0 947 4095
0 954 4095
0 960 4095
0 966 4095
0 974 4095
0 1639 0
0 1657 0
0 1673 0
0 1690 0
0 1705 0
0 1708 0
0 1710 0
0 1679 757
0 1633 1748
0 1594 2698
0 1577 3382
0 1580 3840
0 1594 4095
0 1616 4095
0 1637 4095
0 1658 4095
0 1679 4095
0 2266 0
0 2297 0
0 2328 0
0 2360 0
0 2390 0
0 2404 0
0 2420 0
0 2410 445
0 2375 1431
0 2340 2412
0 2322 3190
0 2328 3660
0 2345 4044
0 2371 4095
0 2395 4095
0 2419 4095
0 2443 4095
0 2963 0
0 2997 0
0 3030 0
0 3064 0
0 3098 0
0 3118 0
0 3139 0
0 3141 305
0 3112 1262
0 3080 2252
0 3060 3089
0 3067 3598
0 3086 3980
0 3113 4095
0 3138 4095
0 3164 4095
0 3189 4095
0 3610 0
0 3645 0
0 3679 0
0 3714 0
0 3749 0
0 3772 0
0 3791 0
0 3803 410
0 3781 1309
0 3752 2294
0 3732 3169
0 3735 3738
0 3756 4095
0 3783 4095
0 3808 4095
0 3831 4095
0 3854 4095
0 4095 0
0 4095 0
0 4095 0
0 4095 0
0 4095 0
0 4095 0
0 4095 202
0 4095 640
0 4095 1524
0 4095 2509
0 4095 3396
0 4095 3984
0 4095 4095
0 4095 4095
0 4095 4095
0 4095 4095
0 4095 4095
0 4095 0
0 4095 0
0 4095 0
0 4095 0
0 4095 0
0 4095 97
0 4095 448
0 4095 897
0 4095 1788
0 4095 2769
0 4095 3639
0 4095 4095
0 4095 4095
0 4095 4095
0 4095 4095
0 4095 4095
0 4095 4095
0 4095 0
0 4095 0
0 4095 0
0 4095 0
0 4095 220
0 4095 628
0 4095 1041
0 4095 1521
0 4095 2328
2 4095 3129
225 4095 3772
492 4095 4095
779 4095 4095
1088 4095 4095
1405 4095 4095
1718 4095 4095
2010 4095 4095
679 4095 966
982 4095 1349
1298 4095 1722
1621 4095 2079
1936 4095 2412
2207 4095 2729
2462 4095 3009
2710 4095 3278
2927 4095 3586
3133 4095 3836
3326 4095 4000
3512 4095 4077
3674 4095 4095
3823 4095 4095
3959 4095 4095
4060 4095 4095
4071 4095 4095
3671 4095 3705
3848 4095 3876
3998 4095 4012
4065 4095 4071
4076 4095 4084
4085 4095 4095
4094 4095 4095
4095 4095 4095
4095 4095 4095
4095 4095 4095
4095 4095 4095
4095 4095 4095
4095 4095 4095
4095 4095 4095
4095 4095 4095
4095 4095 4095
4095 4095 4095
0 0 0
0 0 0
0 0 0
0 0 0
0 0 0
0 0 0
0 0 0
0 0 0
0 0 0
0 0 0
0 0 0
0 0 0
0 0 0
0 0 0
0 0 0
0 0 0
0 0 0
0 0 0
0 0 0
0 0 0
0 0 0
0 0 0
0 0 0
0 0 0
0 0 0
0 0 0
0 0 0
0 0 0
0 0 0
0 0 0
0 0 0
0 0 0
0 0 0
0 0 0
0 0 0
0 0 0
0 0 0
0 0 0
0 0 0
0 0 0
0 0 0
0 0 0
0 0 0
0 0 0
0 0 0
0 0 0
0 0 0
0 0 0
2 2 2
0 5 107
0 7 236
0 0 0
0 0 0
4 11 10
5 22 25
5 34 47
3 43 92
0 47 188
0 47 316
0 46 470
0 45 612
0 44 756
0 42 923
0 41 1095
0 40 1269
0 37 1467
0 34 1669
0 29 1898
0 147 9
0 158 48
0 167 95
0 177 156
0 186 208
0 189 343
0 178 630
0 163 991
0 146 1364
0 135 1655
0 128 1913
0 119 2189
0 113 2452
0 109 2694
0 103 2960
0 96 3246
0 89 3530
0 345 0
0 354 0
0 362 71
0 369 167
0 375 271
0 375 435
0 358 839
0 328 1402
0 296 1995
0 272 2484
0 261 2832
0 248 3197
0 239 3512
0 234 3800
0 227 4095
0 221 4095
0 214 4095
0 616 0
0 627 0
0 639 0
0 651 0
0 662 123
0 666 324
0 649 779
0 609 1539
0 566 2364
0 530 3085
0 514 3555
0 500 4027
0 495 4095
0 496 4095
0 496 4095
0 495 4095
0 496 4095
0 1090 0
0 1111 0
0 1133 0
0 1153 0
0 1172 0
0 1178 0
0 1170 391
0 1127 1277
0 1074 2261
0 1029 3148
0 1009 3710
0 998 4095
0 998 4095
0 1009 4095
0 1020 4095
0 1033 4095
0 1048 4095
0 1691 0
0 1709 0
0 1729 0
0 1752 0
0 1775 0
0 1783 0
0 1790 26
0 1763 838
0 1723 1835
0 1687 2784
0 1673 3462
0 1677 3922
0 1692 4095
0 1716 4095
0 1738 4095
0 1762 4095
0 1785 4095
0 2364 0
0 2396 0
0 2428 0
0 2461 0
0 2493 0
0 2510 0
0 2526 0
0 2514 548
0 2479 1535
0 2446 2515
0 2429 3286
0 2436 3754
0 2454 4095
0 2482 4095
0 2507 4095
0 2531 4095
0 2556 4095
0 3067 0
0 3102 0
0 3137 0
0 3173 0
0 3206 0
0 3227 0
0 3248 0
0 3249 416
0 3220 1378
0 3188 2366
0 3169 3197
0 3177 3700
0 3198 4084
0 3225 4095
0 3249 4095
0 3273 4095
0 3298 4095
0 3719 0
0 3754 0
0 3789 0
0 3824 0
0 3857 0
0 3879 0
0 3898 51
0 3908 522
0 3884 1431
0 3855 2416
0 3836 3285
0 3840 3841
0 3860 4095
0 3884 4095
0 3907 4095
0 3929 4095
0 3951 4095
0 4095 0
0 4095 0
0 4095 0
0 4095 0
0 4095 0
0 4095 0
0 4095 293
0 4095 741
0 4095 1634
0 4095 2619
0 4095 3498
0 4095 4075
0 4095 4095
0 4095 4095
0 4095 4095
0 4095 4095
0 4095 4095
0 4095 0
0 4095 0
0 4095 0
0 4095 0
0 4095 0
0 4095 175
0 4095 522
0 4095 978
0 4095 1881
0 4095 2859
0 4095 3709
0 4095 4095
0 4095 4095
0 4095 4095
0 4095 4095
0 4095 4095
0 4095 4095
0 4095 0
0 4095 0
0 4095 43
0 4095 378
0 4095 724
143 4095 1144
372 4095 1551
608 4095 2007
831 4095 2695
1064 4095 3346
1321 4095 3844
1606 4095 4095
1897 4095 4095
2175 4095 4095
2439 4095 4095
2677 4095 4095
2919 4095 4095
1778 4095 1885
2076 4095 2240
2361 4095 2561
2632 4095 2851
2893 4095 3117
3108 4095 3349
3307 4095 3547
3492 4095 3722
3649 4095 3889
3791 4095 4006
3906 4095 4068
4020 4095 4092
4066 4095 4095
4077 4095 4095
4085 4095 4095
4094 4095 4095
4095 4095 4095
4070 4095 4072
4081 4095 4083
4091 4095 4095
4095 4095 4095
4095 4095 4095
4095 4095 4095
4095 4095 4095
4095 4095 4095
4095 4095 4095
4095 4095 4095
4095 4095 4095
4095 4095 4095
4095 4095 4095
4095 4095 4095
4095 4095 4095
4095 4095 4095
4095 4095 4095
0 0 0
0 0 0
0 0 0
0 0 0
0 0 0
0 0 0
0 0 0
0 0 0
0 0 0
0 0 0
0 0 0
0 0 0
0 0 0
0 0 0
0 0 0
0 0 0
0 0 0
0 0 0
0 0 0
0 0 0
0 0 0
0 0 0
0 0 0
0 0 0
0 0 0
0 0 0
0 0 0
0 0 0
0 0 0
0 0 0
0 0 0
0 0 0
0 0 0
0 0 0
0 0 0
0 0 0
0 0 0
0 0 0
0 0 0
0 0 0
0 0 0
0 0 0
0 0 0
0 0 0
0 0 0
3 5 51
3 7 149
2 9 266
0 10 390
0 9 536
0 7 687
13 28 10
17 39 23
20 50 44
22 60 71
23 70 102
21 74 177
12 72 329
0 66 528
0 59 745
0 54 927
0 50 1113
0 44 1307
0 40 1509
0 36 1707
0 31 1931
0 25 2158
0 18 2404
15 182 0
10 190 45
5 199 104
0 205 177
0 213 240
0 212 395
0 197 734
0 175 1155
0 154 1597
0 139 1941
0 129 2230
0 117 2538
0 108 2819
0 102 3076
0 94 3346
0 85 3626
0 75 3919
0 371 0
0 377 0
0 383 57
0 388 162
0 393 278
0 393 459
0 372 906
0 337 1529
0 300 2178
0 274 2709
0 261 3082
0 247 3485
0 238 3837
0 232 4095
0 225 4095
0 218 4095
0 211 4095
0 653 0
0 666 0
0 678 0
0 690 0
0 700 106
0 704 325
0 684 827
0 639 1646
0 592 2530
0 555 3299
0 540 3797
0 526 4095
0 522 4095
0 524 4095
0 527 4095
0 529 4095
0 532 4095
0 1157 0
0 1177 0
0 1197 0
0 1216 0
0 1233 0
0 1236 0
0 1223 424
0 1176 1326
0 1123 2312
0 1081 3191
0 1066 3750
0 1060 4095
0 1067 4095
0 1085 4095
0 1101 4095
0 1119 4095
0 1138 4095
0 1755 0
0 1780 0
0 1806 0
0 1835 0
0 1863 0
0 1877 0
0 1886 107
0 1860 934
0 1821 1932
0 1787 2877
0 1775 3545
0 1780 4009
0 1797 4095
0 1822 4095
0 1845 4095
0 1868 4095
0 1891 4095
0 2466 0
0 2500 0
0 2534 0
0 2567 0
0 2600 0
0 2616 0
0 2633 0
0 2620 654
0 2586 1643
0 2553 2621
0 2539 3383
0 2547 3849
0 2566 4095
0 2594 4095
0 2619 4095
0 2643 4095
0 2668 4095
0 3177 0
0 3212 0
0 3247 0
0 3282 0
0 3315 0
0 3336 0
0 3356 0
0 3357 529
0 3329 1497
0 3299 2484
0 3280 3306
0 3287 3803
0 3307 4095
0 3333 4095
0 3358 4095
0 3381 4095
0 3405 4095
0 3827 0
0 3861 0
0 3895 0
0 3930 0
0 3963 0
0 3984 0
0 4005 150
0 4013 633
0 3987 1553
0 3957 2535
0 3936 3396
0 3940 3941
0 3959 4095
0 3982 4095
0 4004 4095
0 4026 4095
0 4048 4095
0 4095 0
0 4095 0
0 4095 0
0 4095 0
0 4095 0
0 4095 30
0 4095 383
0 4095 839
0 4095 1738
0 4095 2720
0 4095 3593
0 4095 4095
0 4095 4095
0 4095 4095
0 4095 4095
0 4095 4095
0 4095 4095
0 4095 0
0 4095 0
0 4095 0
0 4095 0
0 4095 0
0 4095 270
0 4095 645
0 4095 1141
0 4095 2045
0 4095 2981
0 4095 3764
0 4095 4095
0 4095 4095
160 4095 4095
399 4095 4095
653 4095 4095
917 4095 4095
0 4095 0
127 4095 297
368 4095 667
618 4095 1028
886 4095 1391
1134 4095 1785
1388 4095 2160
1645 4095 2561
1887 4095 3104
2127 4095 3580
2357 4095 3919
2588 4095 4092
2812 4095 4095
3034 4095 4095
3251 4095 4095
3436 4095 4095
3595 4095 4095
2745 4095 2752
3000 4095 3045
3222 4095 3289
3424 4095 3500
3612 4095 3684
3774 4095 3841
3898 4095 3952
4010 4095 4040
4066 4095 4084
4076 4095 4095
4084 4095 4095
4092 4095 4095
4095 4095 4095
4095 4095 4095
4095 4095 4095
4095 4095 4095
4095 4095 4095
4095 4095 4095
4095 4095 4095
4095 4095 4095
4095 4095 4095
4095 4095 4095
4095 4095 4095
4095 4095 4095
4095 4095 4095
4095 4095 4095
4095 4095 4095
4095 4095 4095
4095 4095 4095
4095 4095 4095
4095 4095 4095
4095 4095 4095
4095 4095 4095
4095 4095 4095
0 0 0
0 0 0
0 0 0
0 0 0
0 0 0
0 0 0
0 0 0
0 0 0
0 0 0
0 0 0
0 0 0
0 0 0
0 0 0
0 0 0
0 0 0
0 0 0
0 0 0
0 0 0
0 0 0
0 0 0
0 0 0
0 0 0
0 0 0
0 0 0
0 0 0
0 0 0
0 0 0
0 0 0
0 0 0
0 0 0
0 0 0
0 0 0
0 0 0
