3DLUTS/GC_VENOM_LUTS/Additional_Formats/3DL/GC_Venom_V-LOG/GC_Venom_Vlasta_V-Log.3dl
# Converted by Briz LUT Converter
0 256 512 768 1023
0 0 0
0 0 0
0 0 0
0 0 0
0 0 0
0 146 0
0 156 218
0 118 1021
0 81 1976
0 55 3186
0 2488 0
0 2455 0
0 2244 2664
0 2137 4095
0 2132 4095
0 4095 0
0 4095 0
0 4095 1725
0 4095 4095
0 4095 4095
1816 4095 1621
3195 4095 3325
3838 4095 4003
4060 4095 4095
4095 4095 4095
0 0 0
0 0 0
0 0 0
0 0 0
0 0 0
201 276 0
144 227 369
32 106 2401
0 0 4095
0 0 4095
0 2535 0
0 2513 0
0 2307 2719
0 2201 4095
0 2205 4095
0 4095 0
0 4095 0
0 4095 1766
0 4095 4095
0 4095 4095
4095 4095 4095
4095 4095 4095
4095 4095 4095
4095 4095 4095
4095 4095 4095
0 0 0
0 0 0
0 0 0
0 0 0
0 0 0
2640 0 0
2854 0 0
2856 0 3491
2815 0 4095
2800 0 4095
1976 2322 0
1964 2309 0
1761 2109 2538
1662 2011 4095
1665 2015 4095
1002 4095 0
1079 4095 0
1133 4095 1833
1508 4095 4095
2109 4095 4095
4095 4095 4095
4095 4095 4095
4095 4095 4095
4095 4095 4095
4095 4095 4095
323 0 0
725 0 35
897 0 494
1132 0 1092
1551 0 1914
4095 0 0
4095 0 0
4095 0 3166
4095 0 4095
4095 0 4095
4095 1959 0
4095 1952 0
4095 1753 2194
4095 1655 4095
4095 1657 4095
4095 4095 0
4095 4095 1499
4022 4054 3369
4024 4043 4063
4083 4086 4095
4095 4095 4095
4095 4095 4095
4095 4095 4095
4095 4095 4095
4095 4095 4095
3209 0 0
3784 0 0
4085 0 1464
4095 0 3209
4095 0 4095
4095 0 0
4095 0 0
4095 0 2985
4095 0 4095
4095 0 4095
4095 1827 0
4095 1817 0
4095 1616 2056
4095 1514 4095
4095 1508 4095
4095 4095 4061
4095 4095 4095
4095 4095 4095
4095 4095 4095
4095 4095 4095
4095 4095 4095
4095 4095 4095
4095 4095 4095
4095 4095 4095
4095 4095 4095
