3DLUTS/GC_VENOM_LUTS/Additional_Formats/3DL/GC_Venom_V-LOG/GC_Venom_Glendin_V-Log.3dl
# Converted by Briz LUT Converter
0 64 128 192 256 320 384 448 512 576 640 704 768 832 896 960 1023
0 0 0
0 0 0
0 0 0
0 0 0
0 0 0
0 0 0
0 0 0
0 0 0
0 0 0
0 0 0
0 0 0
0 0 0
0 0 0
3 3 3
16 16 16
29 29 29
42 42 42
0 0 0
0 0 0
0 0 0
0 0 0
0 0 0
0 0 0
0 0 0
0 0 0
0 0 0
0 0 0
10 10 10
27 27 27
41 41 41
54 54 54
67 67 67
80 80 80
93 93 93
0 0 0
0 0 0
0 0 0
0 0 0
0 0 0
0 0 0
0 0 0
8 8 8
26 26 26
44 44 44
61 61 61
78 78 78
92 92 92
105 105 105
118 118 118
131 131 131
144 144 144
0 0 0
0 0 0
0 0 0
0 0 0
9 9 9
24 24 24
41 41 41
60 60 60
78 78 78
96 96 96
114 114 114
131 131 131
145 145 145
158 158 158
171 171 171
184 184 184
196 196 196
15 15 15
26 26 26
38 38 38
49 49 49
60 60 60
76 76 76
92 92 92
109 109 109
126 126 126
144 144 144
161 161 161
177 177 177
192 192 192
204 204 204
218 218 218
232 232 232
246 246 246
56 56 56
67 67 67
79 79 79
91 91 91
104 104 104
121 121 121
140 140 140
160 160 160
182 182 182
205 205 205
227 227 227
251 251 251
274 274 274
298 298 298
325 325 325
352 352 352
381 381 381
128 128 128
149 149 149
174 174 174
200 200 200
227 227 227
260 260 260
299 299 299
340 340 340
383 383 383
428 428 428
471 471 471
516 516 516
560 560 560
602 602 602
646 646 646
689 689 689
734 734 734
399 399 399
442 442 442
484 484 484
526 526 526
569 569 569
616 616 616
663 663 663
711 711 711
760 760 760
810 810 810
860 860 860
910 910 910
958 958 958
1006 1006 1006
1054 1054 1054
1103 1103 1103
1152 1152 1152
792 792 792
840 840 840
887 887 887
935 935 935
983 983 983
1034 1034 1034
1086 1086 1086
1138 1138 1138
1191 1191 1191
1246 1246 1246
1300 1300 1300
1353 1353 1353
1406 1406 1406
1458 1458 1458
1511 1511 1511
1563 1563 1563
1616 1616 1616
1236 1236 1236
1287 1287 1287
1338 1338 1338
1390 1390 1390
1442 1442 1442
1496 1496 1496
1551 1551 1551
1608 1608 1608
1665 1665 1665
1721 1721 1721
1777 1777 1777
1833 1833 1833
1887 1887 1887
1941 1941 1941
1994 1994 1994
2048 2048 2048
2102 2102 2102
1715 1715 1715
1768 1768 1768
1821 1821 1821
1874 1874 1874
1928 1928 1928
1983 1983 1983
2040 2040 2040
2097 2097 2097
2153 2153 2153
2208 2208 2208
2264 2264 2264
2319 2319 2319
2373 2373 2373
2425 2425 2425
2478 2478 2478
2531 2531 2531
2584 2584 2584
2202 2202 2202
2254 2254 2254
2306 2306 2306
2357 2357 2357
2410 2410 2410
2464 2464 2464
2518 2518 2518
2572 2572 2572
2626 2626 2626
2679 2679 2679
2732 2732 2732
2784 2784 2784
2835 2835 2835
2885 2885 2885
2935 2935 2935
2983 2983 2983
3031 3031 3031
2668 2668 2668
2717 2717 2717
2766 2766 2766
2815 2815 2815
2862 2862 2862
2912 2912 2912
2962 2962 2962
3012 3012 3012
3063 3063 3063
3112 3112 3112
3161 3161 3161
3209 3209 3209
3255 3255 3255
3299 3299 3299
3343 3343 3343
3386 3386 3386
3427 3427 3427
3093 3093 3093
3137 3137 3137
3181 3181 3181
3224 3224 3224
3266 3266 3266
3309 3309 3309
3352 3352 3352
3395 3395 3395
3438 3438 3438
3479 3479 3479
3518 3518 3518
3556 3556 3556
3592 3592 3592
3625 3625 3625
3657 3657 3657
3688 3688 3688
3719 3719 3719
3438 3438 3438
3471 3471 3471
3503 3503 3503
3533 3533 3533
3564 3564 3564
3598 3598 3598
3632 3632 3632
3665 3665 3665
3699 3699 3699
3732 3732 3732
3764 3764 3764
3796 3796 3796
3825 3825 3825
3851 3851 3851
3879 3879 3879
3906 3906 3906
3932 3932 3932
3676 3676 3676
3703 3703 3703
3729 3729 3729
3755 3755 3755
3782 3782 3782
3811 3811 3811
3841 3841 3841
3871 3871 3871
3899 3899 3899
3927 3927 3927
3954 3954 3954
3981 3981 3981
4003 4003 4003
4023 4023 4023
4043 4043 4043
4063 4063 4063
4083 4083 4083
3866 3866 3866
3887 3887 3887
3908 3908 3908
3927 3927 3927
3947 3947 3947
3970 3970 3970
3993 3993 3993
4016 4016 4016
4039 4039 4039
4062 4062 4062
4085 4085 4085
4095 4095 4095
4095 4095 4095
4095 4095 4095
4095 4095 4095
4095 4095 4095
4095 4095 4095
0 0 0
0 0 0
0 0 0
0 0 0
0 0 0
0 0 0
0 0 0
0 0 0
0 0 0
0 0 0
0 0 0
0 0 0
6 6 6
18 18 18
32 32 32
45 45 45
58 58 58
0 0 0
0 0 0
0 0 0
0 0 0
0 0 0
0 0 0
0 0 0
0 0 0
0 0 0
8 8 8
26 26 26
43 43 43
57 57 57
70 70 70
83 83 83
96 96 96
109 109 109
0 0 0
0 0 0
0 0 0
0 0 0
0 0 0
0 0 0
6 6 6
24 24 24
42 42 42
59 59 59
77 77 77
94 94 94
108 108 108
121 121 121
133 133 133
147 147 147
161 161 161
0 0 0
0 0 0
0 0 0
12 12 12
26 26 26
42 42 42
60 60 60
77 77 77
95 95 95
113 113 113
130 130 130
147 147 147
161 161 161
173 173 173
185 185 185
197 197 197
210 210 210
29 29 29
40 40 40
51 51 51
62 62 62
74 74 74
89 89 89
106 106 106
123 123 123
141 141 141
158 158 158
176 176 176
194 194 194
209 209 209
223 223 223
238 238 238
254 254 254
272 272 272
71 71 71
84 84 84
97 97 97
111 111 111
126 126 126
146 146 146
169 169 169
191 191 191
216 216 216
243 243 243
273 273 273
304 304 304
332 332 332
362 362 362
397 397 397
436 436 436
475 475 475
181 181 181
209 209 209
241 241 241
277 277 277
315 315 315
357 357 357
400 400 400
444 444 444
491 491 491
537 537 537
583 583 583
628 628 628
673 673 673
717 717 717
762 762 762
807 807 807
854 854 854
512 512 512
555 555 555
599 599 599
643 643 643
687 687 687
735 735 735
784 784 784
835 835 835
885 885 885
936 936 936
987 987 987
1038 1038 1038
1087 1087 1087
1136 1136 1136
1186 1186 1186
1236 1236 1236
1288 1288 1288
920 920 920
968 968 968
1017 1017 1017
1067 1067 1067
1116 1116 1116
1168 1168 1168
1223 1223 1223
1277 1277 1277
1331 1331 1331
1385 1385 1385
1439 1439 1439
1494 1494 1494
1547 1547 1547
1599 1599 1599
1652 1652 1652
1708 1708 1708
1761 1761 1761
1376 1376 1376
1428 1428 1428
1480 1480 1480
1533 1533 1533
1586 1586 1586
1642 1642 1642
1697 1697 1697
1753 1753 1753
1810 1810 1810
1867 1867 1867
1923 1923 1923
1979 1979 1979
2033 2033 2033
2088 2088 2088
2142 2142 2142
2196 2196 2196
2249 2249 2249
1860 1860 1860
1913 1913 1913
1967 1967 1967
2021 2021 2021
2074 2074 2074
2130 2130 2130
2186 2186 2186
2241 2241 2241
2297 2297 2297
2352 2352 2352
2407 2407 2407
2463 2463 2463
2517 2517 2517
2568 2568 2568
2620 2620 2620
2671 2671 2671
2722 2722 2722
2345 2345 2345
2397 2397 2397
2448 2448 2448
2499 2499 2499
2550 2550 2550
2603 2603 2603
2656 2656 2656
2708 2708 2708
2761 2761 2761
2814 2814 2814
2867 2867 2867
2918 2918 2918
2967 2967 2967
3014 3014 3014
3062 3062 3062
3109 3109 3109
3155 3155 3155
2801 2801 2801
2848 2848 2848
2895 2895 2895
2942 2942 2942
2988 2988 2988
3036 3036 3036
3085 3085 3085
3134 3134 3134
3183 3183 3183
3232 3232 3232
3279 3279 3279
3325 3325 3325
3369 3369 3369
3410 3410 3410
3450 3450 3450
3490 3490 3490
3529 3529 3529
3208 3208 3208
3250 3250 3250
3291 3291 3291
3330 3330 3330
3369 3369 3369
3409 3409 3409
3449 3449 3449
3488 3488 3488
3527 3527 3527
3564 3564 3564
3600 3600 3600
3636 3636 3636
3668 3668 3668
3699 3699 3699
3729 3729 3729
3759 3759 3759
3788 3788 3788
3517 3517 3517
3547 3547 3547
3577 3577 3577
3606 3606 3606
3635 3635 3635
3667 3667 3667
3699 3699 3699
3732 3732 3732
3764 3764 3764
3795 3795 3795
3826 3826 3826
3857 3857 3857
3885 3885 3885
3911 3911 3911
3937 3937 3937
3961 3961 3961
3985 3985 3985
3738 3738 3738
3764 3764 3764
3790 3790 3790
3815 3815 3815
3840 3840 3840
3867 3867 3867
3894 3894 3894
3922 3922 3922
3948 3948 3948
3974 3974 3974
3998 3998 3998
4022 4022 4022
4043 4043 4043
4063 4063 4063
4081 4081 4081
4095 4095 4095
4095 4095 4095
3910 3910 3910
3929 3929 3929
3949 3949 3949
3967 3967 3967
3986 3986 3986
4007 4007 4007
4030 4030 4030
4052 4052 4052
4074 4074 4074
4095 4095 4095
4095 4095 4095
4095 4095 4095
4095 4095 4095
4095 4095 4095
4095 4095 4095
4095 4095 4095
4095 4095 4095
0 0 0
0 0 0
0 0 0
0 0 0
0 0 0
0 0 0
0 0 0
0 0 0
0 0 0
0 0 0
0 0 0
8 8 8
22 22 22
34 34 34
47 47 47
60 60 60
73 73 73
0 0 0
0 0 0
0 0 0
0 0 0
0 0 0
0 0 0
0 0 0
0 0 0
7 7 7
24 24 24
42 42 42
59 59 59
73 73 73
85 85 85
98 98 98
111 111 111
124 124 124
0 0 0
0 0 0
0 0 0
0 0 0
0 0 0
5 5 5
22 22 22
40 40 40
58 58 58
75 75 75
93 93 93
110 110 110
125 125 125
138 138 138
151 151 151
164 164 164
177 177 177
0 0 0
6 6 6
18 18 18
30 30 30
43 43 43
59 59 59
76 76 76
93 93 93
110 110 110
127 127 127
145 145 145
161 161 161
174 174 174
186 186 186
199 199 199
212 212 212
225 225 225
43 43 43
53 53 53
65 65 65
76 76 76
88 88 88
103 103 103
121 121 121
138 138 138
157 157 157
176 176 176
195 195 195
214 214 214
231 231 231
249 249 249
267 267 267
286 286 286
306 306 306
92 92 92
106 106 106
123 123 123
139 139 139
158 158 158
182 182 182
210 210 210
240 240 240
271 271 271
304 304 304
339 339 339
378 378 378
418 418 418
458 458 458
498 498 498
540 540 540
584 584 584
262 262 262
300 300 300
339 339 339
379 379 379
420 420 420
465 465 465
510 510 510
556 556 556
604 604 604
651 651 651
698 698 698
745 745 745
791 791 791
837 837 837
885 885 885
932 932 932
979 979 979
629 629 629
673 673 673
718 718 718
764 764 764
812 812 812
861 861 861
911 911 911
962 962 962
1013 1013 1013
1066 1066 1066
1118 1118 1118
1170 1170 1170
1221 1221 1221
1273 1273 1273
1324 1324 1324
1375 1375 1375
1427 1427 1427
1052 1052 1052
1102 1102 1102
1152 1152 1152
1204 1204 1204
1255 1255 1255
1308 1308 1308
1362 1362 1362
1416 1416 1416
1471 1471 1471
1527 1527 1527
1582 1582 1582
1637 1637 1637
1692 1692 1692
1745 1745 1745
1799 1799 1799
1852 1852 1852
1906 1906 1906
1520 1520 1520
1574 1574 1574
1626 1626 1626
1679 1679 1679
1732 1732 1732
1787 1787 1787
1843 1843 1843
1899 1899 1899
1955 1955 1955
2012 2012 2012
2069 2069 2069
2126 2126 2126
2180 2180 2180
2234 2234 2234
2287 2287 2287
2341 2341 2341
2394 2394 2394
2007 2007 2007
2060 2060 2060
2113 2113 2113
2166 2166 2166
2218 2218 2218
2273 2273 2273
2328 2328 2328
2384 2384 2384
2440 2440 2440
2496 2496 2496
2550 2550 2550
2604 2604 2604
2656 2656 2656
2706 2706 2706
2757 2757 2757
2807 2807 2807
2857 2857 2857
2485 2485 2485
2535 2535 2535
2585 2585 2585
2636 2636 2636
2686 2686 2686
2737 2737 2737
2790 2790 2790
2842 2842 2842
2894 2894 2894
2945 2945 2945
2995 2995 2995
3045 3045 3045
3092 3092 3092
3138 3138 3138
3185 3185 3185
3231 3231 3231
3277 3277 3277
2928 2928 2928
2974 2974 2974
3019 3019 3019
3065 3065 3065
3111 3111 3111
3158 3158 3158
3205 3205 3205
3252 3252 3252
3298 3298 3298
3344 3344 3344
3388 3388 3388
3432 3432 3432
3472 3472 3472
3510 3510 3510
3547 3547 3547
3582 3582 3582
3617 3617 3617
3314 3314 3314
3352 3352 3352
3390 3390 3390
3426 3426 3426
3460 3460 3460
3497 3497 3497
3534 3534 3534
3570 3570 3570
3605 3605 3605
3640 3640 3640
3674 3674 3674
3708 3708 3708
3739 3739 3739
3768 3768 3768
3797 3797 3797
3825 3825 3825
3853 3853 3853
3588 3588 3588
3617 3617 3617
3645 3645 3645
3673 3673 3673
3701 3701 3701
3731 3731 3731
3762 3762 3762
3794 3794 3794
3825 3825 3825
3856 3856 3856
3886 3886 3886
3915 3915 3915
3941 3941 3941
3964 3964 3964
3988 3988 3988
4010 4010 4010
4031 4031 4031
3797 3797 3797
3822 3822 3822
3845 3845 3845
3868 3868 3868
3891 3891 3891
3916 3916 3916
3941 3941 3941
3966 3966 3966
3990 3990 3990
4014 4014 4014
4038 4038 4038
4060 4060 4060
4080 4080 4080
4095 4095 4095
4095 4095 4095
4095 4095 4095
4095 4095 4095
3950 3950 3950
3968 3968 3968
3986 3986 3986
4003 4003 4003
4022 4022 4022
4041 4041 4041
4063 4063 4063
4086 4086 4086
4095 4095 4095
4095 4095 4095
4095 4095 4095
4095 4095 4095
4095 4095 4095
4095 4095 4095
4095 4095 4095
4095 4095 4095
4095 4095 4095
0 0 0
0 0 0
0 0 0
0 0 0
0 0 0
0 0 0
0 0 0
0 0 0
0 0 0
0 0 0
6 6 6
23 23 23
38 38 38
50 50 50
63 63 63
76 76 76
89 89 89
0 0 0
0 0 0
0 0 0
0 0 0
0 0 0
0 0 0
0 0 0
5 5 5
22 22 22
40 40 40
57 57 57
74 74 74
89 89 89
101 101 101
114 114 114
127 127 127
