3DLUTS/GC_VENOM_LUTS/Additional_Formats/3DL/GC_Venom_V-LOG/GC_Venom_Tiara_V-Log.3dl
# Converted by Briz LUT Converter
0 128 256 384 512 640 768 896 1023
0 0 0
0 0 0
0 0 0
0 0 0
0 0 0
0 0 0
0 0 0
0 0 0
0 0 0
0 0 0
0 0 0
0 0 0
0 0 0
0 0 0
0 0 0
0 0 0
0 0 0
0 0 0
0 122 30
0 150 104
0 174 215
0 183 478
0 180 881
0 170 1391
0 157 1988
0 149 2588
0 136 3296
0 726 0
0 769 0
0 811 260
0 817 915
0 793 1901
0 760 3011
0 731 4095
0 722 4095
0 712 4095
0 1747 0
0 1786 0
0 1826 0
0 1835 614
0 1818 1657
0 1795 2792
0 1785 3823
0 1799 4095
0 1810 4095
0 2922 0
0 2976 0
0 3028 0
0 3051 422
0 3048 1411
0 3034 2538
0 3035 3535
0 3057 4095
0 3078 4095
0 4095 0
0 4095 0
0 4095 0
0 4095 415
0 4095 1361
0 4095 2477
0 4095 3458
0 4095 4095
0 4095 4095
0 4095 0
0 4095 0
0 4095 0
0 4095 575
0 4095 1584
0 4095 2677
0 4095 3544
0 4095 4095
312 4095 4095
1657 4095 1900
2067 4095 2392
2422 4095 2794
2726 4095 3175
2982 4095 3506
3229 4095 3783
3483 4095 3963
3747 4095 4059
4006 4095 4095
0 0 0
0 0 0
0 0 0
0 0 0
0 0 0
0 0 0
0 0 0
0 0 0
0 0 0
0 0 0
0 0 0
0 0 0
0 0 0
0 0 0
0 0 0
1 10 148
0 15 406
0 13 747
0 210 23
0 229 148
0 246 313
0 244 701
0 229 1283
0 206 1994
0 181 2825
0 165 3611
0 143 4095
0 861 0
0 896 0
0 926 281
0 920 1025
0 886 2086
0 847 3217
0 818 4095
0 819 4095
0 821 4095
0 1883 0
0 1927 0
0 1973 23
0 1985 746
0 1972 1798
0 1951 2938
0 1946 3981
0 1963 4095
0 1978 4095
0 3099 0
0 3154 0
0 3209 0
0 3232 578
0 3230 1576
0 3217 2706
0 3218 3707
0 3238 4095
0 3256 4095
0 4095 0
0 4095 0
0 4095 0
0 4095 561
0 4095 1514
0 4095 2627
0 4095 3606
0 4095 4095
0 4095 4095
0 4095 0
0 4095 0
0 4095 477
10 4095 1281
383 4095 2192
747 4095 3062
1117 4095 3696
1490 4095 4095
1809 4095 4095
2959 4095 3002
3245 4095 3331
3515 4095 3612
3737 4095 3836
3942 4095 4007
4066 4095 4089
4088 4095 4095
4095 4095 4095
4095 4095 4095
0 0 0
0 0 0
0 0 0
0 0 0
0 0 0
0 0 0
0 0 0
0 0 0
0 0 0
0 0 0
0 0 0
18 16 31
34 29 123
42 34 302
42 30 564
36 21 918
28 10 1317
15 0 1798
106 270 0
104 286 169
100 299 394
73 291 926
30 267 1715
0 233 2654
0 196 3688
0 172 4095
0 144 4095
0 962 0
0 989 0
0 1016 335
0 1009 1110
0 983 2184
0 955 3322
0 935 4095
0 944 4095
0 950 4095
0 2029 0
0 2078 0
0 2127 158
0 2143 889
0 2133 1948
0 2116 3092
0 2111 4095
0 2132 4095
0 2150 4095
0 3276 0
0 3333 0
0 3387 29
0 3411 735
0 3406 1739
0 3393 2872
0 3393 3874
0 3412 4095
0 3428 4095
0 4095 0
0 4095 0
0 4095 5
0 4095 696
0 4095 1653
0 4095 2764
0 4095 3741
0 4095 4095
0 4095 4095
430 4095 283
823 4095 945
1222 4095 1556
1567 4095 2200
1879 4095 2851
2153 4095 3427
2407 4095 3827
2675 4095 4080
2913 4095 4095
3890 4095 3883
4065 4095 4066
4086 4095 4089
4095 4095 4095
4095 4095 4095
4095 4095 4095
4095 4095 4095
4095 4095 4095
4095 4095 4095
0 0 0
0 0 0
0 0 0
0 0 0
0 0 0
0 0 0
0 0 0
0 0 0
0 0 0
177 17 2
255 18 47
323 17 127
352 11 337
360 0 677
353 0 1112
349 0 1638
360 0 2164
367 0 2808
827 195 0
884 201 47
939 206 333
914 195 998
849 167 1960
775 132 3055
717 92 4095
706 67 4095
688 46 4095
629 948 0
670 984 0
709 1021 380
700 1034 1153
672 1021 2232
645 1004 3377
633 993 4095
646 1006 4095
657 1017 4095
374 2104 0
421 2156 0
468 2208 285
507 2228 1010
526 2220 2060
538 2206 3204
551 2204 4095
572 2225 4095
593 2245 4095
230 3369 0
281 3424 0
333 3479 172
372 3501 872
396 3497 1861
407 3481 2987
422 3481 3981
440 3497 4095
455 3510 4095
185 4095 0
227 4095 0
267 4095 121
302 4095 810
369 4095 1772
483 4095 2881
660 4095 3794
894 4095 4095
1158 4095 4095
2038 4095 1594
2336 4095 2115
2617 4095 2567
2841 4095 2991
3038 4095 3386
3213 4095 3721
3396 4095 3945
3591 4095 4068
3788 4095 4095
4095 4095 4095
4095 4095 4095
4095 4095 4095
4095 4095 4095
4095 4095 4095
4095 4095 4095
4095 4095 4095
4095 4095 4095
4095 4095 4095
0 0 0
0 0 0
0 0 0
0 0 0
0 0 0
0 0 0
0 0 0
62 0 92
190 0 338
921 0 0
1070 0 0
1215 0 62
1325 0 361
1419 0 842
1515 0 1449
1613 0 2136
1754 0 2815
1900 0 3627
2696 0 0
2842 0 0
2968 0 0
3021 0 697
3030 0 1736
3010 0 2868
2980 0 3955
2975 0 4095
2969 0 4095
3017 564 0
3062 605 0
3106 648 53
3108 666 805
3078 660 1874
3040 650 3017
3021 649 4085
3037 665 4095
3050 681 4095
2636 1807 0
2694 1858 0
2751 1910 52
2755 1942 776
2725 1951 1824
2681 1952 2978
2663 1963 4011
2683 1984 4095
2698 2003 4095
2030 3204 0
2092 3253 0
2148 3302 65
2133 3338 777
2080 3354 1761
2014 3356 2899
1979 3363 3892
1991 3378 4095
1996 3391 4095
1641 4095 0
1732 4095 0
1858 4095 325
1945 4095 1145
2031 4095 2081
2139 4095 3046
2299 4095 3766
2473 4095 4095
2647 4095 4095
3292 4095 2676
3448 4095 3046
3592 4095 3355
3711 4095 3628
3829 4095 3850
3943 4095 4005
4068 4095 4087
4095 4095 4095
4095 4095 4095
4095 4095 4095
4095 4095 4095
4095 4095 4095
4095 4095 4095
4095 4095 4095
4095 4095 4095
4095 4095 4095
4095 4095 4095
4095 4095 4095
0 0 0
0 0 0
0 0 0
66 0 15
232 0 97
401 0 259
576 0 505
773 0 815
967 0 1206
1966 0 0
2169 0 0
2388 0 0
2560 0 332
2729 0 984
2903 0 1794
3090 0 2684
3290 0 3492
3463 0 4095
4095 0 0
4095 0 0
4095 0 0
4095 0 530
4095 0 1589
4095 0 2716
4095 0 3787
4095 0 4095
4095 0 4095
4095 459 0
4095 504 0
4095 550 0
4095 574 722
4095 571 1781
4095 563 2918
4095 564 3971
4095 584 4095
4095 601 4095
4095 1692 0
4095 1748 0
4095 1802 6
4095 1829 716
4095 1830 1736
4095 1822 2873
4095 1828 3886
4095 1848 4095
4095 1865 4095
3962 2994 0
4011 3044 0
4058 3091 0
4080 3110 620
4084 3111 1563
4070 3094 2674
4067 3089 3652
4078 3100 4095
4081 3107 4095
3743 4053 0
3771 4054 365
3799 4051 1031
3810 4033 1766
3813 4009 2494
3812 3983 3183
3821 3969 3679
3840 3968 3987
3861 3969 4095
3995 4095 3564
4041 4095 3835
4083 4095 4041
4095 4095 4084
4095 4095 4095
4095 4095 4095
4095 4095 4095
4095 4095 4095
4095 4095 4095
4095 4095 4095
4095 4095 4095
4095 4095 4095
4095 4095 4095
4095 4095 4095
4095 4095 4095
4095 4095 4095
4095 4095 4095
4095 4095 4095
218 0 0
487 0 0
764 0 0
990 0 108
1207 0 342
1398 0 668
1601 0 1066
1839 0 1492
2071 0 2004
3311 0 0
3607 0 0
3918 0 0
4095 0 254
4095 0 1083
4095 0 2068
4095 0 3075
4095 0 3931
4095 0 4095
4095 0 0
4095 0 0
4095 0 0
4095 0 450
4095 0 1512
4095 0 2645
4095 0 3714
4095 0 4095
4095 0 4095
4095 425 0
4095 474 0
4095 523 0
4095 549 700
4095 552 1756
4095 547 2892
4095 550 3939
4095 571 4095
4095 591 4095
4095 1675 0
4095 1730 0
4095 1784 20
4095 1811 726
4095 1812 1734
4095 1803 2867
4095 1806 3871
4095 1825 4095
4095 1840 4095
4095 2955 0
4095 3002 0
4095 3045 0
4095 3062 611
4095 3057 1535
4095 3042 2647
4095 3050 3611
4095 3087 4095
4095 3130 4095
4095 3935 943
4095 3946 1555
4095 3957 2089
4095 3958 2614
4095 3957 3083
4095 3956 3516
4095 3963 3817
4095 3981 3994
4095 4003 4095
4095 4095 4086
4095 4095 4095
4095 4095 4095
4095 4095 4095
4095 4095 4095
4095 4095 4095
4095 4095 4095
4095 4095 4095
4095 4095 4095
4095 4095 4095
4095 4095 4095
4095 4095 4095
4095 4095 4095
4095 4095 4095
4095 4095 4095
4095 4095 4095
4095 4095 4095
4095 4095 4095
1332 0 0
1640 0 0
1930 0 0
2168 0 135
2398 0 523
2618 0 1023
2879 0 1600
3174 0 2172
3486 0 2860
4095 0 0
4095 0 0
4095 0 0
4095 0 179
4095 0 1149
4095 0 2244
4095 0 3304
4095 0 4095
4095 0 4095
4095 0 0
4095 0 0
4095 0 0
4095 0 472
4095 0 1539
4095 0 2677
4095 0 3751
4095 0 4095
4095 0 4095
4095 475 0
4095 527 0
4095 579 26
4095 606 756
4095 610 1814
4095 607 2956
4095 611 4005
4095 632 4095
4095 651 4095
4095 1737 0
4095 1790 0
4095 1843 71
4095 1868 776
4095 1867 1785
4095 1855 2916
4095 1855 3918
4095 1870 4095
4095 1882 4095
4095 2987 0
4095 3029 0
4095 3078 13
4095 3110 800
4095 3133 1778
4095 3155 2825
4095 3201 3640
4095 3270 4095
4095 3332 4095
4095 3937 2204
4095 3956 2638
4095 3976 3011
4095 3989 3342
4095 4003 3624
4095 4020 3860
4095 4044 4006
4095 4077 4079
4095 4095 4095
4095 4095 4095
4095 4095 4095
4095 4095 4095
4095 4095 4095
4095 4095 4095
4095 4095 4095
4095 4095 4095
4095 4095 4095
4095 4095 4095
4095 4095 4095
4095 4095 4095
4095 4095 4095
4095 4095 4095
4095 4095 4095
4095 4095 4095
4095 4095 4095
4095 4095 4095
4095 4095 4095
2662 0 0
2996 0 0
3331 0 0
3623 0 99
3900 0 651
4095 0 1350
4095 0 2134
4095 0 2870
4095 0 3712
4095 0 0
4095 0 0
4095 0 0
4095 0 96
4095 0 1136
4095 0 2255
4095 0 3302
4095 0 4095
4095 0 4095
4095 0 0
4095 0 0
4095 0 0
4095 0 501
4095 0 1572
4095 0 2713
4095 0 3792
4095 0 4095
4095 0 4095
4095 526 0
4095 580 0
4095 634 78
4095 662 812
4095 665 1871
4095 662 3011
4095 666 4064
4095 687 4095
4095 705 4095
4095 1788 0
4095 1838 0
4095 1887 112
4095 1909 815
4095 1905 1823
4095 1891 2951
4095 1888 3950
4095 1898 4095
4095 1904 4095
4095 3041 0
4095 3117 79
4095 3196 715
4095 3261 1508
4095 3315 2343
4095 3359 3135
4095 3418 3712
4095 3487 4079
4095 3544 4095
4095 3988 3213
4095 4016 3525
4095 4046 3787
4095 4073 3982
4095 4095 4080
4095 4095 4095
4095 4095 4095
4095 4095 4095
4095 4095 4095
4095 4095 4095
4095 4095 4095
4095 4095 4095
4095 4095 4095
4095 4095 4095
4095 4095 4095
4095 4095 4095
4095 4095 4095
4095 4095 4095
4095 4095 4095
4095 4095 4095
4095 4095 4095
4095 4095 4095
4095 4095 4095
4095 4095 4095
4095 4095 4095
4095 4095 4095
4095 4095 4095
