3DLUTS/GC_VENOM_LUTS/Additional_Formats/3DL/GC_Venom_V-LOG/GC_Venom_Gituku_V-Log.3dl
# Converted by Briz LUT Converter
0 128 256 384 512 640 768 896 1023
0 0 0
0 0 0
0 0 0
0 0 0
0 0 0
0 0 0
0 0 0
0 0 0
0 0 0
0 0 0
0 0 0
0 0 0
0 0 0
0 0 0
0 0 0
0 0 0
0 0 0
2 2 4
0 108 0
0 133 39
0 153 185
0 156 522
0 150 967
0 139 1505
0 127 2099
0 119 2705
0 106 3429
0 800 0
0 866 0
0 927 16
0 930 1161
0 908 2541
0 881 3919
0 861 4095
0 859 4095
0 852 4095
0 2050 0
0 2055 0
0 2059 0
0 2020 842
0 1968 2340
0 1929 3706
0 1908 4095
0 1914 4095
0 1919 4095
0 3151 0
0 3167 0
0 3182 0
0 3158 546
0 3117 2068
0 3086 3472
0 3078 4095
0 3097 4095
0 3116 4095
0 4095 0
0 4095 0
0 4095 0
0 4095 569
0 4095 2098
0 4095 3527
0 4095 4095
0 4095 4095
0 4095 4095
0 4095 0
0 4095 0
0 4095 0
0 4095 910
0 4095 2449
0 4095 3754
0 4095 4095
0 4095 4095
676 4095 4095
2558 4095 2528
3056 4095 3164
3469 4095 3611
3805 4095 3928
4055 4095 4082
4075 4095 4095
4094 4095 4095
4095 4095 4095
4095 4095 4095
0 0 0
0 0 0
0 0 0
0 0 0
0 0 0
0 0 0
0 0 0
0 0 0
0 0 0
0 0 0
0 0 0
0 0 0
0 0 0
0 0 0
4 5 54
3 7 261
0 4 552
0 0 914
0 179 0
0 192 18
0 201 254
0 188 770
0 167 1434
0 140 2208
0 114 3066
0 96 3955
0 71 4095
0 1008 0
0 1042 0
0 1064 0
0 1029 1297
0 977 2758
0 930 4095
0 901 4095
0 900 4095
0 896 4095
0 2103 0
0 2111 0
0 2120 0
0 2084 910
0 2036 2410
0 1999 3776
0 1982 4095
0 1991 4095
0 1999 4095
0 3243 0
0 3263 0
0 3283 0
0 3261 654
0 3227 2181
0 3200 3586
0 3195 4095
0 3217 4095
0 3237 4095
0 4095 0
0 4095 0
0 4095 0
0 4095 698
0 4095 2224
0 4095 3647
0 4095 4095
0 4095 4095
0 4095 4095
0 4095 0
0 4095 0
0 4095 322
99 4095 1691
641 4095 2960
1207 4095 3851
1764 4095 4095
2316 4095 4095
2760 4095 4095
3911 4095 3887
4069 4095 4069
4091 4095 4095
4095 4095 4095
4095 4095 4095
4095 4095 4095
4095 4095 4095
4095 4095 4095
4095 4095 4095
0 0 0
0 0 0
0 0 0
0 0 0
0 0 0
0 0 0
0 0 0
0 0 0
0 0 0
0 0 0
0 0 0
25 11 30
52 16 146
71 12 360
82 0 659
89 0 1029
95 0 1434
95 0 1909
185 215 0
185 219 0
181 220 296
150 194 1055
107 156 2024
56 111 3154
8 70 4095
0 42 4095
0 11 4095
0 1101 0
0 1104 0
0 1106 0
0 1060 1333
0 1009 2791
0 965 4095
0 940 4095
0 941 4095
0 940 4095
0 2158 0
0 2170 0
0 2181 0
0 2151 981
0 2106 2483
0 2073 3850
0 2059 4095
0 2073 4095
0 2085 4095
0 3342 0
0 3367 0
0 3391 0
0 3372 769
0 3338 2296
0 3314 3701
0 3312 4095
0 3335 4095
0 3355 4095
0 4095 0
0 4095 0
0 4095 0
0 4095 810
0 4095 2335
0 4095 3750
0 4095 4095
0 4095 4095
0 4095 4095
758 4095 0
1296 4095 900
1821 4095 1889
2277 4095 2828
2686 4095 3541
3040 4095 3963
3360 4095 4095
3673 4095 4095
3923 4095 4095
4095 4095 4095
4095 4095 4095
4095 4095 4095
4095 4095 4095
4095 4095 4095
4095 4095 4095
4095 4095 4095
4095 4095 4095
4095 4095 4095
0 0 0
0 0 0
0 0 0
0 0 0
0 0 0
0 0 0
0 0 0
0 0 0
0 0 0
141 15 0
213 13 25
278 6 135
328 0 407
369 0 788
403 0 1251
439 0 1767
481 0 2293
526 0 2947
814 173 0
887 165 0
966 154 256
1000 102 1324
1010 36 2620
1007 0 3979
1004 0 4095
1017 0 4095
1016 0 4095
919 1021 0
923 1025 0
928 1030 0
887 987 1249
839 937 2718
800 897 4072
779 875 4095
784 879 4095
786 882 4095
628 2110 0
642 2125 0
657 2139 0
630 2112 932
591 2071 2443
562 2041 3818
555 2033 4095
572 2050 4095
590 2068 4095
473 3335 0
500 3362 0
526 3389 0
510 3372 760
477 3338 2289
453 3314 3700
452 3312 4095
474 3334 4095
492 3352 4095
539 4095 0
562 4095 0
580 4095 0
557 4095 784
569 4095 2324
671 4095 3716
870 4095 4095
1178 4095 4095
1554 4095 4095
2805 4095 1853
3127 4095 2629
3420 4095 3222
3651 4095 3675
3854 4095 3959
4022 4095 4079
4084 4095 4095
4095 4095 4095
4095 4095 4095
4095 4095 4095
4095 4095 4095
4095 4095 4095
4095 4095 4095
4095 4095 4095
4095 4095 4095
4095 4095 4095
4095 4095 4095
4095 4095 4095
0 0 0
0 0 0
0 0 0
0 0 0
0 0 0
0 0 0
10 0 18
106 0 240
208 0 545
595 0 0
700 0 0
801 0 160
885 0 594
962 0 1165
1048 0 1840
1140 0 2561
1263 0 3310
1401 0 4095
2023 54 0
2161 29 0
2271 5 127
2305 0 1417
2302 0 2863
2277 0 4095
2250 0 4095
2247 0 4095
2243 0 4095
2158 931 0
2164 938 0
2172 946 0
2136 908 1155
2090 860 2637
2055 823 3996
2039 805 4095
2047 813 4095
2053 819 4095
1910 2057 0
1928 2076 0
1946 2095 0
1925 2071 878
1890 2034 2398
1867 2008 3784
1862 2002 4095
1883 2023 4095
1902 2041 4095
1799 3317 0
1825 3344 0
1851 3369 0
1836 3353 730
1805 3319 2259
1780 3292 3678
1776 3286 4095
1795 3306 4095
1812 3322 4095
1854 4095 0
1917 4095 0
2024 4095 0
2136 4095 1175
2282 4095 2598
2488 4095 3708
2736 4095 4095
2984 4095 4095
3225 4087 4095
3838 4095 3444
3983 4095 3849
4083 4095 4068
4095 4095 4095
4095 4095 4095
4095 4095 4095
4095 4095 4095
4095 4095 4095
4095 4095 4095
4095 4095 4095
4095 4095 4095
4095 4095 4095
4095 4095 4095
4095 4095 4095
4095 4095 4095
4095 4095 4095
4095 4095 4095
4095 4095 4095
0 0 0
0 0 0
0 0 0
71 0 37
207 0 173
345 0 399
484 0 700
634 0 1055
780 0 1481
1326 0 0
1486 0 0
1658 0 117
1810 0 745
1982 0 1588
2179 0 2570
2387 0 3609
2630 0 4095
2851 0 4095
3522 0 0
3597 0 0
3626 0 0
3582 0 1339
3530 0 2795
3488 0 4095
3462 0 4095
3463 0 4095
3462 0 4095
3389 858 0
3398 868 0
3408 879 0
3377 845 1078
3334 799 2573
3302 764 3936
3288 749 4095
3301 761 4095
3311 772 4095
3182 2022 0
3206 2046 0
3228 2069 0
3211 2050 844
3180 2015 2369
3158 1990 3766
3157 1987 4095
3179 2010 4095
3200 2030 4095
3101 3306 0
3126 3332 0
3150 3356 0
3132 3336 701
3099 3300 2227
3071 3269 3656
3064 3260 4095
3079 3275 4095
3093 3287 4095
3218 4095 0
3304 4095 0
3407 4095 1096
3489 4095 2267
3573 4095 3213
3663 4066 3834
3755 4052 4095
3850 4054 4095
3941 4063 4095
4095 4095 4084
4095 4095 4095
4095 4095 4095
4095 4095 4095
4095 4095 4095
4095 4095 4095
4095 4095 4095
4095 4095 4095
4095 4095 4095
4095 4095 4095
4095 4095 4095
4095 4095 4095
4095 4095 4095
4095 4095 4095
4095 4095 4095
4095 4095 4095
4095 4095 4095
4095 4095 4095
135 0 0
332 0 0
535 0 64
714 0 261
892 0 576
1052 0 963
1217 0 1402
1402 0 1862
1589 0 2408
2376 0 0
2655 0 0
2974 0 34
3259 0 940
3542 0 2143
3780 0 3424
3990 0 4095
4095 0 4095
4095 0 4095
4095 0 0
4095 0 0
4095 0 0
4095 0 1289
4095 0 2756
4095 0 4095
4095 0 4095
4095 0 4095
4095 0 4095
4095 843 0
4095 856 0
4095 870 0
4095 841 1066
4095 799 2570
4095 768 3939
4095 756 4095
4095 772 4095
4095 787 4095
4095 2050 0
4095 2076 0
4095 2102 0
4095 2085 873
4095 2051 2400
4095 2027 3803
4095 2024 4095
4095 2048 4095
4095 2067 4095
4095 3338 0
4095 3363 0
4095 3383 0
4095 3359 718
4095 3318 2237
4095 3285 3667
4095 3284 4095
4095 3319 4095
4080 3370 4095
4022 4095 933
4018 4095 1929
4020 4092 2697
4021 4072 3335
4029 4062 3769
4048 4066 4010
4075 4082 4092
4095 4095 4095
4095 4095 4095
4095 4095 4095
4095 4095 4095
4095 4095 4095
4095 4095 4095
4095 4095 4095
4095 4095 4095
4095 4095 4095
4095 4095 4095
4095 4095 4095
4095 4095 4095
4095 4095 4095
4095 4095 4095
4095 4095 4095
4095 4095 4095
4095 4095 4095
4095 4095 4095
4095 4095 4095
4095 4095 4095
897 0 0
1126 0 0
1344 0 93
1536 0 449
1729 0 943
1933 0 1521
2165 0 2156
2415 0 2778
2706 0 3560
3911 0 0
4095 0 0
4095 0 0
4095 0 1144
4095 0 2574
4095 0 3956
4095 0 4095
4095 0 4095
4095 0 4095
4095 0 0
4095 0 0
4095 0 0
4095 0 1326
4095 0 2795
4095 0 4095
4095 0 4095
4095 0 4095
4095 0 4095
4095 905 0
4095 923 0
4095 941 0
4095 914 1142
4095 876 2648
4095 851 4022
4095 843 4095
4095 863 4095
4095 881 4095
4095 2153 0
4095 2180 0
4095 2206 0
4095 2189 978
4095 2156 2505
4095 2130 3906
4095 2125 4095
4095 2147 4095
4095 2165 4095
4095 3426 0
4095 3445 0
4095 3463 0
4095 3444 979
4095 3424 2489
4095 3429 3731
4095 3478 4095
4095 3562 4095
4095 3638 4095
4095 4082 2903
4095 4079 3442
4095 4083 3830
4095 4093 4062
4095 4095 4095
4095 4095 4095
4095 4095 4095
4095 4095 4095
4095 4095 4095
4095 4095 4095
4095 4095 4095
4095 4095 4095
4095 4095 4095
4095 4095 4095
4095 4095 4095
4095 4095 4095
4095 4095 4095
4095 4095 4095
4095 4095 4095
4095 4095 4095
4095 4095 4095
4095 4095 4095
4095 4095 4095
4095 4095 4095
4095 4095 4095
4095 4095 4095
4095 4095 4095
1834 0 0
2099 0 0
2376 0 82
2637 0 618
2901 0 1346
3212 0 2184
3592 0 3113
3996 0 4013
4095 0 4095
4095 0 0
4095 0 0
4095 0 0
4095 0 1213
4095 0 2685
4095 0 4034
4095 0 4095
4095 0 4095
4095 0 4095
4095 0 0
4095 0 0
4095 0 4
4095 0 1368
4095 0 2839
4095 0 4095
4095 0 4095
4095 0 4095
4095 0 4095
4095 975 0
4095 997 0
4095 1020 0
4095 998 1227
4095 963 2734
4095 938 4095
4095 934 4095
4095 957 4095
4095 976 4095
4095 2251 0
4095 2278 0
4095 2304 0
4095 2285 1075
4095 2249 2600
4095 2222 3998
4095 2214 4095
4095 2231 4095
4095 2245 4095
4095 3503 0
4095 3534 0
4095 3576 598
4095 3603 1925
4095 3635 3068
4095 3680 3844
4095 3748 4095
4095 3824 4095
4095 3888 4095
4095 4095 4057
4095 4095 4085
4095 4095 4095
4095 4095 4095
4095 4095 4095
4095 4095 4095
4095 4095 4095
4095 4095 4095
4095 4095 4095
4095 4095 4095
4095 4095 4095
4095 4095 4095
4095 4095 4095
4095 4095 4095
4095 4095 4095
4095 4095 4095
4095 4095 4095
4095 4095 4095
4095 4095 4095
4095 4095 4095
4095 4095 4095
4095 4095 4095
4095 4095 4095
4095 4095 4095
4095 4095 4095
4095 4095 4095
4095 4095 4095
