3DLUTS/GC_VENOM_LUTS/Additional_Formats/3DL/GC_Venom_V-LOG/GC_Venom_Nirnasha_V-Log.3dl
# Converted by Briz LUT Converter
0 256 512 768 1023
0 0 0
0 0 0
0 0 0
0 0 0
0 0 0
0 158 0
0 201 230
0 156 1611
0 73 3543
0 1 4095
0 2062 0
0 2065 0
0 1957 2049
0 1862 4095
0 1846 4095
0 4095 0
0 4095 0
0 4095 1587
0 4095 4095
0 4095 4095
728 4095 910
2018 4095 2604
3080 4095 3695
3943 4006 3999
3987 4049 4051
0 0 0
0 0 0
0 0 0
0 0 0
0 0 0
226 269 0
197 240 278
82 113 2770
0 0 4095
0 0 4095
0 2169 0
0 2176 0
0 2079 2168
0 1997 4095
0 2005 4095
0 4095 0
0 4095 0
0 4095 1849
0 4095 4095
0 4095 4095
3985 4037 3983
4031 4081 4034
4078 4095 4093
4095 4095 4095
4095 4095 4095
0 0 0
0 0 0
0 0 0
0 0 0
231 0 710
2720 0 0
2725 0 0
2607 0 2718
2497 0 4095
2476 0 4095
1938 2006 0
1970 2038 0
1907 1977 2074
1863 1936 4095
1903 1976 4095
1636 4095 0
1678 4095 0
1726 4095 1917
1938 4095 4095
2334 4095 4095
4095 4095 4095
4095 4095 4095
4095 4095 4095
4095 4095 4095
4095 4095 4095
289 0 0
996 0 63
1624 0 925
2206 0 2357
2874 0 4012
4095 0 0
4095 0 0
4095 0 2433
4095 0 4095
4095 0 4095
4095 1875 0
4095 1939 0
4095 1900 2003
4095 1870 4095
4095 1911 4095
4095 4095 0
4064 4068 1213
3970 3976 3061
3940 3946 3954
3972 3977 4055
4095 4095 4095
4095 4095 4095
4095 4095 4095
4095 4095 4095
4095 4095 4095
3880 0 0
4095 0 0
4095 0 1787
4095 0 4095
4095 0 4095
4095 0 0
4095 0 0
4095 0 2381
4095 0 4095
4095 0 4095
4095 2022 0
4095 2081 0
4095 2027 2129
4095 1977 4095
4095 1993 4095
4095 3980 3407
4019 4010 3979
4058 4047 4031
4095 4092 4090
4095 4095 4095
4095 4095 4095
4095 4095 4095
4095 4095 4095
4095 4095 4095
4095 4095 4095
