3DLUTS/GC_VENOM_LUTS/Additional_Formats/3DL/GC_Venom_V-LOG/GC_Venom_Sakata_V-Log.3dl
# Converted by Briz LUT Converter
0 128 256 384 512 640 768 896 1023
0 0 0
0 0 0
0 0 0
0 0 0
0 0 0
0 0 0
0 0 0
0 0 0
0 0 0
0 0 0
0 0 0
0 0 0
0 0 0
0 0 0
0 0 0
0 0 0
0 0 0
0 0 0
0 161 0
0 192 0
0 215 215
0 207 787
0 181 1579
0 143 2547
0 105 3563
0 75 4095
0 36 4095
0 1062 0
0 1066 0
0 1058 0
0 996 996
0 916 2440
0 835 3907
0 773 4095
0 736 4095
0 698 4095
0 1941 0
0 1960 0
0 1997 0
0 2001 490
0 1994 1994
0 1996 3538
0 2017 4095
0 2069 4095
0 2113 4095
0 3520 0
0 3558 0
0 3594 0
0 3590 559
0 3567 2032
0 3540 3540
0 3532 4095
0 3552 4095
0 3569 4095
0 4095 0
0 4095 0
0 4095 0
0 4095 583
0 4095 2035
0 4095 3528
0 4095 4095
0 4095 4095
0 4095 4095
0 4095 0
0 4095 0
0 4095 0
0 4095 622
0 4095 2084
0 4095 3557
0 4095 4095
0 4095 4095
0 4095 4095
1071 4095 1071
1724 4095 2000
2327 4095 2752
2860 4095 3424
3322 4095 3871
3759 4095 4095
4095 4095 4095
4095 4095 4095
4095 4095 4095
0 0 0
0 0 0
0 0 0
0 0 0
0 0 0
0 0 0
0 0 0
0 0 0
0 0 0
0 0 0
0 0 0
0 0 0
0 0 0
0 0 0
0 0 0
0 0 275
0 0 748
0 0 1357
0 250 0
0 257 0
0 258 258
0 221 1101
0 165 2211
0 98 3495
0 35 4095
0 0 4095
0 0 4095
0 1047 0
0 1025 0
0 1006 0
0 942 942
0 860 2385
0 780 3854
0 722 4095
0 700 4095
0 694 4095
0 2068 0
0 2129 0
0 2194 0
0 2217 704
0 2219 2219
0 2211 3754
0 2219 4095
0 2250 4095
0 2273 4095
0 3654 0
0 3689 0
0 3723 0
0 3714 680
0 3689 2153
0 3659 3659
0 3647 4095
0 3664 4095
0 3677 4095
0 4095 0
0 4095 0
0 4095 0
0 4095 660
0 4095 2101
0 4095 3581
0 4095 4095
0 4095 4095
0 4095 4095
0 4095 0
0 4095 0
0 4095 0
0 4095 986
0 4095 2395
0 4095 3653
229 4095 4095
705 4095 4095
1197 4095 4095
3276 4095 3162
3747 4095 3747
4095 4095 4095
4095 4095 4095
4095 4095 4095
4095 4095 4095
4095 4095 4095
4095 4095 4095
4095 4095 4095
0 0 0
0 0 0
0 0 0
0 0 0
0 0 0
0 0 0
0 0 0
0 0 0
0 0 0
0 0 0
0 0 0
35 5 35
74 0 207
96 0 545
103 0 1047
104 0 1681
105 0 2398
96 0 3239
267 267 0
256 256 0
241 241 241
182 182 1338
102 102 2720
14 14 4095
0 0 4095
0 0 4095
0 0 4095
0 996 0
0 974 0
0 957 0
0 898 897
0 835 2361
0 787 3863
0 767 4095
0 795 4095
0 826 4095
0 2286 0
0 2350 0
0 2405 0
0 2410 896
0 2390 2390
0 2366 3910
0 2361 4095
0 2386 4095
0 2406 4095
0 3774 0
0 3808 0
0 3839 0
0 3828 791
0 3798 2261
0 3766 3766
0 3752 4095
0 3765 4095
0 3774 4095
0 4095 0
0 4095 0
0 4095 0
0 4095 689
0 4095 2125
0 4095 3601
0 4095 4095
0 4095 4095
0 4095 4095
0 4095 0
285 4095 0
677 4095 677
1049 4095 1894
1434 4095 2986
1820 4095 3824
2209 4095 4095
2652 4095 4095
3063 4095 4095
4095 4095 4095
4095 4095 4095
4095 4095 4095
4095 4095 4095
4095 4095 4095
4095 4095 4095
4095 4095 4095
4095 4095 4095
4095 4095 4095
0 0 0
0 0 0
0 0 0
0 0 0
0 0 0
0 0 0
0 0 0
0 0 0
0 0 0
278 0 0
406 0 0
520 0 143
596 0 596
650 0 1259
690 0 2090
736 0 3001
792 0 3897
844 0 4095
1296 117 0
1332 87 0
1353 57 57
1307 0 1307
1229 0 2761
1143 0 4095
1078 0 4095
1043 0 4095
1002 0 4095
834 834 0
840 840 0
859 859 0
846 846 846
828 828 2351
819 819 3890
837 837 4095
889 889 4095
937 937 4095
855 2367 0
895 2407 0
933 2446 0
930 2441 930
909 2418 2418
883 2391 3933
877 2383 4095
897 2404 4095
916 2422 4095
749 3781 0
778 3811 0
807 3840 0
795 3826 795
766 3793 2257
733 3756 3756
717 3738 4095
724 3745 4095
722 3743 4095
643 4095 0
646 4095 0
647 4095 0
616 4095 616
572 4095 2051
548 4095 3533
594 4095 4095
722 4095 4095
896 4095 4095
1970 4095 296
2333 4095 1281
2692 4095 2157
2983 4095 2983
3263 4095 3613
3527 4095 4012
3806 4095 4095
4080 4095 4095
4095 4095 4095
4095 4095 4095
4095 4095 4095
4095 4095 4095
4095 4095 4095
4095 4095 4095
4095 4095 4095
4095 4095 4095
4095 4095 4095
4095 4095 4095
0 0 0
0 0 0
0 0 0
0 0 0
0 0 0
0 0 0
0 0 0
86 0 189
256 0 655
1211 0 0
1396 0 0
1570 0 92
1689 0 813
1781 0 1781
1875 0 2941
1973 0 4095
2101 0 4095
2210 0 4095
2717 0 0
2703 0 0
2683 0 0
2615 0 1085
2530 0 2530
2440 0 3993
2372 0 4095
2340 0 4095
2311 0 4095
2273 751 0
2321 799 0
2380 858 0
2398 877 877
2399 879 2399
2398 880 3945
2416 899 4095
2453 937 4095
2484 967 4095
2347 2347 0
2384 2384 0
2418 2418 0
2412 2412 906
2387 2387 2387
2359 2359 3899
2348 2348 4095
2366 2366 4095
2380 2380 4095
2199 3734 0
2225 3760 0
2248 3783 0
2231 3765 743
2192 3725 2192
2144 3676 3676
2112 3642 4095
2103 3634 4095
2092 3622 4095
2008 4095 0
2019 4095 0
2054 4095 0
2082 4095 667
2119 4095 2119
2184 4095 3487
2309 4095 4095
2476 4095 4095
2660 4095 4095
3530 4095 2359
3744 4095 3106
3941 4095 3671
4095 4095 4048
4095 4095 4095
4095 4095 4095
4095 4095 4095
4095 4095 4095
4095 4095 4095
4095 4095 4095
4095 4095 4095
4095 4095 4095
4095 4095 4095
4095 4095 4095
4095 4095 4095
4095 4095 4095
4095 4095 4095
4095 4095 4095
0 0 0
0 0 0
0 0 0
98 0 35
328 0 218
569 0 569
820 0 1064
1099 0 1672
1365 0 2406
2661 0 0
2897 0 0
3135 0 0
3297 0 872
3439 0 2132
3565 0 3565
3672 0 4095
3760 0 4095
3785 0 4095
4040 0 0
4019 0 0
3997 0 0
3928 0 849
3848 0 2296
3774 0 3774
3740 0 4095
3746 0 4095
3766 0 4095
3847 782 0
3915 849 0
3981 914 0
3993 929 929
3978 917 2432
3957 898 3957
3952 895 4095
3978 921 4095
3999 942 4095
3850 2310 0
3886 2346 0
3918 2378 0
3908 2368 866
3878 2340 2340
3846 2308 3846
3833 2296 4095
3848 2311 4095
3859 2322 4095
3663 3663 0
3678 3678 0
3687 3687 0
3653 3653 641
3601 3601 2072
3546 3546 3546
3507 3507 4095
3498 3498 4095
3489 3489 4095
3450 4095 0
3477 4095 0
3515 4095 4
3530 4095 1291
3542 4095 2541
3570 4095 3570
3624 4095 4095
3700 4095 4095
3784 4095 4095
4095 4095 4095
4095 4095 4095
4095 4095 4095
4095 4095 4095
4095 4095 4095
4095 4095 4095
4095 4095 4095
4095 4095 4095
4095 4095 4095
4095 4095 4095
4095 4095 4095
4095 4095 4095
4095 4095 4095
4095 4095 4095
4095 4095 4095
4095 4095 4095
4095 4095 4095
4095 4095 4095
318 0 0
712 0 0
1115 0 21
1439 0 337
1741 0 855
2020 0 1540
2314 0 2314
2648 0 3115
2964 0 4047
4095 0 0
4095 0 0
4095 0 0
4095 0 837
4095 0 2272
4095 0 3757
4095 0 4095
4095 0 4095
4095 0 4095
4095 0 0
4095 0 0
4095 0 0
4095 0 738
4095 0 2223
4095 0 3749
4095 0 4095
4095 0 4095
4095 0 4095
4095 880 0
4095 929 0
4095 970 0
4095 967 967
4095 947 2460
4095 923 3979
4095 917 4095
4095 939 4095
4095 958 4095
4095 2316 0
4095 2348 0
4095 2376 0
4095 2366 867
4095 2335 2335
4095 2301 3837
4095 2284 4095
4095 2296 4095
4095 2301 4095
4095 3599 0
4095 3603 0
4095 3604 0
4095 3566 561
4095 3515 1987
4095 3465 3465
4095 3435 4095
4095 3440 4095
4095 3450 4095
4095 4095 0
4095 4095 432
4095 4095 1396
4095 4095 2429
4095 4095 3246
4095 4095 3832
4095 4095 4095
4095 4095 4095
4095 4095 4095
4095 4095 4095
4095 4095 4095
4095 4095 4095
4095 4095 4095
4095 4095 4095
4095 4095 4095
4095 4095 4095
4095 4095 4095
4095 4095 4095
4095 4095 4095
4095 4095 4095
4095 4095 4095
4095 4095 4095
4095 4095 4095
4095 4095 4095
4095 4095 4095
4095 4095 4095
4095 4095 4095
1961 0 0
2408 0 0
2826 0 0
3152 0 556
3458 0 1392
3752 0 2402
4090 0 3464
4095 0 4095
4095 0 4095
4095 0 0
4095 0 0
4095 0 0
4095 0 758
4095 0 2200
4095 0 3666
4095 0 4095
4095 0 4095
4095 0 4095
4095 0 0
4095 0 0
4095 0 0
4095 0 848
4095 0 2370
4095 0 3916
4095 0 4095
4095 0 4095
4095 0 4095
4095 993 0
4095 1032 0
4095 1069 0
4095 1063 1063
4095 1038 2552
4095 1012 4069
4095 1003 4095
4095 1022 4095
4095 1037 4095
4095 2390 0
4095 2417 0
4095 2443 0
4095 2428 928
4095 2393 2393
4095 2352 3889
4095 2325 4095
4095 2321 4095
4095 2311 4095
4095 3588 0
4095 3595 0
4095 3603 0
4095 3574 593
4095 3537 2060
4095 3503 3503
4095 3493 4095
4095 3522 4095
4095 3551 4095
4095 4095 1503
4095 4095 2359
4095 4095 3076
4095 4095 3642
4095 4095 4004
4095 4095 4095
4095 4095 4095
4095 4095 4095
4095 4095 4095
4095 4095 4095
4095 4095 4095
4095 4095 4095
4095 4095 4095
4095 4095 4095
4095 4095 4095
4095 4095 4095
4095 4095 4095
4095 4095 4095
4095 4095 4095
4095 4095 4095
4095 4095 4095
4095 4095 4095
4095 4095 4095
4095 4095 4095
4095 4095 4095
4095 4095 4095
4095 4095 4095
3915 0 0
4095 0 0
4095 0 0
4095 0 675
4095 0 1814
4095 0 3138
4095 0 4095
4095 0 4095
4095 0 4095
4095 0 0
4095 0 0
4095 0 0
4095 0 654
4095 0 2096
4095 0 3567
4095 0 4095
4095 0 4095
4095 0 4095
4095 0 0
4095 0 0
4095 0 0
4095 0 1026
4095 0 2543
4095 0 4076
4095 0 4095
4095 0 4095
4095 0 4095
4095 1078 0
4095 1114 0
4095 1148 0
4095 1141 1141
4095 1113 2628
4095 1083 4095
4095 1072 4095
4095 1089 4095
4095 1100 4095
4095 2444 0
4095 2466 0
4095 2483 0
4095 2453 953
4095 2405 2405
4095 2350 3887
4095 2312 4095
4095 2302 4095
4095 2289 4095
4095 3590 0
4095 3610 0
4095 3627 0
4095 3617 1069
4095 3603 2429
4095 3598 3598
4095 3623 4095
4095 3680 4095
4095 3736 4095
4095 4095 3581
4095 4095 4085
4095 4095 4095
4095 4095 4095
4095 4095 4095
4095 4095 4095
4095 4095 4095
4095 4095 4095
4095 4095 4095
4095 4095 4095
4095 4095 4095
4095 4095 4095
4095 4095 4095
4095 4095 4095
4095 4095 4095
4095 4095 4095
4095 4095 4095
4095 4095 4095
4095 4095 4095
4095 4095 4095
4095 4095 4095
4095 4095 4095
4095 4095 4095
4095 4095 4095
4095 4095 4095
4095 4095 4095
4095 4095 4095
