3DLUTS/GC_VENOM_LUTS/Additional_Formats/3DL/GC_Venom_V-LOG/GC_Venom_Jomei_V-Log.3dl
# Converted by Briz LUT Converter
0 64 128 192 256 320 384 448 512 576 640 704 768 832 896 960 1023
7 7 7
11 11 11
15 15 15
20 19 19
23 23 23
27 27 27
31 30 30
34 34 34
37 37 37
41 40 40
44 44 44
48 47 47
51 51 51
55 55 55
59 59 59
63 63 63
67 67 67
55 54 54
59 58 58
63 63 63
67 67 67
71 71 71
73 73 73
76 76 76
79 79 79
82 83 83
86 86 86
89 89 89
92 92 92
95 96 96
99 99 99
103 103 103
106 107 107
110 110 110
98 99 99
102 103 103
106 106 106
110 110 110
114 114 114
117 117 117
120 121 121
123 124 124
126 127 127
130 131 131
133 134 134
136 137 137
140 141 141
144 145 145
148 149 149
152 153 153
156 157 157
143 144 144
147 148 148
151 153 153
155 157 157
160 161 161
160 165 169
153 170 195
144 174 242
132 175 320
117 173 437
98 167 605
71 154 865
39 136 1191
3 117 1552
0 93 1960
0 66 2405
0 38 2868
81 242 81
65 250 107
48 257 144
30 263 194
10 268 268
0 264 429
0 251 695
0 227 1109
0 197 1603
0 162 2160
0 125 2747
0 90 3323
0 71 3720
0 65 3968
0 57 4095
0 49 4095
0 39 4095
0 448 0
0 457 0
0 466 0
0 476 34
0 483 160
0 474 474
0 443 1065
0 402 1806
0 358 2619
0 317 3406
0 301 3891
0 291 4095
0 289 4095
0 294 4095
0 297 4095
0 300 4095
0 303 4095
0 858 0
0 876 0
0 895 0
0 912 0
0 926 0
0 920 181
0 885 885
0 837 1756
0 789 2647
0 750 3424
0 739 3854
0 732 4095
0 738 4095
0 753 4095
0 765 4095
0 778 4095
0 791 4095
0 1363 0
0 1384 0
0 1406 0
0 1427 0
0 1448 0
0 1455 0
0 1437 533
0 1399 1399
0 1359 2309
0 1324 3152
0 1316 3677
0 1318 4070
0 1330 4095
0 1349 4095
0 1366 4095
0 1384 4095
0 1403 4095
0 1957 0
0 1984 0
0 2010 0
0 2037 0
0 2062 0
0 2075 0
0 2069 242
0 2037 1087
0 1999 1999
0 1967 2873
0 1952 3500
0 1956 3895
0 1970 4095
0 1992 4095
0 2013 4095
0 2033 4095
0 2053 4095
0 2583 0
0 2612 0
0 2640 0
0 2669 0
0 2697 0
0 2712 0
0 2716 39
0 2691 825
0 2658 1734
0 2624 2624
0 2604 3345
0 2609 3752
0 2626 4074
0 2650 4095
0 2671 4095
0 2692 4095
0 2714 4095
0 3196 0
0 3225 0
0 3255 0
0 3285 0
0 3314 0
0 3333 0
0 3345 0
0 3330 667
0 3299 1559
0 3268 2455
0 3245 3245
0 3250 3682
0 3267 3996
0 3291 4095
0 3312 4095
0 3334 4095
0 3356 4095
0 3746 0
0 3776 0
0 3805 0
0 3834 0
0 3864 0
0 3884 0
0 3898 99
0 3890 718
0 3861 1591
0 3831 2487
0 3806 3305
0 3807 3807
0 3825 4095
0 3847 4095
0 3867 4095
0 3886 4095
0 3905 4095
0 4095 0
0 4095 0
0 4095 0
0 4095 0
0 4095 0
0 4095 0
0 4095 313
0 4095 913
0 4095 1782
0 4095 2679
0 4095 3501
0 4095 4018
0 4095 4095
0 4095 4095
0 4095 4095
0 4095 4095
0 4095 4095
0 4095 0
0 4095 0
0 4095 0
0 4095 0
0 4095 0
0 4095 207
0 4095 539
0 4095 1156
0 4095 2024
0 4095 2916
0 4095 3730
0 4095 4095
0 4095 4095
0 4095 4095
0 4095 4095
0 4095 4095
0 4095 4095
0 4095 0
0 4095 0
0 4095 0
0 4095 0
0 4095 103
0 4095 377
0 4095 702
0 4095 1319
0 4095 2192
0 4095 3079
0 4095 3867
0 4095 4095
0 4095 4095
0 4095 4095
0 4095 4095
0 4095 4095
0 4095 4095
0 4095 0
0 4095 0
0 4095 125
0 4095 352
76 4095 581
186 4095 962
275 4095 1649
363 4095 2419
447 4095 3129
540 4095 3732
663 4095 4095
830 4095 4095
1019 4095 4095
1248 4095 4095
1536 4095 4095
1855 4095 4095
2194 4095 4095
1178 4095 1237
1452 4095 1770
1775 4095 2255
2105 4095 2683
2445 4095 3062
2757 4095 3426
3049 4095 3714
3307 4095 3889
3547 4095 3984
3753 4095 4048
3898 4095 4095
4011 4095 4095
4095 4095 4095
4095 4095 4095
4095 4095 4095
4095 4095 4095
4095 4095 4095
21 21 21
25 25 25
29 29 29
33 33 33
37 37 37
41 41 41
44 44 44
48 48 48
51 51 51
55 54 54
58 58 58
62 61 61
65 65 65
69 69 69
72 72 72
76 76 76
79 79 79
68 68 68
72 72 72
75 75 75
79 79 79
83 83 83
86 86 86
89 89 89
92 93 93
95 95 95
98 99 99
102 102 102
105 105 105
108 109 109
112 113 113
116 116 116
119 120 120
123 124 124
111 112 112
115 116 116
119 120 120
123 124 124
127 127 127
130 131 131
133 134 134
136 137 137
140 141 141
143 144 144
146 148 148
150 151 151
154 155 155
158 160 160
161 163 177
155 161 274
145 156 424
157 159 159
162 163 163
160 169 165
157 176 176
152 181 197
145 185 243
136 185 321
124 182 437
108 175 609
84 160 879
54 138 1229
20 113 1632
0 87 2047
0 61 2471
0 33 2926
0 4 3382
0 0 3742
79 269 23
66 274 67
53 279 119
39 283 186
24 284 284
2 275 501
0 254 887
0 221 1408
0 183 2005
0 142 2649
0 102 3293
0 75 3779
0 66 4061
0 59 4095
0 50 4095
0 43 4095
0 37 4095
0 483 0
0 493 0
0 502 0
0 511 5
0 520 148
0 512 512
0 479 1198
0 434 2019
0 387 2879
0 349 3624
0 339 4045
0 330 4095
0 329 4095
0 334 4095
0 339 4095
0 344 4095
0 352 4095
0 920 0
0 935 0
0 949 0
0 963 0
0 976 0
0 971 225
0 938 938
0 893 1813
0 848 2705
0 814 3482
0 807 3913
0 805 4095
0 813 4095
0 829 4095
0 843 4095
0 859 4095
0 874 4095
0 1437 0
0 1459 0
0 1483 0
0 1508 0
0 1531 0
0 1538 0
0 1521 615
0 1486 1486
0 1447 2397
0 1413 3237
0 1405 3752
0 1408 4095
0 1420 4095
0 1441 4095
0 1459 4095
0 1478 4095
0 1499 4095
0 2047 0
0 2074 0
0 2101 0
0 2129 0
0 2155 0
0 2168 0
0 2165 335
0 2133 1182
0 2096 2096
0 2062 2965
0 2048 3583
0 2053 3977
0 2068 4095
0 2091 4095
0 2112 4095
0 2134 4095
0 2154 4095
0 2679 0
0 2708 0
0 2738 0
0 2767 0
0 2797 0
0 2814 0
0 2817 131
0 2791 927
0 2757 1834
0 2724 2724
0 2705 3434
0 2711 3838
0 2728 4095
0 2752 4095
0 2774 4095
0 2796 4095
0 2817 4095
0 3294 0
0 3324 0
0 3355 0
0 3385 0
0 3414 0
0 3434 0
0 3444 64
0 3427 776
0 3397 1668
0 3365 2563
0 3343 3343
0 3350 3773
0 3368 4089
0 3391 4095
0 3412 4095
0 3433 4095
0 3453 4095
0 3843 0
0 3874 0
0 3903 0
0 3932 0
0 3960 0
0 3979 0
0 3993 196
0 3983 827
0 3953 1700
0 3923 2597
0 3899 3410
0 3900 3900
0 3917 4095
0 3938 4095
0 3957 4095
0 3975 4095
0 3993 4095
0 4095 0
0 4095 0
0 4095 0
0 4095 0
0 4095 0
0 4095 70
0 4095 401
0 4095 1012
0 4095 1883
0 4095 2780
0 4095 3596
0 4095 4095
0 4095 4095
0 4095 4095
0 4095 4095
0 4095 4095
0 4095 4095
0 4095 0
0 4095 0
0 4095 0
0 4095 0
0 4095 4
0 4095 284
0 4095 619
0 4095 1245
0 4095 2114
0 4095 3004
0 4095 3810
0 4095 4095
0 4095 4095
0 4095 4095
0 4095 4095
0 4095 4095
0 4095 4095
0 4095 0
0 4095 0
0 4095 0
0 4095 0
0 4095 165
0 4095 452
0 4095 809
0 4095 1496
0 4095 2369
0 4095 3220
0 4095 3949
0 4095 4095
9 4095 4095
120 4095 4095
238 4095 4095
352 4095 4095
471 4095 4095
115 4095 0
228 4095 227
352 4095 468
486 4095 706
613 4095 1044
711 4095 1670
833 4095 2358
976 4095 3001
1141 4095 3544
1339 4095 3960
1579 4095 4095
1845 4095 4095
2153 4095 4095
2490 4095 4095
2798 4095 4095
3093 4095 4095
3373 4095 4095
2379 4095 2348
2706 4095 2786
3037 4095 3178
3337 4095 3497
3598 4095 3744
3786 4095 3896
3918 4095 4005
4021 4095 4074
4095 4095 4095
4095 4095 4095
4095 4095 4095
4095 4095 4095
4095 4095 4095
4095 4095 4095
4095 4095 4095
4095 4095 4095
4095 4095 4095
35 35 35
39 39 39
43 43 43
47 47 47
51 51 51
55 55 55
58 58 58
62 62 62
65 65 65
69 69 69
72 72 72
74 74 74
77 78 78
81 81 81
85 85 85
88 89 89
92 92 92
81 81 81
84 85 85
88 88 88
92 92 92
95 96 96
99 99 99
102 102 102
105 105 105
108 109 109
112 112 112
115 115 115
118 119 119
122 122 122
125 126 126
129 130 130
132 133 133
136 137 137
124 125 125
128 129 129
132 133 133
136 137 137
140 141 141
143 144 144
147 148 148
150 152 152
154 155 155
157 159 159
161 163 163
162 163 211
159 161 306
153 154 448
142 143 647
123 124 953
98 99 1327
167 179 146
167 185 152
166 190 168
164 194 194
161 197 237
154 195 329
143 189 471
127 177 690
101 156 1027
71 128 1434
35 97 1899
0 64 2401
0 33 2870
0 5 3310
0 0 3689
0 0 3947
0 0 4095
108 288 0
99 292 22
91 295 92
82 298 175
72 297 297
52 284 574
17 254 1069
0 215 1690
0 170 2393
0 124 3107
0 89 3702
0 73 4063
0 65 4095
0 61 4095
0 56 4095
0 52 4095
0 49 4095
0 519 0
0 530 0
0 542 0
0 556 0
0 567 150
0 555 555
0 518 1306
0 471 2176
0 424 3050
0 391 3734
0 382 4095
0 373 4095
0 375 4095
0 384 4095
0 391 4095
0 400 4095
0 411 4095
0 971 0
0 986 0
0 1001 0
0 1017 0
0 1033 0
0 1033 280
0 1004 1004
0 963 1883
0 920 2778
0 888 3549
0 885 3980
0 884 4095
0 894 4095
0 912 4095
0 930 4095
0 946 4095
0 964 4095
0 1517 0
0 1542 0
0 1567 0
0 1592 0
0 1618 0
0 1627 67
0 1610 703
0 1574 1574
0 1536 2484
0 1503 3322
0 1497 3828
0 1500 4095
0 1513 4095
0 1537 4095
0 1556 4095
0 1575 4095
0 1594 4095
0 2139 0
0 2167 0
0 2196 0
0 2225 0
0 2252 0
0 2265 0
0 2260 425
0 2228 1278
0 2192 2192
0 2159 3060
0 2146 3667
0 2153 4062
0 2170 4095
0 2193 4095
0 2214 4095
0 2234 4095
0 2255 4095
0 2778 0
0 2809 0
0 2839 0
0 2869 0
0 2898 0
0 2915 0
0 2917 224
0 2891 1027
0 2856 1936
0 2824 2824
0 2808 3525
0 2814 3928
0 2831 4095
0 2855 4095
0 2876 4095
0 2897 4095
0 2918 4095
0 3394 0
0 3424 0
0 3454 0
0 3484 0
0 3513 0
0 3532 0
0 3542 161
0 3525 884
0 3495 1778
0 3464 2672
0 3442 3442
0 3449 3864
0 3466 4095
0 3488 4095
0 3508 4095
0 3528 4095
0 3548 4095
0 3940 0
0 3969 0
0 3997 0
0 4026 0
0 4054 0
0 4072 0
0 4086 293
0 4075 935
0 4045 1811
0 4013 2704
0 3990 3511
0 3990 3990
0 4006 4095
0 4026 4095
0 4044 4095
0 4062 4095
0 4080 4095
0 4095 0
0 4095 0
0 4095 0
0 4095 0
0 4095 0
0 4095 154
0 4095 488
0 4095 1110
0 4095 1981
0 4095 2874
0 4095 3687
0 4095 4095
0 4095 4095
0 4095 4095
0 4095 4095
0 4095 4095
0 4095 4095
0 4095 0
0 4095 0
0 4095 0
0 4095 0
0 4095 80
0 4095 358
0 4095 693
0 4095 1325
0 4095 2193
0 4095 3079
0 4095 3880
0 4095 4095
0 4095 4095
0 4095 4095
0 4095 4095
0 4095 4095
0 4095 4095
0 4095 0
0 4095 0
0 4095 0
0 4095 92
1 4095 304
59 4095 596
113 4095 1032
149 4095 1812
187 4095 2651
238 4095 3427
306 4095 4061
402 4095 4095
507 4095 4095
630 4095 4095
789 4095 4095
961 4095 4095
1147 4095 4095
623 4095 412
765 4095 655
933 4095 936
1110 4095 1364
1319 4095 1895
1554 4095 2478
1791 4095 3003
2026 4095 3437
2273 4095 3784
2540 4095 4002
2808 4095 4095
3058 4095 4095
3314 4095 4095
3570 4095 4095
3776 4095 4095
3917 4095 4095
4029 4095 4095
3512 4095 3397
3736 4095 3696
3890 4095 3888
4010 4095 4018
4095 4095 4095
4095 4095 4095
4095 4095 4095
4095 4095 4095
4095 4095 4095
4095 4095 4095
4095 4095 4095
4095 4095 4095
4095 4095 4095
4095 4095 4095
4095 4095 4095
4095 4095 4095
4095 4095 4095
49 49 49
53 53 53
57 57 57
61 61 61
65 65 65
69 69 69
72 72 72
74 74 74
77 77 77
81 81 81
84 84 84
87 87 87
91 91 91
94 95 95
98 98 98
101 102 102
105 105 105
94 94 94
97 97 97
101 101 101
105 105 105
108 109 109
112 112 112
115 115 115
118 119 119
122 122 122
125 125 125
128 129 129
131 132 132
135 136 136
139 140 140
142 143 143
146 147 147
