3DLUTS/GC_VENOM_LUTS/Additional_Formats/3DL/GC_Venom_V-LOG/GC_Venom_Ayla_V-Log.3dl
# Converted by Briz LUT Converter
0 64 128 192 256 320 384 448 512 576 640 704 768 832 896 960 1023
0 0 0
0 0 0
0 0 0
0 0 0
0 0 0
0 0 0
0 0 0
0 0 0
0 0 0
0 0 0
0 0 0
0 0 0
0 0 0
0 0 0
0 0 0
0 0 0
0 0 0
0 0 0
0 0 0
0 0 0
0 0 0
0 0 0
0 0 0
0 0 0
0 0 0
0 0 0
0 0 0
0 0 0
0 0 0
0 0 0
0 0 0
0 0 0
0 0 0
0 0 0
0 0 0
0 0 0
0 0 0
0 0 0
0 0 0
0 0 0
0 0 0
0 0 0
0 0 0
0 0 0
0 0 0
0 0 0
0 0 0
0 0 0
0 0 0
0 0 0
0 0 0
0 0 0
0 0 0
0 0 0
0 0 0
0 0 0
0 0 0
0 0 0
0 0 0
0 0 0
0 0 0
0 0 0
0 6 56
0 11 150
0 16 263
0 19 385
0 20 522
0 20 678
0 31 0
0 45 0
0 58 3
0 71 35
0 81 81
0 88 162
0 92 264
0 95 387
0 96 528
0 96 691
0 95 869
0 93 1066
0 92 1254
0 92 1448
0 91 1670
0 89 1906
0 86 2162
0 243 0
0 255 0
0 267 0
0 279 0
0 289 84
0 291 292
0 293 533
0 293 803
0 292 1108
0 291 1444
0 289 1806
0 286 2188
0 288 2548
0 293 2897
0 296 3284
0 298 3697
0 299 4095
0 601 0
0 628 0
0 654 0
0 680 0
0 704 0
0 712 256
0 717 719
0 720 1223
0 722 1770
0 722 2353
0 722 2960
0 721 3577
0 729 4095
0 743 4095
0 754 4095
0 762 4095
0 770 4095
0 1293 0
0 1336 0
0 1373 0
0 1406 0
0 1430 0
0 1428 0
0 1421 687
0 1411 1413
0 1397 2142
0 1381 2859
0 1368 3545
0 1356 4095
0 1359 4095
0 1371 4095
0 1384 4095
0 1399 4095
0 1415 4095
0 2069 0
0 2081 0
0 2096 0
0 2112 0
0 2125 0
0 2112 0
0 2100 577
0 2092 1339
0 2085 2086
0 2082 2815
0 2080 3515
0 2082 4095
0 2098 4095
0 2123 4095
0 2147 4095
0 2171 4095
0 2196 4095
0 2793 0
0 2820 0
0 2846 0
0 2873 0
0 2897 0
0 2897 0
0 2887 609
0 2884 1389
0 2884 2149
0 2885 2886
0 2888 3594
0 2896 4095
0 2917 4095
0 2946 4095
0 2973 4095
0 3002 4095
0 3030 4095
0 3600 0
0 3631 0
0 3663 0
0 3694 0
0 3722 0
0 3727 0
0 3721 709
0 3719 1504
0 3718 2271
0 3720 3013
0 3724 3725
0 3731 4095
0 3753 4095
0 3782 4095
0 3808 4095
0 3836 4095
0 3863 4095
0 4095 0
0 4095 0
0 4095 0
0 4095 0
0 4095 0
0 4095 0
0 4095 833
0 4095 1640
0 4095 2410
0 4095 3152
0 4095 3863
0 4095 4095
0 4095 4095
0 4095 4095
0 4095 4095
0 4095 4095
0 4095 4095
0 4095 0
0 4095 0
0 4095 0
0 4095 0
0 4095 0
0 4095 172
0 4095 1039
0 4095 1845
0 4095 2619
0 4095 3352
0 4095 4023
0 4095 4095
0 4095 4095
0 4095 4095
0 4095 4095
0 4095 4095
171 4095 4095
0 4095 0
0 4095 0
0 4095 0
0 4095 511
54 4095 1057
350 4095 1699
650 4095 2375
944 4095 2920
1215 4095 3361
1470 4095 3719
1731 4095 4003
1992 4095 4095
2257 4095 4095
2508 4095 4095
2747 4095 4095
2984 4095 4095
3215 4095 4095
2057 4095 2043
2313 4095 2406
2554 4095 2726
2791 4095 3014
3025 4095 3277
3241 4095 3533
3440 4095 3751
3631 4095 3906
3815 4095 4012
3971 4095 4072
4058 4095 4095
4069 4095 4095
4079 4095 4095
4089 4095 4095
4095 4095 4095
4095 4095 4095
4095 4095 4095
4068 4095 4068
4079 4095 4081
4089 4095 4093
4095 4095 4095
4095 4095 4095
4095 4095 4095
4095 4095 4095
4095 4095 4095
4095 4095 4095
4095 4095 4095
4095 4095 4095
4095 4095 4095
4095 4095 4095
4095 4095 4095
4095 4095 4095
4095 4095 4095
4095 4095 4095
4095 4095 4095
4095 4095 4095
4095 4095 4095
4095 4095 4095
4095 4095 4095
4095 4095 4095
4095 4095 4095
4095 4095 4095
4095 4095 4095
4095 4095 4095
4095 4095 4095
4095 4095 4095
4095 4095 4095
4095 4095 4095
4095 4095 4095
4095 4095 4095
4095 4095 4095
0 0 0
0 0 0
0 0 0
0 0 0
0 0 0
0 0 0
0 0 0
0 0 0
0 0 0
0 0 0
0 0 0
0 0 0
0 0 0
0 0 0
0 0 0
0 0 0
0 0 0
0 0 0
0 0 0
0 0 0
0 0 0
0 0 0
0 0 0
0 0 0
0 0 0
0 0 0
0 0 0
0 0 0
0 0 0
0 0 0
0 0 0
0 0 0
0 0 0
0 0 0
0 0 0
0 0 0
0 0 0
0 0 0
0 0 0
0 0 0
0 0 0
0 0 0
0 0 0
0 0 0
0 0 0
0 0 0
0 0 0
0 0 0
0 0 0
0 0 0
0 0 0
0 0 0
0 0 0
0 0 0
0 0 0
0 0 0
0 0 0
0 0 0
1 6 26
0 12 80
0 17 157
0 20 246
0 21 359
0 22 482
0 22 616
0 21 770
0 19 930
0 16 1111
0 75 0
0 87 0
0 97 0
0 106 41
0 112 112
0 115 226
0 115 365
0 114 528
0 111 709
0 107 913
0 102 1135
0 96 1377
0 93 1613
0 90 1838
0 86 2098
0 82 2392
0 76 2717
0 285 0
0 298 0
0 309 0
0 319 0
0 328 72
0 330 330
0 329 628
0 327 962
0 323 1332
0 318 1737
0 313 2173
0 306 2629
0 305 3046
0 308 3446
0 308 3886
0 307 4095
0 305 4095
0 689 0
0 717 0
0 744 0
0 769 0
0 790 0
0 793 255
0 795 797
0 793 1381
0 790 2004
0 785 2658
0 780 3326
0 773 3989
0 776 4095
0 786 4095
0 793 4095
0 800 4095
0 805 4095
0 1418 0
0 1447 0
0 1474 0
0 1497 0
0 1511 0
0 1494 0
0 1475 717
0 1457 1459
0 1439 2189
0 1423 2901
0 1413 3589
0 1407 4095
0 1416 4095
0 1433 4095
0 1451 4095
0 1471 4095
0 1492 4095
0 2122 0
0 2140 0
0 2159 0
0 2179 0
0 2198 0
0 2189 0
0 2181 660
0 2175 1423
0 2170 2172
0 2167 2900
0 2167 3601
0 2171 4095
0 2189 4095
0 2216 4095
0 2241 4095
0 2269 4095
0 2295 4095
0 2883 0
0 2912 0
0 2940 0
0 2968 0
0 2995 0
0 2997 0
0 2989 714
0 2987 1493
0 2986 2252
0 2988 2989
0 2992 3697
0 2999 4095
0 3021 4095
0 3052 4095
0 3081 4095
0 3109 4095
0 3137 4095
0 3705 0
0 3737 0
0 3770 0
0 3802 0
0 3830 0
0 3835 0
0 3827 820
0 3825 1612
0 3824 2377
0 3825 3118
0 3828 3829
0 3836 4095
0 3857 4095
0 3885 4095
0 3910 4095
0 3935 4095
0 3960 4095
0 4095 0
0 4095 0
0 4095 0
0 4095 0
0 4095 0
0 4095 59
0 4095 934
0 4095 1736
0 4095 2503
0 4095 3244
0 4095 3953
0 4095 4095
0 4095 4095
0 4095 4095
0 4095 4095
0 4095 4095
0 4095 4095
0 4095 0
0 4095 0
0 4095 0
0 4095 0
0 4095 0
0 4095 305
0 4095 1215
0 4095 2039
0 4095 2790
0 4095 3459
0 4095 4028
0 4095 4095
168 4095 4095
485 4095 4095
811 4095 4095
1128 4095 4095
1413 4095 4095
55 4095 0
362 4095 327
671 4095 865
988 4095 1371
1282 4095 1834
1527 4095 2335
1762 4095 2842
1997 4095 3245
2226 4095 3569
2445 4095 3823
2656 4095 4015
2872 4095 4095
3091 4095 4095
3307 4095 4095
3509 4095 4095
3703 4095 4095
3877 4095 4095
2901 4095 2816
3118 4095 3110
3327 4095 3369
3528 4095 3594
3716 4095 3786
3882 4095 3945
4022 4095 4054
4065 4095 4087
4074 4095 4095
4084 4095 4095
4093 4095 4095
4095 4095 4095
4095 4095 4095
4095 4095 4095
4095 4095 4095
4095 4095 4095
4095 4095 4095
4095 4095 4095
4095 4095 4095
4095 4095 4095
4095 4095 4095
4095 4095 4095
4095 4095 4095
4095 4095 4095
4095 4095 4095
4095 4095 4095
4095 4095 4095
4095 4095 4095
4095 4095 4095
4095 4095 4095
4095 4095 4095
4095 4095 4095
4095 4095 4095
4095 4095 4095
4095 4095 4095
4095 4095 4095
4095 4095 4095
4095 4095 4095
4095 4095 4095
4095 4095 4095
4095 4095 4095
4095 4095 4095
4095 4095 4095
4095 4095 4095
4095 4095 4095
4095 4095 4095
4095 4095 4095
4095 4095 4095
4095 4095 4095
4095 4095 4095
4095 4095 4095
0 0 0
0 0 0
0 0 0
0 0 0
0 0 0
0 0 0
0 0 0
0 0 0
0 0 0
0 0 0
0 0 0
0 0 0
0 0 0
0 0 0
0 0 0
0 0 0
0 0 0
0 0 0
0 0 0
0 0 0
0 0 0
0 0 0
0 0 0
0 0 0
0 0 0
0 0 0
0 0 0
0 0 0
0 0 0
0 0 0
0 0 0
0 0 0
0 0 0
0 0 0
0 0 0
0 0 0
0 0 0
0 0 0
0 0 0
0 0 0
0 0 0
0 0 0
0 0 0
0 0 0
0 0 0
0 0 0
0 0 0
0 0 0
0 0 0
1 1 1
3 2 98
0 0 0
0 0 0
0 0 0
3 4 4
6 13 21
6 20 57
6 25 110
4 28 184
0 29 278
0 28 390
0 26 522
0 23 669
0 20 817
0 17 971
0 13 1148
0 7 1332
0 0 1540
0 110 0
0 118 0
0 124 0
0 130 37
0 134 134
0 133 284
0 129 462
0 124 667
0 118 898
0 110 1149
0 101 1423
0 92 1718
0 85 2006
0 80 2293
0 73 2608
0 65 2947
0 55 3321
0 324 0
0 336 0
0 349 0
0 360 0
0 368 51
0 367 368
0 363 731
0 358 1135
0 349 1577
0 340 2057
0 330 2566
0 319 3093
0 314 3563
0 314 4010
0 312 4095
0 310 4095
0 306 4095
0 778 0
0 804 0
0 830 0
0 855 0
0 873 0
0 871 249
0 866 868
0 858 1524
0 847 2208
0 834 2906
0 822 3605
0 811 4095
0 812 4095
0 819 4095
0 826 4095
0 834 4095
0 842 4095
0 1507 0
0 1526 0
0 1540 0
0 1550 0
0 1556 0
0 1535 4
0 1518 760
0 1503 1505
0 1491 2240
0 1481 2958
0 1474 3649
0 1473 4095
0 1486 4095
0 1511 4095
0 1531 4095
0 1553 4095
0 1576 4095
0 2189 0
0 2213 0
0 2237 0
0 2261 0
0 2282 0
0 2275 0
0 2268 748
0 2263 1512
0 2260 2262
0 2259 2992
0 2261 3694
0 2267 4095
0 2288 4095
0 2316 4095
0 2343 4095
0 2370 4095
0 2397 4095
0 2980 0
0 3011 0
0 3041 0
0 3070 0
0 3096 0
0 3098 0
0 3092 819
0 3090 1597
0 3090 2356
0 3093 3094
0 3099 3804
0 3107 4095
0 3129 4095
0 3159 4095
0 3187 4095
0 3214 4095
0 3242 4095
0 3812 0
0 3844 0
0 3876 0
0 3907 0
0 3935 0
0 3939 52
0 3930 927
0 3928 1717
0 3928 2483
0 3929 3223
0 3931 3931
0 3936 4095
0 3955 4095
0 3981 4095
0 4005 4095
0 4028 4095
0 4051 4095
0 4095 0
0 4095 0
0 4095 0
0 4095 0
0 4095 0
0 4095 154
0 4095 1029
0 4095 1827
0 4095 2592
0 4095 3329
0 4095 4035
0 4095 4095
0 4095 4095
0 4095 4095
0 4095 4095
0 4095 4095
0 4095 4095
0 4095 0
0 4095 0
0 4095 0
0 4095 0
0 4095 0
0 4095 770
0 4095 1658
35 4095 2409
298 4095 3043
555 4095 3576
823 4095 4014
1100 4095 4095
1380 4095 4095
1646 4095 4095
1895 4095 4095
2140 4095 4095
2380 4095 4095
1234 4095 802
1512 4095 1303
1759 4095 1733
2005 4095 2130
2242 4095 2495
2453 4095 2884
2648 4095 3254
2838 4095 3539
3027 4095 3762
3216 4095 3927
3403 4095 4041
3582 4095 4095
3761 4095 4095
3920 4095 4095
4057 4095 4095
4070 4095 4095
4080 4095 4095
3584 4095 3512
3759 4095 3733
3918 4095 3916
4053 4095 4055
4070 4095 4075
4080 4095 4089
4090 4095 4095
4095 4095 4095
4095 4095 4095
4095 4095 4095
4095 4095 4095
4095 4095 4095
4095 4095 4095
4095 4095 4095
4095 4095 4095
4095 4095 4095
4095 4095 4095
4095 4095 4095
4095 4095 4095
4095 4095 4095
4095 4095 4095
4095 4095 4095
4095 4095 4095
4095 4095 4095
4095 4095 4095
4095 4095 4095
4095 4095 4095
4095 4095 4095
4095 4095 4095
4095 4095 4095
4095 4095 4095
4095 4095 4095
4095 4095 4095
4095 4095 4095
4095 4095 4095
4095 4095 4095
4095 4095 4095
4095 4095 4095
4095 4095 4095
4095 4095 4095
4095 4095 4095
4095 4095 4095
4095 4095 4095
4095 4095 4095
4095 4095 4095
4095 4095 4095
4095 4095 4095
4095 4095 4095
4095 4095 4095
4095 4095 4095
4095 4095 4095
0 0 0
0 0 0
0 0 0
0 0 0
0 0 0
0 0 0
0 0 0
0 0 0
0 0 0
0 0 0
0 0 0
0 0 0
0 0 0
0 0 0
0 0 0
0 0 0
0 0 0
0 0 0
0 0 0
0 0 0
0 0 0
0 0 0
0 0 0
0 0 0
0 0 0
0 0 0
0 0 0
0 0 0
0 0 0
0 0 0
0 0 0
0 0 0
0 0 0
