3DLUTS/GC_VENOM_LUTS/Additional_Formats/3DL/GC_Venom_V-LOG/GC_Venom_Glendin_V-Log.3dl
# Converted by Briz LUT Converter
0 256 512 768 1023
0 0 0
0 0 0
0 0 0
0 0 0
42 42 42
15 15 15
60 60 60
126 126 126
192 192 192
246 246 246
792 792 792
983 983 983
1191 1191 1191
1406 1406 1406
1616 1616 1616
2668 2668 2668
2862 2862 2862
3063 3063 3063
3255 3255 3255
3427 3427 3427
3866 3866 3866
3947 3947 3947
4039 4039 4039
4095 4095 4095
4095 4095 4095
0 0 0
0 0 0
0 0 0
53 53 53
105 105 105
71 71 71
123 123 123
208 208 208
314 314 314
443 443 443
1329 1329 1329
1537 1537 1537
1761 1761 1761
1984 1984 1984
2200 2200 2200
3169 3169 3169
3334 3334 3334
3498 3498 3498
3644 3644 3644
3766 3766 3766
4021 4021 4021
4091 4091 4091
4095 4095 4095
4095 4095 4095
4095 4095 4095
0 0 0
0 0 0
47 47 47
114 114 114
167 167 167
207 207 207
349 349 349
527 527 527
710 710 710
894 894 894
1908 1908 1908
2120 2120 2120
2342 2342 2342
2560 2560 2560
2765 2765 2765
3539 3539 3539
3656 3656 3656
3783 3783 3783
3904 3904 3904
4001 4001 4001
4095 4095 4095
4095 4095 4095
4095 4095 4095
4095 4095 4095
4095 4095 4095
0 0 0
42 42 42
110 110 110
174 174 174
224 224 224
625 625 625
808 808 808
1010 1010 1010
1217 1217 1217
1421 1421 1421
2480 2480 2480
2682 2682 2682
2890 2890 2890
3091 3091 3091
3276 3276 3276
3795 3795 3795
3889 3889 3889
3989 3989 3989
4080 4080 4080
4095 4095 4095
4095 4095 4095
4095 4095 4095
4095 4095 4095
4095 4095 4095
4095 4095 4095
52 52 52
99 99 99
170 170 170
251 251 251
337 337 337
1138 1138 1138
1341 1341 1341
1561 1561 1561
1782 1782 1782
1998 1998 1998
3007 3007 3007
3186 3186 3186
3370 3370 3370
3537 3537 3537
3675 3675 3675
3975 3975 3975
4045 4045 4045
4095 4095 4095
4095 4095 4095
4095 4095 4095
4095 4095 4095
4095 4095 4095
4095 4095 4095
4095 4095 4095
4095 4095 4095
