3DLUTS/GC_VENOM_LUTS/Additional_Formats/3DL/GC_Venom_V-LOG/GC_Venom_Gituku_V-Log.3dl
# Converted by Briz LUT Converter
0 64 128 192 256 320 384 448 512 576 640 704 768 832 896 960 1023
0 0 0
0 0 0
0 0 0
0 0 0
0 0 0
0 0 0
0 0 0
0 0 0
0 0 0
0 0 0
0 0 0
0 0 0
0 0 0
0 0 0
0 0 0
0 0 0
0 0 0
0 0 0
0 0 0
0 0 0
0 0 0
0 0 0
0 0 0
0 0 0
0 0 0
0 0 0
0 0 0
0 0 0
0 0 0
0 0 0
0 0 0
0 0 0
0 0 0
0 0 0
0 0 0
0 0 0
0 0 0
0 0 0
0 0 0
0 0 0
0 0 0
0 0 0
0 0 0
0 0 0
0 0 0
0 0 0
0 0 0
0 0 0
0 0 0
0 0 0
2 2 4
0 0 0
0 0 0
0 0 0
0 0 0
0 0 0
0 6 12
0 16 54
0 24 123
0 31 214
0 35 325
0 38 463
0 39 616
0 39 787
0 40 967
0 38 1159
0 36 1375
0 32 1598
0 108 0
0 121 0
0 133 39
0 143 100
0 153 185
0 155 334
0 156 522
0 154 738
0 150 967
0 145 1226
0 139 1505
0 132 1808
0 127 2099
0 124 2382
0 119 2705
0 113 3056
0 106 3429
0 349 0
0 363 0
0 374 0
0 388 42
0 399 202
0 401 497
0 398 860
0 394 1275
0 391 1725
0 387 2209
0 380 2731
0 373 3289
0 373 3803
0 378 4095
0 381 4095
0 381 4095
0 380 4095
0 800 0
0 831 0
0 866 0
0 899 0
0 927 16
0 934 532
0 930 1161
0 920 1846
0 908 2541
0 896 3228
0 881 3919
0 865 4095
0 861 4095
0 861 4095
0 859 4095
0 855 4095
0 852 4095
0 1516 0
0 1529 0
0 1537 0
0 1542 0
0 1542 0
0 1523 330
0 1497 1047
0 1468 1793
0 1441 2526
0 1417 3211
0 1396 3879
0 1377 4095
0 1370 4095
0 1371 4095
0 1370 4095
0 1369 4095
0 1368 4095
0 2050 0
0 2053 0
0 2055 0
0 2058 0
0 2059 0
0 2044 128
0 2020 842
0 1994 1593
0 1968 2340
0 1948 3038
0 1929 3706
0 1912 4095
0 1908 4095
0 1912 4095
0 1914 4095
0 1917 4095
0 1919 4095
0 2587 0
0 2591 0
0 2596 0
0 2602 0
0 2606 0
0 2594 0
0 2573 669
0 2551 1424
0 2529 2184
0 2509 2896
0 2493 3567
0 2479 4095
0 2478 4095
0 2485 4095
0 2489 4095
0 2494 4095
0 2500 4095
0 3151 0
0 3159 0
0 3167 0
0 3175 0
0 3182 0
0 3172 0
0 3158 546
0 3137 1302
0 3117 2068
0 3099 2797
0 3086 3472
0 3076 4095
0 3078 4095
0 3089 4095
0 3097 4095
0 3107 4095
0 3116 4095
0 3741 0
0 3752 0
0 3764 0
0 3776 0
0 3788 0
0 3780 0
0 3769 485
0 3752 1240
0 3733 2012
0 3717 2755
0 3706 3436
0 3698 4086
0 3703 4095
0 3716 4095
0 3728 4095
0 3738 4095
0 3748 4095
0 4095 0
0 4095 0
0 4095 0
0 4095 0
0 4095 0
0 4095 0
0 4095 569
0 4095 1326
0 4095 2098
0 4095 2844
0 4095 3527
0 4095 4095
0 4095 4095
0 4095 4095
0 4095 4095
0 4095 4095
0 4095 4095
0 4095 0
0 4095 0
0 4095 0
0 4095 0
0 4095 0
0 4095 45
0 4095 730
0 4095 1485
0 4095 2254
0 4095 2997
0 4095 3677
0 4095 4095
0 4095 4095
0 4095 4095
0 4095 4095
0 4095 4095
0 4095 4095
0 4095 0
0 4095 0
0 4095 0
0 4095 0
0 4095 0
0 4095 195
0 4095 910
0 4095 1683
0 4095 2449
0 4095 3151
0 4095 3754
0 4095 4095
0 4095 4095
0 4095 4095
0 4095 4095
328 4095 4095
676 4095 4095
0 4095 0
0 4095 0
0 4095 238
109 4095 805
464 4095 1342
782 4095 1922
1092 4095 2450
1406 4095 2939
1697 4095 3348
1978 4095 3672
2240 4095 3910
2492 4095 4084
2718 4095 4095
2934 4095 4095
3153 4095 4095
3351 4095 4095
3551 4095 4095
2558 4095 2528
2814 4095 2869
3056 4095 3164
3264 4095 3401
3469 4095 3611
3642 4095 3789
3805 4095 3928
3937 4095 4022
4055 4095 4082
4065 4095 4095
4075 4095 4095
4084 4095 4095
4094 4095 4095
4095 4095 4095
4095 4095 4095
4095 4095 4095
4095 4095 4095
0 0 0
0 0 0
0 0 0
0 0 0
0 0 0
0 0 0
0 0 0
0 0 0
0 0 0
0 0 0
0 0 0
0 0 0
0 0 0
0 0 0
0 0 0
0 0 0
0 0 0
0 0 0
0 0 0
0 0 0
0 0 0
0 0 0
0 0 0
0 0 0
0 0 0
0 0 0
0 0 0
0 0 0
0 0 0
0 0 0
0 0 0
0 0 0
0 0 0
0 0 0
0 0 0
0 0 0
0 0 0
0 0 0
0 0 0
0 0 0
0 0 0
0 0 0
0 0 0
0 0 0
0 0 0
0 0 0
0 0 0
1 3 32
0 5 136
0 6 277
0 5 434
0 0 0
0 0 0
2 10 7
1 21 24
0 32 57
0 40 116
0 46 204
0 49 313
0 50 446
0 50 602
0 48 776
0 44 977
0 40 1177
0 37 1375
0 32 1603
0 26 1839
0 19 2106
0 148 0
0 158 0
0 166 33
0 175 115
0 180 223
0 179 412
0 175 644
0 169 909
0 162 1192
0 153 1497
0 143 1840
0 132 2204
0 124 2552
0 118 2878
0 110 3256
0 102 3695
0 92 4095
0 396 0
0 409 0
0 421 0
0 434 15
0 447 208
0 449 564
0 447 1011
0 440 1512
0 432 2040
0 424 2610
0 417 3236
0 407 3881
0 403 4095
0 404 4095
0 402 4095
0 398 4095
0 393 4095
0 914 0
0 943 0
0 969 0
0 991 0
0 1010 0
0 1005 563
0 991 1244
0 971 1969
0 952 2693
0 932 3387
0 911 4072
0 891 4095
0 882 4095
0 881 4095
0 878 4095
0 875 4095
0 872 4095
0 1559 0
0 1560 0
0 1560 0
0 1561 0
0 1561 0
0 1543 352
0 1518 1070
0 1491 1818
0 1464 2551
0 1442 3236
0 1421 3904
0 1402 4095
0 1396 4095
0 1398 4095
0 1397 4095
0 1397 4095
0 1399 4095
0 2076 0
0 2078 0
0 2082 0
0 2085 0
0 2088 0
0 2073 158
0 2052 875
0 2026 1627
0 2002 2375
0 1981 3071
0 1962 3739
0 1946 4095
0 1943 4095
0 1948 4095
0 1950 4095
0 1955 4095
0 1958 4095
0 2621 0
0 2627 0
0 2633 0
0 2639 0
0 2645 0
0 2634 3
0 2615 712
0 2592 1467
0 2570 2226
0 2551 2938
0 2536 3611
0 2523 4095
0 2523 4095
0 2532 4095
0 2538 4095
0 2545 4095
0 2551 4095
0 3194 0
0 3203 0
0 3213 0
0 3223 0
0 3231 0
0 3223 0
0 3209 599
0 3190 1357
0 3170 2123
0 3153 2851
0 3141 3527
0 3133 4095
0 3136 4095
0 3148 4095
0 3157 4095
0 3166 4095
0 3176 4095
0 3798 0
0 3811 0
0 3823 0
0 3836 0
0 3847 0
0 3840 0
0 3829 547
0 3812 1305
0 3795 2076
0 3780 2818
0 3770 3500
0 3762 4095
0 3767 4095
0 3779 4095
0 3790 4095
0 3799 4095
0 3809 4095
0 4095 0
0 4095 0
0 4095 0
0 4095 0
0 4095 0
0 4095 0
0 4095 633
0 4095 1389
0 4095 2163
0 4095 2907
0 4095 3589
0 4095 4095
0 4095 4095
0 4095 4095
0 4095 4095
0 4095 4095
0 4095 4095
0 4095 0
0 4095 0
0 4095 0
0 4095 0
0 4095 0
0 4095 103
0 4095 789
0 4095 1543
0 4095 2312
0 4095 3051
0 4095 3729
0 4095 4095
0 4095 4095
0 4095 4095
0 4095 4095
0 4095 4095
0 4095 4095
0 4095 0
0 4095 0
0 4095 0
0 4095 0
0 4095 0
0 4095 498
0 4095 1217
0 4095 1961
0 4095 2666
0 4095 3286
0 4095 3797
274 4095 4095
605 4095 4095
933 4095 4095
1253 4095 4095
1551 4095 4095
1859 4095 4095
380 4095 96
711 4095 685
1040 4095 1223
1365 4095 1711
1687 4095 2162
1959 4095 2608
2215 4095 2998
2459 4095 3341
2678 4095 3617
2888 4095 3827
3072 4095 3974
3260 4095 4076
3444 4095 4095
3630 4095 4095
3783 4095 4095
3925 4095 4095
4053 4095 4095
3348 4095 3293
3532 4095 3526
3717 4095 3737
3868 4095 3895
4011 4095 4027
4063 4095 4074
4073 4095 4089
4083 4095 4095
4093 4095 4095
4095 4095 4095
4095 4095 4095
4095 4095 4095
4095 4095 4095
4095 4095 4095
4095 4095 4095
4095 4095 4095
4095 4095 4095
0 0 0
0 0 0
0 0 0
0 0 0
0 0 0
0 0 0
0 0 0
0 0 0
0 0 0
0 0 0
0 0 0
0 0 0
0 0 0
0 0 0
0 0 0
0 0 0
0 0 0
0 0 0
0 0 0
0 0 0
0 0 0
0 0 0
0 0 0
0 0 0
0 0 0
0 0 0
0 0 0
0 0 0
0 0 0
0 0 0
0 0 0
0 0 0
0 0 0
0 0 0
0 0 0
0 0 0
0 0 0
0 0 0
0 0 0
0 0 0
0 0 0
0 0 0
0 0 0
0 0 0
4 5 54
4 6 143
3 7 261
1 6 402
0 4 552
0 0 729
0 0 914
11 24 0
14 35 6
16 45 30
16 54 66
14 62 120
9 65 218
1 65 346
0 63 501
0 59 675
0 54 869
0 47 1091
0 39 1324
0 32 1558
0 25 1784
0 17 2044
0 7 2316
0 0 2621
0 179 0
0 186 0
0 192 18
0 197 121
0 201 254
0 196 485
0 188 770
0 178 1089
0 167 1434
0 154 1803
0 140 2208
0 124 2642
0 114 3066
0 107 3492
0 96 3955
0 84 4095
0 71 4095
0 444 0
0 457 0
0 472 0
0 488 0
0 502 212
0 501 641
0 495 1172
0 486 1769
0 475 2387
0 462 3031
0 446 3700
0 429 4095
0 421 4095
0 419 4095
0 413 4095
0 408 4095
0 403 4095
0 1008 0
0 1026 0
0 1042 0
0 1054 0
0 1064 0
0 1052 584
0 1029 1297
0 1003 2039
0 977 2758
0 953 3438
0 930 4095
0 909 4095
0 901 4095
0 901 4095
0 900 4095
0 898 4095
0 896 4095
0 1578 0
0 1579 0
0 1580 0
0 1582 0
0 1584 0
0 1567 377
0 1542 1097
0 1515 1844
0 1489 2576
0 1468 3261
0 1448 3931
0 1430 4095
0 1424 4095
0 1428 4095
0 1429 4095
0 1429 4095
0 1430 4095
0 2103 0
0 2106 0
0 2111 0
0 2116 0
0 2120 0
0 2106 193
0 2084 910
0 2060 1662
0 2036 2410
0 2016 3106
0 1999 3776
0 1984 4095
0 1982 4095
0 1988 4095
0 1991 4095
0 1995 4095
0 1999 4095
0 2658 0
0 2666 0
0 2673 0
0 2680 0
0 2686 0
0 2675 45
0 2657 757
0 2635 1513
0 2613 2271
0 2596 2983
0 2583 3656
0 2571 4095
0 2572 4095
0 2582 4095
0 2589 4095
0 2596 4095
0 2604 4095
0 3243 0
0 3253 0
0 3263 0
0 3274 0
0 3283 0
0 3275 0
0 3261 654
0 3244 1414
0 3227 2181
0 3212 2910
0 3200 3586
0 3192 4095
0 3195 4095
0 3207 4095
0 3217 4095
0 3227 4095
0 3237 4095
0 3857 0
0 3869 0
0 3882 0
0 3896 0
0 3908 0
0 3902 0
0 3892 612
0 3876 1370
0 3858 2142
0 3843 2882
0 3832 3562
0 3825 4095
0 3829 4095
0 3841 4095
0 3851 4095
0 3862 4095
0 3872 4095
0 4095 0
0 4095 0
0 4095 0
0 4095 0
0 4095 0
0 4095 11
0 4095 698
0 4095 1453
0 4095 2224
0 4095 2967
0 4095 3647
0 4095 4095
0 4095 4095
0 4095 4095
0 4095 4095
0 4095 4095
0 4095 4095
0 4095 0
0 4095 0
0 4095 0
0 4095 0
0 4095 0
0 4095 158
0 4095 843
0 4095 1596
0 4095 2364
0 4095 3103
0 4095 3773
0 4095 4095
0 4095 4095
0 4095 4095
0 4095 4095
0 4095 4095
0 4095 4095
0 4095 0
0 4095 0
0 4095 0
0 4095 0
0 4095 322
0 4095 1012
99 4095 1691
364 4095 2359
641 4095 2960
928 4095 3462
1207 4095 3851
1488 4095 4095
1764 4095 4095
2042 4095 4095
2316 4095 4095
2552 4095 4095
2760 4095 4095
1569 4095 1215
1877 4095 1727
2149 4095 2156
2402 4095 2527
2643 4095 2856
2864 4095 3183
3052 4095 3445
3232 4095 3667
3394 4095 3837
3563 4095 3963
3709 4095 4040
3846 4095 4085
3969 4095 4095
4061 4095 4095
4072 4095 4095
4083 4095 4095
4093 4095 4095
3911 4095 3887
4039 4095 4035
4069 4095 4069
4080 4095 4082
4091 4095 4095
4095 4095 4095
4095 4095 4095
4095 4095 4095
4095 4095 4095
4095 4095 4095
4095 4095 4095
4095 4095 4095
4095 4095 4095
4095 4095 4095
4095 4095 4095
4095 4095 4095
4095 4095 4095
0 0 0
0 0 0
0 0 0
0 0 0
0 0 0
0 0 0
0 0 0
0 0 0
0 0 0
0 0 0
0 0 0
0 0 0
0 0 0
0 0 0
0 0 0
0 0 0
0 0 0
0 0 0
0 0 0
0 0 0
0 0 0
0 0 0
0 0 0
0 0 0
0 0 0
0 0 0
0 0 0
0 0 0
0 0 0
0 0 0
0 0 0
0 0 0
0 0 0
