3DLUTS/GC_VENOM_LUTS/Additional_Formats/3DL/GC_Venom_V-LOG/GC_Venom_Hadria_V-Log.3dl
# Converted by Briz LUT Converter
0 256 512 768 1023
0 0 0
0 0 0
0 0 0
0 0 0
0 0 0
0 106 16
0 153 169
0 132 1109
0 112 2067
0 97 3065
0 1639 0
0 1705 0
0 1633 1748
0 1594 4095
0 1679 4095
0 4095 0
0 4095 0
0 4095 1524
0 4095 4095
0 4095 4095
3671 4095 3705
4076 4095 4084
4095 4095 4095
4095 4095 4095
4095 4095 4095
0 0 0
0 0 0
0 0 0
0 0 0
0 0 0
163 226 0
164 244 280
46 150 2016
0 82 3448
0 38 4095
0 1931 0
0 2059 0
0 2025 2134
0 2009 4095
0 2110 4095
0 4095 0
0 4095 0
0 4095 1917
0 4095 4095
225 4095 4095
4095 4095 4095
4095 4095 4095
4095 4095 4095
4095 4095 4095
4095 4095 4095
0 0 0
0 0 0
0 0 0
0 0 0
147 0 324
1913 0 0
2119 0 0
2117 0 2316
2139 0 4095
2246 0 4095
1701 1965 0
1841 2101 0
1834 2106 2229
1820 2102 4095
1920 2202 4095
1520 4095 0
1969 4095 857
2419 4095 2694
2963 4095 4095
3512 4095 4095
4095 4095 4095
4095 4095 4095
4095 4095 4095
4095 4095 4095
4095 4095 4095
173 0 0
603 0 11
947 0 503
1269 0 1231
1658 0 2040
4095 0 0
4095 0 0
4095 0 2316
4095 0 4095
4095 0 4095
4095 1909 0
4095 2049 0
4095 2045 2181
4095 2011 4095
4095 2100 4095
4088 4083 2540
4082 4081 3583
4094 4094 4074
4095 4095 4095
4095 4095 4095
4095 4095 4095
4095 4095 4095
4095 4095 4095
4095 4095 4095
4095 4095 4095
2097 0 0
2592 0 0
2951 0 1076
3306 0 2437
3708 0 3496
4095 0 0
4095 0 0
4095 0 2530
4095 0 4095
4095 0 4095
4095 2209 0
4095 2335 142
4095 2313 2448
4095 2255 4095
4095 2337 4095
4095 4095 4095
4095 4095 4095
4095 4095 4095
4095 4095 4095
4095 4095 4095
4095 4095 4095
4095 4095 4095
4095 4095 4095
4095 4095 4095
4095 4095 4095
