3DLUTS/GC_VENOM_LUTS/Additional_Formats/3DL/GC_Venom_V-LOG/GC_Venom_Damyan_V-Log.3dl
# Converted by Briz LUT Converter
0 64 128 192 256 320 384 448 512 576 640 704 768 832 896 960 1023
0 310 434
0 322 494
0 332 577
0 340 677
0 346 805
0 341 1057
0 330 1393
0 313 1794
0 293 2238
0 274 2670
0 256 3074
0 238 3494
0 224 3860
0 214 4095
0 201 4095
0 187 4095
0 172 4095
0 516 577
0 527 642
0 535 742
0 542 862
0 546 1015
0 537 1323
0 519 1742
0 495 2240
0 467 2787
0 439 3321
0 417 3794
0 393 4095
0 376 4095
0 363 4095
0 348 4095
0 331 4095
0 314 4095
0 725 662
0 735 735
0 742 841
0 747 971
0 749 1135
0 738 1468
0 716 1934
0 687 2488
0 654 3096
0 621 3696
0 595 4095
0 568 4095
0 548 4095
0 534 4095
0 517 4095
0 499 4095
0 482 4095
0 932 692
0 939 775
0 944 878
0 947 1011
0 947 1177
0 932 1512
0 907 1997
0 876 2572
0 840 3203
0 804 3831
0 775 4095
0 747 4095
0 728 4095
0 714 4095
0 697 4095
0 680 4095
0 661 4095
0 1132 686
0 1135 790
0 1140 874
0 1140 1001
0 1140 1160
0 1125 1476
0 1100 1947
0 1067 2511
0 1029 3135
0 991 3769
0 961 4095
0 933 4095
0 914 4095
0 901 4095
0 886 4095
0 871 4095
0 856 4095
0 1368 592
0 1370 723
0 1374 814
0 1379 915
0 1382 1059
0 1373 1339
0 1352 1773
0 1324 2319
0 1292 2939
0 1259 3585
0 1232 4095
0 1211 4095
0 1198 4095
0 1193 4095
0 1185 4095
0 1177 4095
0 1168 4095
0 1675 437
0 1682 589
0 1693 716
0 1709 801
0 1720 931
0 1720 1189
0 1710 1587
0 1688 2120
0 1661 2735
0 1632 3388
0 1606 4005
0 1589 4095
0 1583 4095
0 1583 4095
0 1580 4095
0 1578 4095
0 1575 4095
0 2077 282
0 2092 450
0 2107 598
0 2126 714
0 2146 817
0 2154 1060
0 2151 1420
0 2137 1934
0 2117 2538
0 2092 3190
0 2069 3836
0 2056 4095
0 2053 4095
0 2056 4095
0 2057 4095
0 2058 4095
0 2058 4095
0 2551 152
0 2569 333
0 2588 496
0 2608 636
0 2631 735
0 2643 955
0 2645 1281
0 2636 1764
0 2618 2349
0 2597 2995
0 2574 3646
0 2560 4095
0 2560 4095
0 2566 4095
0 2570 4095
0 2572 4095
0 2574 4095
0 3055 36
0 3073 225
0 3093 399
0 3114 554
0 3137 685
0 3154 868
0 3160 1167
0 3156 1612
0 3142 2179
0 3122 2812
0 3101 3464
0 3086 4050
0 3087 4095
0 3095 4095
0 3099 4095
0 3103 4095
0 3107 4095
0 3569 0
0 3589 145
0 3609 328
0 3630 494
0 3653 644
0 3672 812
0 3682 1092
0 3681 1496
0 3669 2041
0 3651 2659
0 3631 3307
0 3614 3919
0 3616 4095
0 3624 4095
0 3629 4095
0 3634 4095
0 3639 4095
0 4063 0
0 4082 138
0 4095 328
0 4095 503
0 4095 665
0 4095 833
0 4095 1091
0 4095 1459
0 4095 1980
0 4095 2581
0 4095 3219
0 4095 3838
0 4095 4095
0 4095 4095
0 4095 4095
0 4095 4095
0 4095 4095
0 4095 7
0 4095 210
0 4095 401
0 4095 577
0 4095 741
0 4095 911
0 4095 1163
0 4095 1523
0 4095 2038
0 4095 2635
0 4095 3271
0 4095 3890
0 4095 4095
0 4095 4095
0 4095 4095
0 4095 4095
0 4095 4095
0 4095 108
0 4095 310
0 4095 498
0 4095 671
0 4095 831
0 4095 997
0 4095 1253
0 4095 1617
0 4095 2135
0 4095 2734
0 4095 3369
0 4095 3984
0 4095 4095
0 4095 4095
0 4095 4095
0 4095 4095
0 4095 4095
0 4095 200
0 4095 428
0 4095 651
0 4095 866
0 4095 1075
0 4095 1290
0 4095 1582
0 4095 1957
0 4095 2447
0 4095 2972
0 4095 3489
0 4095 3952
0 4095 4095
216 4095 4095
452 4095 4095
696 4095 4095
941 4095 4095
0 4095 1233
98 4095 1512
341 4095 1776
597 4095 2024
862 4095 2257
1112 4095 2471
1354 4095 2713
1594 4095 2978
1813 4095 3267
2030 4095 3544
2240 4095 3787
2453 4095 3981
2651 4095 4086
2843 4095 4095
3040 4095 4095
3220 4095 4095
3408 4095 4095
2641 4095 3094
2878 4095 3293
3104 4095 3468
3299 4095 3611
3494 4095 3743
3656 4095 3848
3807 4095 3944
3927 4095 4016
4043 4095 4075
4065 4095 4092
4074 4095 4095
4084 4095 4095
4093 4095 4095
4095 4095 4095
4095 4095 4095
4095 4095 4095
4095 4095 4095
0 319 468
0 328 529
0 336 618
0 342 725
0 346 861
0 339 1133
0 325 1498
0 305 1932
0 281 2411
0 259 2877
0 239 3305
0 218 3749
0 202 4095
0 190 4095
0 175 4095
0 160 4095
0 143 4095
0 511 583
0 521 650
0 527 753
0 532 877
0 535 1034
0 524 1355
0 505 1792
0 478 2311
0 448 2882
0 418 3440
0 394 3929
0 369 4095
0 351 4095
0 337 4095
0 320 4095
0 303 4095
0 285 4095
0 709 650
0 718 724
0 724 831
0 728 961
0 730 1125
0 718 1464
0 695 1939
0 665 2503
0 631 3122
0 596 3736
0 569 4095
0 542 4095
0 522 4095
0 508 4095
0 490 4095
0 473 4095
0 456 4095
0 907 670
0 912 757
0 917 856
0 920 988
0 921 1155
0 908 1490
0 884 1973
0 851 2545
0 815 3173
0 778 3801
0 749 4095
0 723 4095
0 703 4095
0 689 4095
0 672 4095
0 655 4095
0 638 4095
0 1101 663
0 1104 771
0 1109 852
0 1111 977
0 1109 1134
0 1097 1447
0 1072 1915
0 1041 2478
0 1005 3102
0 967 3737
0 939 4095
0 913 4095
0 896 4095
0 885 4095
0 871 4095
0 860 4095
0 848 4095
0 1344 576
0 1348 711
0 1354 806
0 1361 903
0 1365 1048
0 1360 1326
0 1344 1764
0 1319 2314
0 1289 2936
0 1258 3585
0 1234 4095
0 1215 4095
0 1204 4095
0 1199 4095
0 1192 4095
0 1186 4095
0 1178 4095
0 1678 437
0 1689 589
0 1701 717
0 1718 802
0 1731 934
0 1732 1195
0 1723 1598
0 1703 2135
0 1680 2755
0 1653 3411
0 1629 4027
0 1614 4095
0 1609 4095
0 1610 4095
0 1610 4095
0 1608 4095
0 1608 4095
0 2103 301
0 2119 469
0 2136 618
0 2157 734
0 2178 839
0 2186 1085
0 2185 1448
0 2172 1966
0 2152 2573
0 2129 3228
0 2106 3871
0 2093 4095
0 2091 4095
0 2095 4095
0 2097 4095
0 2098 4095
0 2100 4095
0 2590 182
0 2608 362
0 2627 525
0 2649 663
0 2673 763
0 2685 987
0 2689 1316
0 2679 1803
0 2662 2392
0 2641 3037
0 2619 3689
0 2606 4095
0 2605 4095
0 2612 4095
0 2615 4095
0 2620 4095
0 2623 4095
0 3101 73
0 3120 262
0 3140 435
0 3162 589
0 3187 717
0 3203 904
0 3210 1207
0 3205 1656
0 3191 2225
0 3172 2861
0 3152 3512
0 3137 4095
0 3138 4095
0 3146 4095
0 3152 4095
0 3156 4095
0 3159 4095
0 3619 0
0 3639 186
0 3660 368
0 3683 534
0 3705 681
0 3725 852
0 3734 1134
0 3733 1543
0 3721 2090
0 3703 2712
0 3683 3359
0 3667 3968
0 3670 4095
0 3678 4095
0 3683 4095
0 3687 4095
0 3691 4095
0 4095 0
0 4095 186
0 4095 375
0 4095 548
0 4095 709
0 4095 875
0 4095 1136
0 4095 1507
0 4095 2031
0 4095 2635
0 4095 3275
0 4095 3893
0 4095 4095
0 4095 4095
0 4095 4095
0 4095 4095
0 4095 4095
0 4095 53
0 4095 256
0 4095 445
0 4095 620
0 4095 782
0 4095 949
0 4095 1205
0 4095 1568
0 4095 2086
0 4095 2686
0 4095 3322
0 4095 3940
0 4095 4095
0 4095 4095
0 4095 4095
0 4095 4095
0 4095 4095
0 4095 149
0 4095 350
0 4095 537
0 4095 708
0 4095 867
0 4095 1031
0 4095 1290
0 4095 1662
0 4095 2188
0 4095 2789
0 4095 3415
0 4095 4007
0 4095 4095
0 4095 4095
0 4095 4095
0 4095 4095
0 4095 4095
0 4095 383
0 4095 641
0 4095 890
0 4095 1127
0 4095 1350
0 4095 1575
0 4095 1864
0 4095 2221
102 4095 2665
281 4095 3128
473 4095 3574
681 4095 3961
910 4095 4095
1150 4095 4095
1389 4095 4095
1612 4095 4095
1845 4095 4095
781 4095 1750
1035 4095 2027
1296 4095 2285
1557 4095 2520
1816 4095 2736
2041 4095 2922
2259 4095 3122
2473 4095 3332
2665 4095 3546
2847 4095 3738
3005 4095 3896
3170 4095 4017
3340 4095 4080
3519 4095 4095
3668 4095 4095
3814 4095 4095
3943 4095 4095
3395 4095 3591
3573 4095 3735
3754 4095 3869
3902 4095 3972
4039 4095 4061
4066 4095 4082
4077 4095 4094
4086 4095 4095
4095 4095 4095
4095 4095 4095
4095 4095 4095
4095 4095 4095
4095 4095 4095
4095 4095 4095
4095 4095 4095
4095 4095 4095
4095 4095 4095
139 307 482
136 316 544
132 322 639
125 326 751
116 328 895
88 320 1185
51 303 1576
7 281 2040
0 255 2552
0 230 3049
0 208 3500
0 186 3964
0 168 4095
0 155 4095
0 139 4095
0 121 4095
0 103 4095
46 489 573
41 497 642
33 503 747
24 507 874
11 508 1035
0 497 1365
0 476 1819
0 449 2357
0 417 2948
0 386 3527
0 361 4028
0 335 4095
0 316 4095
0 301 4095
0 284 4095
0 267 4095
0 248 4095
0 679 623
0 687 699
0 693 804
0 696 936
0 697 1102
0 685 1442
0 663 1924
0 632 2496
0 598 3122
0 563 3745
0 536 4095
0 509 4095
0 489 4095
0 476 4095
0 459 4095
0 442 4095
0 424 4095
0 870 639
0 876 734
0 883 827
0 885 959
0 885 1123
0 873 1453
0 848 1932
0 817 2501
0 781 3128
0 745 3758
0 718 4095
0 692 4095
0 673 4095
0 659 4095
0 643 4095
0 627 4095
0 610 4095
0 1063 633
0 1066 745
0 1072 824
0 1074 948
0 1075 1104
0 1064 1412
0 1041 1878
0 1011 2440
0 978 3067
0 943 3706
0 917 4095
0 893 4095
0 879 4095
0 871 4095
0 861 4095
0 850 4095
0 840 4095
0 1321 558
0 1326 694
0 1335 793
0 1346 889
0 1354 1035
0 1351 1317
0 1337 1757
0 1314 2310
0 1287 2937
0 1258 3588
0 1234 4095
0 1217 4095
0 1208 4095
0 1204 4095
0 1199 4095
0 1195 4095
0 1191 4095
0 1683 436
0 1695 589
0 1708 717
0 1726 803
0 1741 938
0 1746 1204
0 1739 1611
0 1721 2152
0 1699 2775
0 1674 3432
0 1652 4050
0 1639 4095
0 1635 4095
0 1638 4095
0 1639 4095
0 1638 4095
0 1638 4095
0 2130 320
0 2146 489
0 2165 637
0 2186 751
0 2209 859
0 2218 1107
0 2217 1476
0 2204 1997
0 2185 2605
0 2162 3260
0 2141 3905
0 2129 4095
0 2127 4095
0 2133 4095
0 2136 4095
0 2137 4095
0 2139 4095
0 2627 210
0 2645 389
0 2665 551
0 2688 689
0 2713 789
0 2725 1016
0 2729 1348
0 2720 1840
0 2703 2431
0 2683 3079
0 2662 3732
0 2650 4095
0 2651 4095
0 2657 4095
0 2661 4095
0 2665 4095
0 2667 4095
0 3146 107
0 3166 297
0 3186 469
0 3209 622
0 3233 746
0 3250 937
0 3256 1244
0 3252 1697
0 3237 2269
0 3218 2906
0 3199 3560
0 3186 4095
0 3187 4095
0 3195 4095
0 3200 4095
0 3204 4095
0 3208 4095
0 3669 29
0 3689 226
0 3709 407
0 3731 571
0 3755 717
0 3773 888
0 3782 1172
0 3782 1586
0 3771 2138
0 3754 2761
0 3734 3410
0 3718 4015
0 3719 4095
0 3727 4095
0 3732 4095
0 3736 4095
0 3739 4095
0 4095 27
0 4095 228
0 4095 416
0 4095 590
0 4095 748
0 4095 914
0 4095 1178
0 4095 1554
0 4095 2082
0 4095 2687
0 4095 3326
0 4095 3942
0 4095 4095
0 4095 4095
0 4095 4095
0 4095 4095
0 4095 4095
0 4095 95
0 4095 296
0 4095 485
0 4095 658
0 4095 819
0 4095 985
0 4095 1243
0 4095 1610
0 4095 2131
0 4095 2731
0 4095 3368
0 4095 3984
0 4095 4095
0 4095 4095
0 4095 4095
0 4095 4095
0 4095 4095
0 4095 186
0 4095 385
0 4095 571
0 4095 743
0 4095 909
0 4095 1090
0 4095 1371
0 4095 1759
0 4095 2286
0 4095 2872
0 4095 3466
0 4095 4014
0 4095 4095
0 4095 4095
0 4095 4095
48 4095 4095
237 4095 4095
0 4095 689
0 4095 962
0 4095 1227
0 4095 1471
201 4095 1703
395 4095 1924
588 4095 2198
782 4095 2525
977 4095 2914
1180 4095 3308
1384 4095 3671
1591 4095 3974
1799 4095 4095
2017 4095 4095
2241 4095 4095
2445 4095 4095
2630 4095 4095
1715 4095 2328
1969 4095 2586
2202 4095 2808
2431 4095 3009
2656 4095 3192
2864 4095 3354
3037 4095 3503
3200 4095 3650
3345 4095 3788
3499 4095 3911
3634 4095 4001
3766 4095 4061
3886 4095 4088
4016 4095 4095
4066 4095 4095
4077 4095 4095
4087 4095 4095
3965 4095 3997
4062 4095 4072
4074 4095 4085
4085 4095 4095
4095 4095 4095
4095 4095 4095
4095 4095 4095
4095 4095 4095
4095 4095 4095
4095 4095 4095
4095 4095 4095
4095 4095 4095
4095 4095 4095
4095 4095 4095
4095 4095 4095
4095 4095 4095
4095 4095 4095
557 236 435
556 244 501
550 249 600
537 255 720
494 266 880
433 264 1194
375 251 1613
316 230 2108
257 205 2651
201 180 3179
153 158 3650
106 135 4095
73 117 4095
49 103 4095
21 86 4095
0 68 4095
0 50 4095
421 430 526
412 439 599
402 445 707
390 450 838
374 452 1003
329 443 1343
273 424 1812
212 398 2368
148 367 2976
86 337 3576
34 312 4089
0 287 4095
0 268 4095
0 253 4095
0 236 4095
0 219 4095
