3DLUTS/GC_VENOM_LUTS/Additional_Formats/3DL/GC_Venom_V-LOG/GC_Venom_Tiara_V-Log.3dl
# Converted by Briz LUT Converter
0 256 512 768 1023
0 0 0
0 0 0
0 0 0
0 0 0
0 0 0
0 122 30
0 174 215
0 180 881
0 157 1988
0 136 3296
0 1747 0
0 1826 0
0 1818 1657
0 1785 3823
0 1810 4095
0 4095 0
0 4095 0
0 4095 1361
0 4095 3458
0 4095 4095
1657 4095 1900
2422 4095 2794
2982 4095 3506
3483 4095 3963
4006 4095 4095
0 0 0
0 0 0
0 0 0
0 0 0
0 0 0
106 270 0
100 299 394
30 267 1715
0 196 3688
0 144 4095
0 2029 0
0 2127 158
0 2133 1948
0 2111 4095
0 2150 4095
0 4095 0
0 4095 5
0 4095 1653
0 4095 3741
0 4095 4095
3890 4095 3883
4086 4095 4089
4095 4095 4095
4095 4095 4095
4095 4095 4095
0 0 0
0 0 0
0 0 0
0 0 0
190 0 338
2696 0 0
2968 0 0
3030 0 1736
2980 0 3955
2969 0 4095
2636 1807 0
2751 1910 52
2725 1951 1824
2663 1963 4011
2698 2003 4095
1641 4095 0
1858 4095 325
2031 4095 2081
2299 4095 3766
2647 4095 4095
4095 4095 4095
4095 4095 4095
4095 4095 4095
4095 4095 4095
4095 4095 4095
218 0 0
764 0 0
1207 0 342
1601 0 1066
2071 0 2004
4095 0 0
4095 0 0
4095 0 1512
4095 0 3714
4095 0 4095
4095 1675 0
4095 1784 20
4095 1812 1734
4095 1806 3871
4095 1840 4095
4095 3935 943
4095 3957 2089
4095 3957 3083
4095 3963 3817
4095 4003 4095
4095 4095 4095
4095 4095 4095
4095 4095 4095
4095 4095 4095
4095 4095 4095
2662 0 0
3331 0 0
3900 0 651
4095 0 2134
4095 0 3712
4095 0 0
4095 0 0
4095 0 1572
4095 0 3792
4095 0 4095
4095 1788 0
4095 1887 112
4095 1905 1823
4095 1888 3950
4095 1904 4095
4095 3988 3213
4095 4046 3787
4095 4095 4080
4095 4095 4095
4095 4095 4095
4095 4095 4095
4095 4095 4095
4095 4095 4095
4095 4095 4095
4095 4095 4095
