3DLUTS/GC_VENOM_LUTS/Additional_Formats/3DL/GC_Venom_V-LOG/GC_Venom_Nirnasha_V-Log.3dl
# Converted by Briz LUT Converter
0 128 256 384 512 640 768 896 1023
0 0 0
0 0 0
0 0 0
0 0 0
0 0 0
0 0 0
0 0 0
0 0 0
0 0 0
0 0 0
0 0 0
0 0 0
0 0 0
0 0 0
0 0 0
0 0 0
0 0 0
0 0 0
0 158 0
0 185 0
0 201 230
0 187 818
0 156 1611
0 114 2561
0 73 3543
0 41 4095
0 1 4095
0 1015 0
0 1033 0
0 1042 0
0 992 1104
0 931 2550
0 872 3989
0 833 4095
0 822 4095
0 809 4095
0 2062 0
0 2065 0
0 2065 0
0 2017 598
0 1957 2049
0 1900 3495
0 1862 4095
0 1855 4095
0 1846 4095
0 3122 0
0 3133 0
0 3143 0
0 3110 132
0 3066 1600
0 3026 3063
0 3009 4095
0 3026 4095
0 3043 4095
0 4095 0
0 4095 0
0 4095 0
0 4095 105
0 4095 1587
0 4095 3059
0 4095 4095
0 4095 4095
0 4095 4095
0 4095 0
0 4095 0
0 4095 0
0 4095 280
0 4095 1757
0 4095 3202
0 4095 4095
0 4095 4095
0 4095 4095
728 4095 910
1383 4095 1858
2018 4095 2604
2586 4095 3262
3080 4095 3695
3546 4095 3932
3943 4006 3999
3964 4026 4024
3987 4049 4051
0 0 0
0 0 0
0 0 0
0 0 0
0 0 0
0 0 0
0 0 0
0 0 0
0 0 0
0 0 0
0 0 0
0 0 0
0 0 0
0 0 0
0 0 0
0 0 305
0 0 795
0 0 1412
0 245 0
0 248 0
0 244 280
0 203 1141
0 146 2242
0 79 3491
0 21 4095
0 0 4095
0 0 4095
0 1094 0
0 1093 0
0 1090 0
0 1040 1153
0 980 2600
0 921 4039
0 883 4095
0 875 4095
0 865 4095
0 2118 0
0 2120 0
0 2122 0
0 2074 653
0 2016 2107
0 1959 3553
0 1926 4095
0 1922 4095
0 1917 4095
0 3214 0
0 3234 0
0 3255 0
0 3229 248
0 3196 1727
0 3164 3199
0 3155 4095
0 3177 4095
0 3198 4095
0 4095 0
0 4095 0
0 4095 0
0 4095 253
0 4095 1728
0 4095 3196
0 4095 4095
0 4095 4095
0 4095 4095
0 4095 0
0 4095 0
0 4095 0
0 4095 703
0 4095 2132
0 4095 3386
0 4095 4095
406 4095 4095
850 4095 4095
3028 4095 3005
3530 4095 3575
3949 4007 3964
3968 4024 3990
3985 4043 4016
4006 4062 4043
4030 4085 4073
4056 4095 4095
4082 4095 4095
0 0 0
0 0 0
0 0 0
0 0 0
0 0 0
0 0 0
0 0 0
0 0 0
0 0 0
0 0 0
0 0 0
33 6 44
66 0 232
85 0 588
89 0 1102
89 0 1737
87 0 2444
77 0 3264
226 269 0
214 257 0
197 240 278
146 184 1401
82 113 2770
16 41 4095
0 0 4095
0 0 4095
0 0 4095
0 1136 0
0 1136 0
0 1134 0
0 1086 1198
0 1029 2650
0 972 4092
0 935 4095
0 927 4095
0 916 4095
0 2169 0
0 2173 0
0 2176 0
0 2133 711
0 2079 2168
0 2027 3618
0 1997 4095
0 2002 4095
0 2005 4095
0 3332 0
0 3362 0
0 3391 0
0 3372 390
0 3342 1871
0 3315 3348
0 3310 4095
0 3333 4095
0 3353 4095
0 4095 0
0 4095 0
0 4095 0
0 4095 378
0 4095 1849
0 4095 3311
0 4095 4095
0 4095 4095
0 4095 4095
0 4095 0
5 4095 0
361 4095 453
693 4095 1715
1068 4095 2810
1474 4095 3635
1887 4095 4095
2361 4095 4095
2802 4095 4095
3985 4037 3983
4007 4059 4008
4031 4081 4034
4055 4095 4063
4078 4095 4093
4095 4095 4095
4095 4095 4095
4095 4095 4095
4095 4095 4095
0 0 0
0 0 0
0 0 0
0 0 0
0 0 0
0 0 0
0 0 0
0 0 0
0 0 0
251 0 0
358 0 0
453 0 181
515 0 659
558 0 1334
590 0 2159
627 0 3050
675 0 3916
722 0 4095
1187 154 0
1234 133 0
1267 115 142
1237 59 1438
1179 0 2890
1116 0 4095
1075 0 4095
1065 0 4095
1051 0 4095
971 1066 0
974 1069 0
974 1069 0
928 1024 1134
871 969 2586
815 914 4030
779 878 4095
771 870 4095
760 860 4095
523 2124 0
530 2132 0
536 2139 0
506 2102 684
469 2057 2149
435 2012 3608
423 1994 4095
436 2007 4095
451 2022 4095
279 3372 0
311 3407 0
343 3441 0
337 3425 446
320 3395 1929
303 3365 3402
303 3357 4095
323 3377 4095
338 3390 4095
309 4095 0
329 4095 0
345 4095 0
319 4095 384
281 4095 1844
260 4095 3297
295 4095 4095
402 4095 4095
555 4095 4095
1609 4095 81
1996 4095 1119
2385 4095 2002
2702 4095 2820
3006 4095 3437
3292 4095 3826
3592 4077 4002
3884 4013 4018
3976 4012 4022
4077 4095 4056
4095 4095 4084
4095 4095 4095
4095 4095 4095
4095 4095 4095
4095 4095 4095
4095 4095 4095
4095 4095 4095
4095 4095 4095
0 0 0
0 0 0
0 0 0
0 0 0
0 0 0
0 0 0
0 0 0
81 0 215
231 0 710
1096 0 0
1280 0 0
1453 0 136
1570 0 881
1662 0 1847
1758 0 2980
1861 0 4095
1996 0 4095
2120 0 4095
2720 0 0
2728 0 0
2725 0 0
2673 0 1270
2607 0 2718
2539 0 4095
2497 0 4095
2487 0 4095
2476 0 4095
2398 915 0
2401 917 0
2402 916 0
2352 872 977
2291 818 2429
2231 765 3874
2194 733 4095
2189 727 4095
2182 721 4095
1938 2006 0
1954 2022 0
1970 2038 0
1943 2012 597
1907 1977 2074
1874 1946 3546
1863 1936 4095
1884 1957 4095
1903 1976 4095
1701 3352 0
1736 3386 0
1766 3416 0
1751 3400 428
1719 3370 1909
1688 3337 3380
1675 3323 4095
1689 3337 4095
1700 3348 4095
1636 4095 0
1649 4095 0
1678 4095 0
1691 4095 444
1726 4095 1917
1799 4095 3265
1938 4095 4095
2126 4095 4095
2334 4095 4095
3279 4095 2205
3515 4095 2943
3730 4086 3498
3899 4021 3867
3981 4007 3989
3998 4025 4015
4020 4046 4042
4046 4071 4070
4072 4095 4095
4095 4095 4095
4095 4095 4095
4095 4095 4095
4095 4095 4095
4095 4095 4095
4095 4095 4095
4095 4095 4095
4095 4095 4095
4095 4095 4095
0 0 0
0 0 0
0 0 0
93 0 46
295 0 256
498 0 632
714 0 1143
973 0 1752
1238 0 2470
2590 0 0
2835 0 0
3079 0 0
3243 0 910
3390 0 2162
3527 0 3558
3649 0 4095
3759 0 4095
3808 0 4095
4095 0 0
4095 0 0
4095 0 0
4095 0 1092
4051 0 2541
3988 0 3984
3948 0 4095
3940 0 4095
3929 0 4095
3855 754 0
3858 756 0
3859 757 0
3814 715 814
3755 664 2267
3697 614 3715
3664 585 4095
3665 586 4095
3665 586 4095
3456 1895 0
3482 1922 0
3508 1948 0
3489 1930 520
3459 1903 2003
3429 1876 3479
3424 1873 4095
3448 1897 4095
3469 1918 4095
3259 3289 0
3287 3317 0
3312 3342 0
3288 3319 353
3252 3285 1831
3214 3249 3299
3194 3230 4095
3200 3236 4095
3199 3235 4095
3126 4095 0
3155 4095 0
3197 4095 0
3217 4095 1085
3244 4095 2344
3287 4058 3359
3356 4008 4016
3448 3983 4095
3546 3966 4095
3985 4000 3955
4006 4023 3981
4028 4044 4005
4049 4064 4032
4072 4086 4062
4095 4095 4091
4095 4095 4095
4095 4095 4095
4095 4095 4095
4095 4095 4095
4095 4095 4095
4095 4095 4095
4095 4095 4095
4095 4095 4095
4095 4095 4095
4095 4095 4095
4095 4095 4095
4095 4095 4095
289 0 0
627 0 0
996 0 63
1319 0 398
1624 0 925
1906 0 1604
2206 0 2357
2549 0 3125
2874 0 4012
4095 0 0
4095 0 0
4095 0 0
4095 0 876
4095 0 2314
4095 0 3771
4095 0 4095
4095 0 4095
4095 0 4095
4095 0 0
4095 0 0
4095 0 0
4095 0 983
4095 0 2433
4095 0 3876
4095 0 4095
4095 0 4095
4095 0 4095
4095 654 0
4095 659 0
4095 664 0
4095 627 721
4095 583 2182
4095 540 3636
4095 519 4095
4095 528 4095
4095 539 4095
4095 1875 0
4095 1907 0
4095 1939 0
4095 1926 518
4095 1900 2003
4095 1875 3480
4095 1870 4095
4095 1893 4095
4095 1911 4095
4095 3264 0
4095 3289 0
4095 3308 0
4095 3279 316
4095 3235 1785
4095 3189 3243
4095 3160 4095
4095 3160 4095
4095 3166 4095
4095 4095 0
4095 4095 204
4064 4068 1213
4010 4016 2251
3970 3976 3061
3945 3952 3637
3940 3946 3954
3952 3957 4061
3972 3977 4055
4070 4076 4024
4095 4095 4053
4095 4095 4081
4095 4095 4095
4095 4095 4095
4095 4095 4095
4095 4095 4095
4095 4095 4095
4095 4095 4095
4095 4095 4095
4095 4095 4095
4095 4095 4095
4095 4095 4095
4095 4095 4095
4095 4095 4095
4095 4095 4095
4095 4095 4095
4095 4095 4095
1861 0 0
2321 0 0
2750 0 0
3082 0 584
3393 0 1416
3690 0 2402
4029 0 3422
4095 0 4095
4095 0 4095
4095 0 0
4095 0 0
4095 0 0
4095 0 856
4095 0 2303
4095 0 3742
4095 0 4095
4095 0 4095
4095 0 4095
4095 0 0
4095 0 0
4095 0 0
4095 0 959
4095 0 2409
4095 0 3852
4095 0 4095
4095 0 4095
4095 0 4095
4095 646 0
4095 658 0
4095 670 0
4095 641 737
4095 605 2205
4095 573 3671
4095 562 4095
4095 580 4095
4095 597 4095
4095 1952 0
4095 1987 0
4095 2019 0
4095 2004 595
4095 1976 2078
4095 1947 3551
4095 1935 4095
4095 1952 4095
4095 1965 4095
4095 3302 0
4095 3316 0
4095 3325 0
4095 3285 350
4095 3239 1839
4095 3202 3253
4095 3197 4095
4095 3235 4095
4095 3278 4095
4095 4017 1333
4095 3996 2195
4095 3983 2907
4084 3974 3464
4027 3977 3820
3992 3992 3988
4012 4009 4013
4035 4031 4039
4062 4056 4068
4095 4095 4095
4095 4095 4095
4095 4095 4095
4095 4095 4095
4095 4095 4095
4095 4095 4095
4095 4095 4095
4095 4095 4095
4095 4095 4095
4095 4095 4095
4095 4095 4095
4095 4095 4095
4095 4095 4095
4095 4095 4095
4095 4095 4095
4095 4095 4095
4095 4095 4095
4095 4095 4095
3880 0 0
4095 0 0
4095 0 0
4095 0 658
4095 0 1787
4095 0 3071
4095 0 4095
4095 0 4095
4095 0 4095
4095 0 0
4095 0 0
4095 0 0
4095 0 815
4095 0 2263
4095 0 3705
4095 0 4095
4095 0 4095
4095 0 4095
4095 0 0
4095 0 0
4095 0 0
4095 0 929
4095 0 2381
4095 0 3826
4095 0 4095
4095 0 4095
4095 0 4095
4095 655 0
4095 677 0
4095 700 0
4095 681 777
4095 651 2253
4095 625 3724
4095 621 4095
4095 644 4095
4095 666 4095
4095 2022 0
4095 2054 0
4095 2081 0
4095 2060 651
4095 2027 2129
4095 1993 3598
4095 1977 4095
4095 1987 4095
4095 1993 4095
4095 3299 0
4095 3311 0
4095 3326 0
4095 3313 831
4095 3308 2204
4095 3318 3360
4095 3358 4095
4095 3430 4095
4095 3499 4095
4095 3980 3407
4013 3991 3903
4019 4010 3979
4038 4028 4004
4058 4047 4031
4081 4069 4061
4095 4092 4090
4095 4095 4095
4095 4095 4095
4095 4095 4095
4095 4095 4095
4095 4095 4095
4095 4095 4095
4095 4095 4095
4095 4095 4095
4095 4095 4095
4095 4095 4095
4095 4095 4095
4095 4095 4095
4095 4095 4095
4095 4095 4095
4095 4095 4095
4095 4095 4095
4095 4095 4095
4095 4095 4095
4095 4095 4095
4095 4095 4095
