3DLUTS/GC_VENOM_LUTS/Additional_Formats/3DL/GC_Venom_V-LOG/GC_Venom_Tiara_V-Log.3dl
# Converted by Briz LUT Converter
0 64 128 192 256 320 384 448 512 576 640 704 768 832 896 960 1023
0 0 0
0 0 0
0 0 0
0 0 0
0 0 0
0 0 0
0 0 0
0 0 0
0 0 0
0 0 0
0 0 0
0 0 0
0 0 0
0 0 0
0 0 0
0 0 0
0 0 0
0 0 0
0 0 0
0 0 0
0 0 0
0 0 0
0 0 0
0 0 0
0 0 0
0 0 0
0 0 0
0 0 0
0 0 0
0 0 0
0 0 0
0 0 0
0 0 0
0 0 0
0 0 0
0 0 0
0 0 0
0 0 0
0 0 0
0 0 0
0 0 0
0 0 0
0 0 0
0 0 0
0 0 0
0 0 0
0 0 0
0 0 0
0 0 0
0 0 0
0 0 0
0 0 0
0 0 0
0 0 0
0 0 0
0 0 0
2 4 6
0 15 38
0 25 90
0 34 165
0 40 257
0 45 375
0 47 518
0 49 674
0 52 849
0 52 1034
0 51 1246
0 48 1472
0 122 30
0 136 63
0 150 104
0 163 154
0 174 215
0 181 324
0 183 478
0 183 665
0 180 881
0 176 1122
0 170 1391
0 161 1696
0 157 1988
0 154 2267
0 149 2588
0 143 2926
0 136 3296
0 361 0
0 374 34
0 388 117
0 401 209
0 415 317
0 421 507
0 419 778
0 416 1110
0 410 1489
0 403 1911
0 394 2357
0 381 2858
0 373 3309
0 372 3726
0 367 4095
0 360 4095
0 352 4095
0 726 0
0 747 0
0 769 0
0 792 97
0 811 260
0 819 533
0 817 915
0 807 1384
0 793 1901
0 777 2449
0 760 3011
0 741 3596
0 731 4095
0 728 4095
0 722 4095
0 716 4095
0 712 4095
0 1238 0
0 1258 0
0 1275 0
0 1291 0
0 1304 36
0 1304 358
0 1298 763
0 1283 1270
0 1267 1815
0 1249 2379
0 1235 2947
0 1221 3506
0 1216 3999
0 1220 4095
0 1222 4095
0 1224 4095
0 1227 4095
0 1747 0
0 1767 0
0 1786 0
0 1807 0
0 1826 0
0 1833 227
0 1835 614
0 1828 1112
0 1818 1657
0 1807 2223
0 1795 2792
0 1786 3344
0 1785 3823
0 1793 4095
0 1799 4095
0 1804 4095
0 1810 4095
0 2316 0
0 2339 0
0 2363 0
0 2387 0
0 2411 0
0 2421 126
0 2427 502
0 2425 978
0 2418 1520
0 2410 2084
0 2402 2654
0 2395 3207
0 2399 3665
0 2409 4073
0 2418 4095
0 2426 4095
0 2435 4095
0 2922 0
0 2948 0
0 2976 0
0 3003 0
0 3028 0
0 3041 52
0 3051 422
0 3053 876
0 3048 1411
0 3041 1971
0 3034 2538
0 3029 3091
0 3035 3535
0 3047 3938
0 3057 4095
0 3068 4095
0 3078 4095
0 3546 0
0 3574 0
0 3601 0
0 3629 0
0 3657 0
0 3671 8
0 3680 377
0 3685 806
0 3681 1335
0 3675 1890
0 3668 2454
0 3663 3006
0 3670 3439
0 3683 3829
0 3692 4095
0 3700 4095
0 3708 4095
0 4095 0
0 4095 0
0 4095 0
0 4095 0
0 4095 0
0 4095 48
0 4095 415
0 4095 837
0 4095 1361
0 4095 1914
0 4095 2477
0 4095 3026
0 4095 3458
0 4095 3841
0 4095 4095
0 4095 4095
0 4095 4095
0 4095 0
0 4095 0
0 4095 0
0 4095 0
0 4095 0
0 4095 115
0 4095 480
0 4095 905
0 4095 1429
0 4095 1981
0 4095 2541
0 4095 3087
0 4095 3516
0 4095 3898
0 4095 4095
0 4095 4095
0 4095 4095
0 4095 0
0 4095 0
0 4095 0
0 4095 0
0 4095 0
0 4095 178
0 4095 575
0 4095 1033
0 4095 1584
0 4095 2139
0 4095 2677
0 4095 3175
0 4095 3544
0 4095 3848
0 4095 4095
101 4095 4095
312 4095 4095
0 4095 0
0 4095 87
0 4095 426
0 4095 756
154 4095 1077
381 4095 1446
595 4095 1804
809 4095 2171
999 4095 2549
1192 4095 2907
1372 4095 3229
1548 4095 3509
1718 4095 3708
1880 4095 3861
2048 4095 4015
2203 4095 4095
2368 4095 4095
1657 4095 1900
1865 4095 2156
2067 4095 2392
2243 4095 2596
2422 4095 2794
2574 4095 2988
2726 4095 3175
2852 4095 3338
2982 4095 3506
3101 4095 3653
3229 4095 3783
3352 4095 3889
3483 4095 3963
3622 4095 4017
3747 4095 4059
3870 4095 4086
4006 4095 4095
0 0 0
0 0 0
0 0 0
0 0 0
0 0 0
0 0 0
0 0 0
0 0 0
0 0 0
0 0 0
0 0 0
0 0 0
0 0 0
0 0 0
0 0 0
0 0 0
0 0 0
0 0 0
0 0 0
0 0 0
0 0 0
0 0 0
0 0 0
0 0 0
0 0 0
0 0 0
0 0 0
0 0 0
0 0 0
0 0 0
0 0 0
0 0 0
0 0 0
0 0 0
0 0 0
0 0 0
0 0 0
0 0 0
0 0 0
0 0 0
0 0 0
0 0 0
0 0 0
0 0 0
0 0 0
0 0 0
0 0 0
0 0 0
2 2 3
0 7 116
0 10 254
0 0 0
0 0 0
2 12 12
1 25 31
0 39 60
0 49 106
0 58 178
0 63 268
0 66 384
0 68 523
0 67 680
0 65 875
0 63 1073
0 62 1267
0 59 1495
0 54 1730
0 49 1998
0 169 30
0 182 76
0 193 129
0 204 192
0 213 266
0 217 402
0 216 593
0 212 819
0 206 1079
0 199 1370
0 189 1684
0 178 2059
0 170 2396
0 165 2713
0 158 3081
0 150 3479
0 141 3904
0 408 0
0 422 21
0 436 118
0 448 225
0 462 350
0 469 568
0 468 886
0 462 1266
0 453 1698
0 442 2167
0 430 2664
0 413 3217
0 404 3701
0 398 4095
0 391 4095
0 382 4095
0 372 4095
0 797 0
0 818 0
0 837 0
0 856 92
0 873 270
0 877 565
0 871 974
0 857 1467
0 841 2008
0 823 2577
0 804 3148
0 783 3735
0 771 4095
0 769 4095
0 766 4095
0 763 4095
0 760 4095
0 1295 0
0 1310 0
0 1324 0
0 1339 0
0 1352 77
0 1355 400
0 1350 811
0 1341 1324
0 1328 1872
0 1313 2440
0 1299 3007
0 1286 3569
0 1282 4062
0 1287 4095
0 1290 4095
0 1294 4095
0 1300 4095
0 1813 0
0 1834 0
0 1855 0
0 1876 0
0 1897 0
0 1905 289
0 1909 679
0 1903 1179
0 1894 1726
0 1883 2293
0 1872 2864
0 1863 3418
0 1864 3899
0 1872 4095
0 1879 4095
0 1887 4095
0 1894 4095
0 2394 0
0 2419 0
0 2444 0
0 2469 0
0 2494 0
0 2505 197
0 2512 575
0 2510 1056
0 2503 1597
0 2495 2163
0 2488 2733
0 2482 3287
0 2486 3748
0 2498 4095
0 2507 4095
0 2516 4095
0 2525 4095
0 3009 0
0 3036 0
0 3064 0
0 3093 0
0 3120 0
0 3132 130
0 3141 500
0 3143 955
0 3138 1493
0 3131 2054
0 3124 2622
0 3120 3177
0 3127 3621
0 3139 4027
0 3148 4095
0 3157 4095
0 3168 4095
0 3638 0
0 3666 0
0 3694 0
0 3722 0
0 3748 0
0 3762 87
0 3771 454
0 3774 888
0 3771 1417
0 3765 1973
0 3759 2538
0 3753 3089
0 3759 3524
0 3771 3914
0 3778 4095
0 3786 4095
0 3793 4095
0 4095 0
0 4095 0
0 4095 0
0 4095 0
0 4095 0
0 4095 122
0 4095 488
0 4095 914
0 4095 1439
0 4095 1992
0 4095 2554
0 4095 3102
0 4095 3534
0 4095 3916
0 4095 4095
0 4095 4095
0 4095 4095
0 4095 0
0 4095 0
0 4095 0
0 4095 0
0 4095 0
0 4095 182
0 4095 546
0 4095 974
0 4095 1498
0 4095 2049
0 4095 2608
0 4095 3153
0 4095 3581
0 4095 3959
0 4095 4095
0 4095 4095
0 4095 4095
0 4095 0
0 4095 0
0 4095 0
0 4095 0
0 4095 61
0 4095 456
0 4095 874
0 4095 1339
0 4095 1859
0 4095 2373
0 4095 2861
108 4095 3302
323 4095 3623
528 4095 3879
730 4095 4095
920 4095 4095
1112 4095 4095
107 4095 399
335 4095 734
561 4095 1053
797 4095 1364
1031 4095 1663
1227 4095 1974
1413 4095 2273
1600 4095 2578
1763 4095 2883
1919 4095 3166
2058 4095 3415
2202 4095 3634
2350 4095 3790
2511 4095 3911
2646 4095 4025
2787 4095 4095
2918 4095 4095
2363 4095 2483
2529 4095 2687
2704 4095 2888
2859 4095 3061
3013 4095 3224
3137 4095 3373
3265 4095 3516
3383 4095 3645
3498 4095 3766
3613 4095 3870
3717 4095 3952
3832 4095 4017
3939 4095 4059
4058 4095 4090
4069 4095 4095
4081 4095 4095
4092 4095 4095
0 0 0
0 0 0
0 0 0
0 0 0
0 0 0
0 0 0
0 0 0
0 0 0
0 0 0
0 0 0
0 0 0
0 0 0
0 0 0
0 0 0
0 0 0
0 0 0
0 0 0
0 0 0
0 0 0
0 0 0
0 0 0
0 0 0
0 0 0
0 0 0
0 0 0
0 0 0
0 0 0
0 0 0
0 0 0
0 0 0
0 0 0
0 0 0
0 0 0
0 0 0
0 0 0
0 0 0
0 0 0
0 0 0
0 0 0
0 0 0
0 0 0
0 0 0
0 0 0
0 0 0
0 0 0
2 6 50
1 10 148
0 14 271
0 15 406
0 15 568
0 13 747
9 32 16
10 45 32
10 58 57
9 70 90
6 81 132
1 87 206
0 90 310
0 92 443
0 91 602
0 87 780
0 83 987
0 76 1230
0 70 1457
0 66 1693
0 60 1947
0 52 2229
0 43 2524
0 210 23
0 219 82
0 229 148
0 238 223
0 246 313
0 248 475
0 244 701
0 238 973
0 229 1283
0 219 1628
0 206 1994
0 191 2425
0 181 2825
0 175 3200
0 165 3611
0 155 4051
0 143 4095
0 454 0
0 467 3
0 483 116
0 499 240
0 512 383
0 516 631
0 514 991
0 506 1418
0 493 1894
0 478 2405
0 461 2933
0 441 3522
0 429 4022
0 423 4095
0 413 4095
0 404 4095
0 396 4095
0 861 0
0 879 0
0 896 0
0 912 90
0 926 281
0 929 596
0 920 1025
0 904 1536
0 886 2086
0 866 2653
0 847 3217
0 827 3797
0 818 4095
0 818 4095
0 819 4095
0 820 4095
0 821 4095
0 1343 0
0 1358 0
0 1375 0
0 1393 0
0 1412 126
0 1417 454
0 1415 869
0 1406 1383
0 1393 1934
0 1380 2503
0 1367 3072
0 1355 3637
0 1352 4095
0 1360 4095
0 1364 4095
0 1368 4095
0 1374 4095
0 1883 0
0 1905 0
0 1927 0
0 1951 0
0 1973 23
0 1982 353
0 1985 746
0 1980 1250
0 1972 1798
0 1961 2367
0 1951 2938
0 1945 3493
0 1946 3981
0 1956 4095
0 1963 4095
0 1971 4095
0 1978 4095
0 2476 0
0 2502 0
0 2528 0
0 2554 0
0 2579 0
0 2591 269
0 2598 649
0 2596 1133
0 2590 1676
0 2583 2243
0 2576 2815
0 2572 3371
0 2576 3835
0 2587 4095
0 2596 4095
0 2605 4095
0 2614 4095
0 3099 0
0 3127 0
0 3154 0
0 3182 0
0 3209 0
0 3223 206
0 3232 578
0 3234 1038
0 3230 1576
0 3223 2139
0 3217 2706
0 3211 3261
0 3218 3707
0 3229 4095
0 3238 4095
0 3247 4095
0 3256 4095
0 3729 0
0 3757 0
0 3785 0
0 3812 0
0 3839 0
0 3852 165
0 3862 532
0 3865 968
0 3861 1499
0 3854 2055
0 3846 2619
0 3840 3170
0 3845 3604
0 3856 3997
0 3863 4095
0 3871 4095
0 3878 4095
0 4095 0
0 4095 0
0 4095 0
0 4095 0
0 4095 0
0 4095 195
0 4095 561
0 4095 988
0 4095 1514
0 4095 2067
0 4095 2627
0 4095 3176
0 4095 3606
0 4095 3991
0 4095 4095
0 4095 4095
0 4095 4095
0 4095 0
0 4095 0
0 4095 0
0 4095 0
0 4095 0
0 4095 247
0 4095 609
0 4095 1039
0 4095 1564
0 4095 2120
0 4095 2682
0 4095 3224
0 4095 3641
0 4095 3995
0 4095 4095
0 4095 4095
0 4095 4095
0 4095 0
0 4095 0
0 4095 0
0 4095 162
0 4095 477
0 4095 869
10 4095 1281
197 4095 1718
383 4095 2192
565 4095 2645
747 4095 3062
935 4095 3433
1117 4095 3696
1302 4095 3905
1490 4095 4095
1658 4095 4095
1809 4095 4095
959 4095 1083
1183 4095 1397
1395 4095 1685
1592 4095 1946
1786 4095 2194
1965 4095 2461
2117 4095 2700
2263 4095 2936
2392 4095 3172
2531 4095 3396
2655 4095 3589
2779 4095 3755
2901 4095 3870
3038 4095 3959
3162 4095 4039
3294 4095 4095
3418 4095 4095
2959 4095 3002
3109 4095 3178
3245 4095 3331
3387 4095 3481
3515 4095 3612
3635 4095 3735
3737 4095 3836
3844 4095 3930
3942 4095 4007
4025 4095 4061
4066 4095 4089
4076 4095 4095
4088 4095 4095
4095 4095 4095
4095 4095 4095
4095 4095 4095
4095 4095 4095
0 0 0
0 0 0
0 0 0
0 0 0
0 0 0
0 0 0
0 0 0
0 0 0
0 0 0
0 0 0
0 0 0
0 0 0
0 0 0
0 0 0
0 0 0
0 0 0
0 0 0
0 0 0
0 0 0
0 0 0
0 0 0
0 0 0
0 0 0
0 0 0
0 0 0
0 0 0
0 0 0
0 0 0
0 0 0
0 0 0
0 0 0
0 0 0
0 0 0
