3DLUTS/GC_VENOM_LUTS/Additional_Formats/3DL/GC_Venom_V-LOG/GC_Venom_Adara_V-Log.3dl
# Converted by Briz LUT Converter
0 128 256 384 512 640 768 896 1023
0 0 0
0 0 0
0 0 0
0 0 0
0 0 0
0 0 0
0 0 0
0 0 0
0 0 0
0 0 0
0 0 0
0 0 0
0 0 0
0 0 0
0 0 0
0 0 0
0 0 0
0 0 0
0 94 0
0 150 26
0 203 170
0 217 560
0 209 1153
0 176 2011
0 141 3044
0 115 4095
0 72 4095
0 1596 0
0 1639 0
0 1673 0
0 1636 1278
0 1547 3134
0 1419 4095
0 1295 4095
0 1220 4095
0 1138 4095
0 3017 0
0 3007 0
0 2999 0
0 2952 556
0 2867 2349
0 2760 4095
0 2641 4095
0 2571 4095
0 2493 4095
0 4095 0
0 4095 0
0 4095 0
0 4095 0
0 4095 1532
0 4095 3505
0 4038 4095
0 3970 4095
0 3895 4095
0 4095 0
0 4095 0
0 4095 0
0 4095 0
0 4095 783
0 4095 2720
0 4095 4095
0 4095 4095
0 4095 4095
0 4095 0
0 4095 0
0 4095 0
0 4095 0
0 4095 456
0 4095 2372
0 4095 4095
0 4095 4095
0 4095 4095
1615 4095 1914
2651 4095 2953
3479 4095 3661
4018 4095 4051
4044 4095 4085
4060 4095 4095
4077 4095 4095
4095 4095 4095
4095 4095 4095
0 0 0
0 0 0
0 0 0
0 0 0
0 0 0
0 0 0
0 0 0
0 0 0
0 0 0
0 0 0
0 0 0
0 0 0
0 0 0
0 0 0
0 0 0
0 0 0
0 0 0
0 0 0
0 281 0
0 308 0
0 335 267
0 314 1042
0 269 2165
0 186 3749
0 99 4095
0 28 4095
0 0 4095
0 1642 0
0 1631 0
0 1626 0
0 1573 1208
0 1481 3067
0 1354 4095
0 1231 4095
0 1158 4095
0 1077 4095
0 2963 0
0 2955 0
0 2949 0
0 2904 496
0 2820 2297
0 2712 4095
0 2595 4095
0 2525 4095
0 2448 4095
0 4095 0
0 4095 0
0 4095 0
0 4095 0
0 4095 1477
0 4095 3462
0 4001 4095
0 3932 4095
0 3856 4095
0 4095 0
0 4095 0
0 4095 0
0 4095 0
0 4095 725
0 4095 2668
0 4095 4095
0 4095 4095
0 4095 4095
0 4095 0
0 4095 0
0 4095 0
0 4095 0
0 4095 1144
0 4095 2725
0 4095 4095
0 4095 4095
0 4095 4095
4072 4095 4073
4095 4095 4095
4095 4095 4095
4095 4095 4095
4095 4095 4095
4095 4095 4095
4095 4095 4095
4095 4095 4095
4095 4095 4095
0 0 0
0 0 0
0 0 0
0 0 0
0 0 0
0 0 0
0 0 0
0 0 0
0 0 0
0 0 0
0 0 0
0 0 0
0 0 0
0 0 0
0 0 0
0 0 0
22 0 306
36 0 833
435 307 0
444 307 0
451 307 211
391 255 1373
290 172 3008
138 41 4095
0 0 4095
0 0 4095
0 0 4095
0 1534 0
0 1524 0
0 1521 0
0 1471 1101
0 1385 2970
0 1261 4095
0 1140 4095
0 1068 4095
0 988 4095
0 2888 0
0 2880 0
0 2876 0
0 2832 414
0 2750 2222
0 2642 4095
0 2524 4095
0 2456 4095
0 2379 4095
0 4095 0
0 4095 0
0 4095 0
0 4095 0
0 4095 1403
0 4056 3398
0 3942 4095
0 3873 4095
0 3796 4095
0 4095 0
0 4095 0
0 4095 0
0 4095 0
0 4095 647
0 4095 2597
0 4095 4095
0 4095 4095
0 4095 4095
0 4095 0
0 4095 0
0 4095 29
267 4095 1314
865 4095 2446
1374 4095 3352
1810 4095 4024
2352 4095 4095
2806 4095 4095
4095 4095 4095
4095 4095 4095
4095 4095 4095
4095 4095 4095
4095 4095 4095
4095 4095 4095
4095 4095 4095
4095 4095 4095
4095 4095 4095
0 0 0
0 0 0
0 0 0
0 0 0
0 0 0
0 0 0
0 0 0
0 0 0
0 0 0
0 0 0
150 0 0
323 0 62
430 0 289
503 0 676
541 0 1249
600 0 2009
700 0 2955
804 0 4095
2098 76 0
2212 44 0
2316 21 0
2311 0 1367
2244 0 3252
2113 0 4095
1980 0 4095
1903 0 4095
1818 0 4095
1722 1218 0
1715 1210 0
1713 1207 0
1652 1156 804
1551 1068 2655
1417 947 4095
1288 826 4095
1216 754 4095
1136 675 4095
831 2563 0
825 2556 0
822 2551 0
770 2507 114
676 2427 1908
558 2322 3990
433 2205 4095
364 2136 4095
288 2061 4095
0 3970 0
0 3961 0
0 3954 0
0 3907 0
0 3828 1111
0 3729 3086
0 3620 4095
0 3550 4095
0 3472 4095
0 4095 0
0 4095 0
0 4095 0
0 4095 0
0 4095 374
0 4095 2321
0 4095 4095
0 4095 4095
0 4095 4095
1845 4095 427
2452 4095 1707
3012 4095 2707
3392 4095 3369
3691 4095 3793
3911 4095 4015
4061 4095 4095
4082 4095 4095
4095 4095 4095
4095 4095 4095
4095 4095 4095
4095 4095 4095
4095 4095 4095
4095 4095 4095
4095 4095 4095
4095 4095 4095
4095 4095 4095
4095 4095 4095
0 0 0
0 0 0
0 0 0
0 0 0
0 0 0
0 0 0
0 0 0
0 0 0
0 0 0
1204 0 0
1492 0 0
1783 0 49
1962 0 635
2089 0 1506
2206 0 2760
2343 0 4095
2588 0 4095
2829 0 4095
4095 0 0
4095 0 0
4095 0 0
4095 0 1117
4095 0 2989
4095 0 4095
4039 0 4095
3963 0 4095
3881 0 4095
3796 920 0
3789 912 0
3788 909 0
3733 861 532
3638 774 2364
3513 657 4095
3389 538 4095
3318 467 4095
3240 389 4095
2956 2264 0
2949 2256 0
2945 2250 0
2896 2206 0
2809 2126 1623
2700 2024 3658
2581 1908 4095
2512 1839 4095
2434 1763 4095
2048 3649 0
2038 3639 0
2028 3630 0
1983 3581 0
1906 3502 832
1810 3402 2780
1701 3293 4095
1631 3223 4095
1553 3146 4095
1227 4095 0
1252 4095 0
1318 4095 0
1376 4095 0
1446 4095 597
1531 4095 2334
1662 4095 3908
1849 4095 4095
2044 4095 4095
3984 4095 3808
4091 4095 4059
4095 4095 4093
4095 4095 4095
4095 4095 4095
4095 4095 4095
4095 4095 4095
4095 4095 4095
4095 4095 4095
4095 4095 4095
4095 4095 4095
4095 4095 4095
4095 4095 4095
4095 4095 4095
4095 4095 4095
4095 4095 4095
4095 4095 4095
4095 4095 4095
0 0 0
0 0 0
0 0 0
0 0 0
0 0 0
0 0 0
0 0 0
0 0 0
1 1 1
3368 0 0
3749 0 0
4095 0 0
4095 0 769
4095 0 2134
4095 0 4009
4095 0 4095
4095 0 4095
4095 0 4095
4095 0 0
4095 0 0
4095 0 0
4095 0 854
4095 0 2710
4095 0 4095
4095 0 4095
4095 0 4095
4095 0 4095
4095 650 0
4095 642 0
4095 639 0
4095 593 289
4095 508 2103
4095 395 4095
4095 276 4095
4095 207 4095
4095 130 4095
4095 1993 0
4095 1986 0
4095 1980 0
4095 1935 0
4095 1855 1366
4095 1755 3366
4095 1642 4095
4095 1573 4095
4095 1496 4095
4095 3364 0
4090 3353 0
4078 3342 0
4030 3289 0
3956 3212 585
3862 3113 2508
3757 3007 4095
3686 2936 4095
3606 2857 4095
3338 4095 0
3363 4095 0
3407 4095 0
3436 4095 370
3467 4095 1699
3496 4095 2885
3536 4055 3801
3599 4022 4095
3664 4001 4095
4095 4095 4095
4095 4095 4095
4095 4095 4095
4095 4095 4095
4095 4095 4095
4095 4095 4095
4095 4095 4095
4095 4095 4095
4095 4095 4095
4095 4095 4095
4095 4095 4095
4095 4095 4095
4095 4095 4095
4095 4095 4095
4095 4095 4095
4095 4095 4095
4095 4095 4095
4095 4095 4095
0 0 0
0 0 0
171 0 7
469 0 86
731 0 283
939 0 608
1190 0 1095
1599 0 1804
2007 0 2721
4095 0 0
4095 0 0
4095 0 0
4095 0 769
4095 0 2506
4095 0 4095
4095 0 4095
4095 0 4095
4095 0 4095
4095 0 0
4095 0 0
4095 0 0
4095 0 682
4095 0 2527
4095 0 4095
4095 0 4095
4095 0 4095
4095 0 4095
4095 473 0
4095 466 0
4095 462 0
4095 416 126
4095 333 1931
4095 223 4048
4095 104 4095
4095 35 4095
4095 0 4095
4095 1817 0
4095 1808 0
4095 1802 0
4095 1757 0
4095 1677 1196
4095 1577 3178
4095 1464 4095
4095 1395 4095
4095 1317 4095
4095 3174 0
4095 3163 0
4095 3151 0
4095 3095 0
4095 3017 413
4095 2918 2321
4095 2818 4095
4095 2763 4095
4095 2715 4095
4095 4095 0
4095 4095 332
4095 4095 1557
4095 4069 2553
4095 4051 3225
4095 4043 3707
4095 4048 3993
4091 4071 4095
4095 4095 4095
4095 4095 4095
4095 4095 4095
4095 4095 4095
4095 4095 4095
4095 4095 4095
4095 4095 4095
4095 4095 4095
4095 4095 4095
4095 4095 4095
4095 4095 4095
4095 4095 4095
4095 4095 4095
4095 4095 4095
4095 4095 4095
4095 4095 4095
4095 4095 4095
4095 4095 4095
4095 4095 4095
1393 0 0
1989 0 0
2575 0 0
2978 0 378
3314 0 1036
3609 0 1960
4003 0 3146
4095 0 4095
4095 0 4095
4095 0 0
4095 0 0
4095 0 0
4095 0 719
4095 0 2550
4095 0 4095
4095 0 4095
4095 0 4095
4095 0 4095
4095 0 0
4095 0 0
4095 0 0
4095 0 615
4095 0 2463
4095 0 4095
4095 0 4095
4095 0 4095
4095 0 4095
4095 412 0
4095 406 0
4095 403 0
4095 357 62
4095 273 1870
4095 163 3995
4095 44 4095
4095 0 4095
4095 0 4095
4095 1756 0
4095 1747 0
4095 1739 0
4095 1693 0
4095 1613 1130
4095 1511 3115
4095 1397 4095
4095 1326 4095
4095 1249 4095
4095 3103 0
4095 3090 0
4095 3081 0
4095 3037 0
4095 2981 543
4095 2922 2387
4095 2882 4095
4095 2901 4095
4095 2927 4095
4095 4073 2638
4095 4078 3482
4095 4094 4045
4095 4095 4076
4095 4095 4095
4095 4095 4095
4095 4095 4095
4095 4095 4095
4095 4095 4095
4095 4095 4095
4095 4095 4095
4095 4095 4095
4095 4095 4095
4095 4095 4095
4095 4095 4095
4095 4095 4095
4095 4095 4095
4095 4095 4095
4095 4095 4095
4095 4095 4095
4095 4095 4095
4095 4095 4095
4095 4095 4095
4095 4095 4095
4095 4095 4095
4095 4095 4095
4095 4095 4095
4095 0 0
4095 0 0
4095 0 0
4095 0 560
4095 0 1706
4095 0 3269
4095 0 4095
4095 0 4095
4095 0 4095
4095 0 0
4095 0 0
4095 0 0
4095 0 637
4095 0 2469
4095 0 4095
4095 0 4095
4095 0 4095
4095 0 4095
4095 0 0
4095 0 0
4095 0 0
4095 0 545
4095 0 2394
4095 0 4095
4095 0 4095
4095 0 4095
4095 0 4095
4095 346 0
4095 340 0
4095 338 0
4095 292 0
4095 207 1804
4095 95 3932
4095 0 4095
4095 0 4095
4095 0 4095
4095 1686 0
4095 1677 0
4095 1669 0
4095 1621 0
4095 1540 1056
4095 1437 3041
4095 1321 4095
4095 1250 4095
4095 1170 4095
4095 3053 0
4095 3073 0
4095 3111 0
4095 3129 0
4095 3148 1375
4095 3166 2802
4095 3198 4001
4095 3277 4095
4095 3343 4095
4095 4095 4094
4095 4095 4095
4095 4095 4095
4095 4095 4095
4095 4095 4095
4095 4095 4095
4095 4095 4095
4095 4095 4095
4095 4095 4095
4095 4095 4095
4095 4095 4095
4095 4095 4095
4095 4095 4095
4095 4095 4095
4095 4095 4095
4095 4095 4095
4095 4095 4095
4095 4095 4095
4095 4095 4095
4095 4095 4095
4095 4095 4095
4095 4095 4095
4095 4095 4095
4095 4095 4095
4095 4095 4095
4095 4095 4095
4095 4095 4095
