3DLUTS/GC_VENOM_LUTS/Additional_Formats/3DL/GC_Venom_V-LOG/GC_Venom_Adara_V-Log.3dl
# Converted by Briz LUT Converter
0 64 128 192 256 320 384 448 512 576 640 704 768 832 896 960 1023
0 0 0
0 0 0
0 0 0
0 0 0
0 0 0
0 0 0
0 0 0
0 0 0
0 0 0
0 0 0
0 0 0
0 0 0
0 0 0
0 0 0
0 0 0
0 0 0
0 0 0
0 0 0
0 0 0
0 0 0
0 0 0
0 0 0
0 0 0
0 0 0
0 0 0
0 0 0
0 0 0
0 0 0
0 0 0
0 0 0
0 0 0
0 0 0
0 0 0
0 0 0
0 0 0
0 0 0
0 0 0
0 0 0
0 0 0
0 0 0
0 0 0
0 0 0
0 0 0
0 0 0
0 0 0
0 0 0
0 0 0
0 0 0
0 0 0
0 0 0
0 0 0
0 0 0
0 0 0
0 0 0
0 0 0
0 0 0
0 0 0
0 0 0
0 0 0
0 0 0
0 0 0
0 0 0
0 0 0
0 0 0
0 0 0
0 0 0
0 0 0
0 3 44
0 94 0
0 123 0
0 150 26
0 178 84
0 203 170
0 213 337
0 217 560
0 215 831
0 209 1153
0 196 1545
0 176 2011
0 155 2517
0 141 3044
0 131 3619
0 115 4095
0 96 4095
0 72 4095
0 712 0
0 736 0
0 761 0
0 789 0
0 819 206
0 824 651
0 815 1226
0 800 1904
0 781 2690
0 752 3604
0 705 4095
0 655 4095
0 622 4095
0 600 4095
0 570 4095
0 536 4095
0 498 4095
0 1596 0
0 1618 0
0 1639 0
0 1658 0
0 1673 0
0 1665 481
0 1636 1278
0 1596 2168
0 1547 3134
0 1492 4095
0 1419 4095
0 1346 4095
0 1295 4095
0 1261 4095
0 1220 4095
0 1179 4095
0 1138 4095
0 2355 0
0 2349 0
0 2344 0
0 2341 0
0 2337 0
0 2319 143
0 2286 923
0 2245 1798
0 2197 2744
0 2144 3756
0 2081 4095
0 2008 4095
0 1959 4095
0 1925 4095
0 1886 4095
0 1847 4095
0 1807 4095
0 3017 0
0 3011 0
0 3007 0
0 3003 0
0 2999 0
0 2982 0
0 2952 556
0 2913 1416
0 2867 2349
0 2818 3341
0 2760 4095
0 2689 4095
0 2641 4095
0 2609 4095
0 2571 4095
0 2532 4095
0 2493 4095
0 3694 0
0 3689 0
0 3685 0
0 3681 0
0 3677 0
0 3656 0
0 3631 188
0 3594 1033
0 3551 1952
0 3503 2926
0 3449 3964
0 3382 4095
0 3334 4095
0 3303 4095
0 3266 4095
0 3228 4095
0 3189 4095
0 4095 0
0 4095 0
0 4095 0
0 4095 0
0 4095 0
0 4095 0
0 4095 0
0 4095 624
0 4095 1532
0 4095 2494
0 4095 3505
0 4085 4095
0 4038 4095
0 4007 4095
0 3970 4095
0 3933 4095
0 3895 4095
0 4095 0
0 4095 0
0 4095 0
0 4095 0
0 4095 0
0 4095 0
0 4095 0
0 4095 182
0 4095 1080
0 4095 2029
0 4095 3025
0 4095 4095
0 4095 4095
0 4095 4095
0 4095 4095
0 4095 4095
0 4095 4095
0 4095 0
0 4095 0
0 4095 0
0 4095 0
0 4095 0
0 4095 0
0 4095 0
0 4095 0
0 4095 783
0 4095 1729
0 4095 2720
0 4095 3806
0 4095 4095
0 4095 4095
0 4095 4095
0 4095 4095
0 4095 4095
0 4095 0
0 4095 0
0 4095 0
0 4095 0
0 4095 0
0 4095 0
0 4095 0
0 4095 0
0 4095 582
0 4095 1531
0 4095 2525
0 4095 3620
0 4095 4095
0 4095 4095
0 4095 4095
0 4095 4095
0 4095 4095
0 4095 0
0 4095 0
0 4095 0
0 4095 0
0 4095 0
0 4095 0
0 4095 0
0 4095 0
0 4095 456
0 4095 1406
0 4095 2372
0 4095 3396
0 4095 4095
0 4095 4095
0 4095 4095
0 4095 4095
0 4095 4095
0 4095 0
0 4095 0
0 4095 0
0 4095 0
0 4095 0
0 4095 0
0 4095 634
0 4095 1323
0 4095 1963
0 4095 2556
0 4095 3097
0 4095 3595
121 4095 3978
490 4095 4095
839 4095 4095
1181 4095 4095
1524 4095 4095
1615 4095 1914
2162 4095 2483
2651 4095 2953
3085 4095 3340
3479 4095 3661
3766 4095 3885
4018 4095 4051
4035 4095 4070
4044 4095 4085
4052 4095 4095
4060 4095 4095
4068 4095 4095
4077 4095 4095
4088 4095 4095
4095 4095 4095
4095 4095 4095
4095 4095 4095
0 0 0
0 0 0
0 0 0
0 0 0
0 0 0
0 0 0
0 0 0
0 0 0
0 0 0
0 0 0
0 0 0
0 0 0
0 0 0
0 0 0
0 0 0
0 0 0
0 0 0
0 0 0
0 0 0
0 0 0
0 0 0
0 0 0
0 0 0
0 0 0
0 0 0
0 0 0
0 0 0
0 0 0
0 0 0
0 0 0
0 0 0
0 0 0
0 0 0
0 0 0
0 0 0
0 0 0
0 0 0
0 0 0
0 0 0
0 0 0
0 0 0
0 0 0
0 0 0
0 0 0
0 0 0
0 0 0
0 0 0
0 0 0
0 0 0
0 0 0
0 0 0
0 0 0
0 0 0
0 0 0
0 0 0
0 0 0
0 0 0
0 0 0
0 0 0
0 0 0
2 2 2
0 5 49
0 7 129
0 9 281
0 10 499
0 7 765
0 1 1079
0 0 1453
0 204 0
0 225 0
0 247 7
0 268 106
0 286 235
0 288 489
0 282 818
0 271 1211
0 254 1667
0 230 2217
0 197 2881
0 163 3607
0 137 4095
0 115 4095
0 88 4095
0 56 4095
0 20 4095
0 803 0
0 826 0
0 846 0
0 866 0
0 891 165
0 891 688
0 879 1367
0 857 2156
0 826 3049
0 784 4071
0 724 4095
0 661 4095
0 617 4095
0 585 4095
0 546 4095
0 505 4095
0 462 4095
0 1649 0
0 1657 0
0 1662 0
0 1664 0
0 1663 0
0 1643 443
0 1608 1245
0 1564 2137
0 1516 3101
0 1461 4095
0 1389 4095
0 1315 4095
0 1264 4095
0 1230 4095
0 1190 4095
0 1149 4095
0 1108 4095
0 2325 0
0 2319 0
0 2314 0
0 2311 0
0 2308 0
0 2291 108
0 2258 891
0 2218 1769
0 2171 2717
0 2119 3730
0 2054 4095
0 1981 4095
0 1932 4095
0 1899 4095
0 1860 4095
0 1821 4095
0 1782 4095
0 2991 0
0 2985 0
0 2981 0
0 2978 0
0 2975 0
0 2958 0
0 2929 528
0 2890 1391
0 2845 2324
0 2795 3317
0 2737 4095
0 2666 4095
0 2618 4095
0 2586 4095
0 2548 4095
0 2511 4095
0 2472 4095
0 3672 0
0 3667 0
0 3664 0
0 3660 0
0 3657 0
0 3637 0
0 3613 160
0 3575 1008
0 3531 1928
0 3483 2904
0 3429 3946
0 3361 4095
0 3314 4095
0 3283 4095
0 3247 4095
0 3209 4095
0 3171 4095
0 4095 0
0 4095 0
0 4095 0
0 4095 0
0 4095 0
0 4095 0
0 4095 0
0 4095 594
0 4095 1506
0 4095 2470
0 4095 3484
0 4068 4095
0 4021 4095
0 3990 4095
0 3953 4095
0 3915 4095
0 3876 4095
0 4095 0
0 4095 0
0 4095 0
0 4095 0
0 4095 0
0 4095 0
0 4095 0
0 4095 154
0 4095 1052
0 4095 2004
0 4095 3002
0 4095 4095
0 4095 4095
0 4095 4095
0 4095 4095
0 4095 4095
0 4095 4095
0 4095 0
0 4095 0
0 4095 0
0 4095 0
0 4095 0
0 4095 0
0 4095 0
0 4095 0
0 4095 754
0 4095 1704
0 4095 2696
0 4095 3790
0 4095 4095
0 4095 4095
0 4095 4095
0 4095 4095
0 4095 4095
0 4095 0
0 4095 0
0 4095 0
0 4095 0
0 4095 0
0 4095 0
0 4095 0
0 4095 0
0 4095 552
0 4095 1503
0 4095 2497
0 4095 3599
0 4095 4095
0 4095 4095
0 4095 4095
0 4095 4095
0 4095 4095
0 4095 0
0 4095 0
0 4095 0
0 4095 0
0 4095 0
0 4095 0
0 4095 0
0 4095 0
0 4095 709
0 4095 1610
0 4095 2501
0 4095 3423
0 4095 4095
0 4095 4095
0 4095 4095
0 4095 4095
0 4095 4095
0 4095 0
0 4095 0
0 4095 0
0 4095 0
0 4095 514
0 4095 1153
65 4095 1704
467 4095 2236
828 4095 2710
1137 4095 3114
1407 4095 3460
1660 4095 3769
1958 4095 4000
2303 4095 4095
2590 4095 4095
2863 4095 4095
3129 4095 4095
3497 4095 3539
3841 4095 3871
4037 4095 4047
4052 4095 4066
4066 4095 4083
4077 4095 4095
4087 4095 4095
4095 4095 4095
4095 4095 4095
4095 4095 4095
4095 4095 4095
4095 4095 4095
4095 4095 4095
4095 4095 4095
4095 4095 4095
4095 4095 4095
4095 4095 4095
0 0 0
0 0 0
0 0 0
0 0 0
0 0 0
0 0 0
0 0 0
0 0 0
0 0 0
0 0 0
0 0 0
0 0 0
0 0 0
0 0 0
0 0 0
0 0 0
0 0 0
0 0 0
0 0 0
0 0 0
0 0 0
0 0 0
0 0 0
0 0 0
0 0 0
0 0 0
0 0 0
0 0 0
0 0 0
0 0 0
0 0 0
0 0 0
0 0 0
0 0 0
0 0 0
0 0 0
0 0 0
0 0 0
0 0 0
0 0 0
0 0 0
0 0 0
0 0 0
0 0 0
0 0 0
0 0 0
0 0 0
0 0 0
0 0 0
0 0 0
0 0 0
0 0 0
0 0 0
0 0 0
3 7 7
2 23 34
0 31 83
0 37 161
0 39 269
0 38 407
0 33 580
0 24 792
0 14 1038
0 4 1345
0 0 1719
0 0 2142
0 0 2615
0 0 3156
0 281 0
0 295 0
0 308 0
0 322 98
0 335 267
0 328 608
0 314 1042
0 294 1559
0 269 2165
0 233 2889
0 186 3749
0 137 4095
0 99 4095
0 67 4095
0 28 4095
0 0 4095
0 0 4095
0 866 0
0 881 0
0 898 0
0 917 0
0 936 101
0 927 695
0 905 1454
0 873 2321
0 832 3286
0 779 4095
0 707 4095
0 635 4095
0 584 4095
0 549 4095
0 508 4095
0 467 4095
0 425 4095
0 1642 0
0 1636 0
0 1631 0
0 1628 0
0 1626 0
0 1608 403
0 1573 1208
0 1530 2101
0 1481 3067
0 1426 4095
0 1354 4095
0 1281 4095
0 1231 4095
0 1197 4095
0 1158 4095
0 1118 4095
0 1077 4095
0 2292 0
0 2287 0
0 2282 0
0 2279 0
0 2278 0
0 2261 72
0 2229 858
0 2188 1736
0 2142 2686
0 2089 3703
0 2025 4095
0 1952 4095
0 1904 4095
0 1872 4095
0 1833 4095
0 1794 4095
0 1754 4095
0 2963 0
0 2958 0
0 2955 0
0 2953 0
0 2949 0
0 2933 0
0 2904 496
0 2865 1361
0 2820 2297
0 2770 3293
0 2712 4095
0 2642 4095
0 2595 4095
0 2562 4095
0 2525 4095
0 2487 4095
0 2448 4095
0 3649 0
0 3645 0
0 3641 0
0 3639 0
0 3635 0
0 3615 0
0 3590 130
0 3553 980
0 3509 1903
0 3461 2881
0 3408 3929
0 3340 4095
0 3293 4095
0 3262 4095
0 3224 4095
0 3187 4095
0 3148 4095
0 4095 0
0 4095 0
0 4095 0
0 4095 0
0 4095 0
0 4095 0
0 4095 0
0 4095 565
0 4095 1477
0 4095 2444
0 4095 3462
0 4048 4095
0 4001 4095
0 3969 4095
0 3932 4095
0 3894 4095
0 3856 4095
0 4095 0
0 4095 0
0 4095 0
0 4095 0
0 4095 0
0 4095 0
0 4095 0
0 4095 125
0 4095 1024
0 4095 1978
0 4095 2977
0 4095 4093
0 4095 4095
0 4095 4095
0 4095 4095
0 4095 4095
0 4095 4095
0 4095 0
0 4095 0
0 4095 0
0 4095 0
0 4095 0
0 4095 0
0 4095 0
0 4095 0
0 4095 725
0 4095 1674
0 4095 2668
0 4095 3768
0 4095 4095
0 4095 4095
0 4095 4095
0 4095 4095
0 4095 4095
0 4095 0
0 4095 0
0 4095 0
0 4095 0
0 4095 0
0 4095 0
0 4095 0
0 4095 0
0 4095 520
0 4095 1471
0 4095 2469
0 4095 3573
0 4095 4095
0 4095 4095
0 4095 4095
0 4095 4095
0 4095 4095
0 4095 0
0 4095 0
0 4095 0
0 4095 0
0 4095 0
0 4095 0
0 4095 0
0 4095 319
0 4095 1144
0 4095 1952
0 4095 2725
0 4095 3495
0 4095 4095
0 4095 4095
0 4095 4095
0 4095 4095
0 4095 4095
0 4095 0
0 4095 92
310 4095 750
805 4095 1352
1300 4095 1908
1698 4095 2402
2047 4095 2793
2333 4095 3124
2592 4095 3406
2843 4095 3642
3071 4095 3826
3260 4095 3964
3475 4095 4055
3714 4095 4095
3927 4095 4095
4037 4095 4095
4047 4095 4095
4072 4095 4073
4086 4095 4090
4095 4095 4095
4095 4095 4095
4095 4095 4095
4095 4095 4095
4095 4095 4095
4095 4095 4095
4095 4095 4095
4095 4095 4095
4095 4095 4095
4095 4095 4095
4095 4095 4095
4095 4095 4095
4095 4095 4095
4095 4095 4095
4095 4095 4095
0 0 0
0 0 0
0 0 0
0 0 0
0 0 0
0 0 0
0 0 0
0 0 0
0 0 0
0 0 0
0 0 0
0 0 0
0 0 0
0 0 0
0 0 0
0 0 0
0 0 0
0 0 0
0 0 0
0 0 0
0 0 0
0 0 0
0 0 0
0 0 0
0 0 0
0 0 0
0 0 0
0 0 0
0 0 0
0 0 0
0 0 0
0 0 0
0 0 0
