3DLUTS/GC_VENOM_LUTS/Additional_Formats/3DL/GC_Venom_V-LOG/GC_Venom_Vlasta_V-Log.3dl
# Converted by Briz LUT Converter
0 64 128 192 256 320 384 448 512 576 640 704 768 832 896 960 1023
0 0 0
0 0 0
0 0 0
0 0 0
0 0 0
0 0 0
0 0 0
0 0 0
0 0 0
0 0 0
0 0 0
0 0 0
0 0 0
0 0 0
0 0 0
0 0 0
0 0 0
0 0 0
0 0 0
0 0 0
0 0 0
0 0 0
0 0 0
0 0 0
0 0 0
0 0 0
0 0 0
0 0 0
0 0 0
0 0 0
0 0 0
0 0 0
0 0 0
0 0 0
0 0 0
0 0 0
0 0 0
0 0 0
0 0 0
0 0 0
0 0 0
0 0 0
0 0 0
0 0 0
0 0 0
0 0 0
0 0 0
0 0 0
0 0 0
0 0 0
0 0 0
0 0 0
0 0 0
0 0 0
0 0 0
0 0 0
0 0 0
0 0 0
2 2 2
0 5 33
0 8 71
0 9 125
0 11 194
0 12 282
0 13 399
0 13 529
0 11 667
0 9 827
0 146 0
0 153 0
0 158 0
0 157 87
0 156 218
0 148 403
0 139 601
0 129 804
0 118 1021
0 108 1248
0 97 1483
0 87 1734
0 81 1976
0 76 2242
0 70 2527
0 63 2850
0 55 3186
0 463 0
0 467 0
0 468 0
0 467 0
0 454 179
0 433 618
0 413 1067
0 393 1530
0 376 2024
0 358 2538
0 341 3068
0 325 3617
0 317 4095
0 315 4095
0 311 4095
0 305 4095
0 298 4095
0 996 0
0 1011 0
0 1028 0
0 1040 0
0 1037 0
0 999 544
0 972 1340
0 947 2142
0 924 2957
0 901 3773
0 877 4095
0 857 4095
0 851 4095
0 853 4095
0 851 4095
0 848 4095
0 844 4095
0 1821 0
0 1832 0
0 1836 0
0 1831 0
0 1813 0
0 1741 137
0 1689 1153
0 1643 2095
0 1600 2993
0 1561 3848
0 1527 4095
0 1498 4095
0 1485 4095
0 1483 4095
0 1479 4095
0 1476 4095
0 1473 4095
0 2488 0
0 2483 0
0 2478 0
0 2470 0
0 2455 0
0 2387 0
0 2331 778
0 2286 1748
0 2244 2664
0 2208 3533
0 2176 4095
0 2148 4095
0 2137 4095
0 2137 4095
0 2135 4095
0 2133 4095
0 2132 4095
0 3140 0
0 3139 0
0 3136 0
0 3131 0
0 3121 0
0 3066 0
0 3000 421
0 2954 1421
0 2914 2355
0 2877 3235
0 2846 4062
0 2819 4095
0 2810 4095
0 2811 4095
0 2810 4095
0 2810 4095
0 2810 4095
0 3807 0
0 3808 0
0 3808 0
0 3806 0
0 3799 0
0 3755 0
0 3682 88
0 3634 1122
0 3593 2073
0 3557 2964
0 3526 3800
0 3500 4095
0 3491 4095
0 3493 4095
0 3493 4095
0 3494 4095
0 3495 4095
0 4095 0
0 4095 0
0 4095 0
0 4095 0
0 4095 0
0 4095 0
0 4095 0
0 4095 857
0 4095 1825
0 4095 2727
0 4095 3570
0 4095 4095
0 4095 4095
0 4095 4095
0 4095 4095
0 4095 4095
0 4095 4095
0 4095 0
0 4095 0
0 4095 0
0 4095 0
0 4095 0
0 4095 0
0 4095 0
0 4095 753
0 4095 1725
0 4095 2629
0 4095 3474
0 4095 4095
0 4095 4095
0 4095 4095
0 4095 4095
0 4095 4095
0 4095 4095
0 4095 0
0 4095 0
0 4095 0
0 4095 0
0 4095 0
0 4095 0
0 4095 0
0 4095 747
0 4095 1713
0 4095 2615
0 4095 3457
0 4095 4095
0 4095 4095
0 4095 4095
0 4095 4095
0 4095 4095
0 4095 4095
0 4095 0
0 4095 0
0 4095 0
0 4095 0
0 4095 0
0 4095 0
0 4095 0
0 4095 718
0 4095 1695
0 4095 2591
0 4095 3406
0 4095 4095
0 4095 4095
0 4095 4095
0 4095 4095
0 4095 4095
0 4095 4095
0 4095 0
0 4095 0
0 4095 0
0 4095 0
0 4095 0
0 4095 136
0 4095 1212
0 4095 2022
0 4095 2669
0 4095 3201
264 4095 3635
578 4095 3977
883 4095 4095
1212 4095 4095
1514 4095 4095
1809 4095 4095
2120 4095 4095
1816 4095 1621
2215 4095 2157
2581 4095 2619
2893 4095 2991
3195 4095 3325
3402 4095 3577
3561 4095 3780
3695 4095 3909
3838 4095 4003
3968 4095 4063
4043 4095 4091
4051 4095 4095
4060 4095 4095
4073 4095 4095
4086 4095 4095
4095 4095 4095
4095 4095 4095
0 0 0
0 0 0
0 0 0
0 0 0
0 0 0
0 0 0
0 0 0
0 0 0
0 0 0
0 0 0
0 0 0
0 0 0
0 0 0
0 0 0
0 0 0
0 0 0
0 0 0
0 0 0
0 0 0
0 0 0
0 0 0
0 0 0
0 0 0
0 0 0
0 0 0
0 0 0
0 0 0
0 0 0
0 0 0
0 0 0
0 0 0
0 0 0
0 0 0
0 0 0
0 0 0
0 0 0
0 0 0
0 0 0
0 0 0
0 0 0
0 0 0
0 0 0
0 0 0
0 0 0
0 0 0
0 0 0
0 0 0
0 0 0
0 0 0
0 0 0
0 0 0
0 0 0
3 6 0
3 12 4
2 18 22
0 24 53
0 26 99
0 27 158
0 26 228
0 24 302
0 22 394
0 19 499
0 16 608
0 13 746
0 10 905
0 6 1067
0 0 1253
0 0 1447
0 192 0
0 194 0
0 195 0
0 189 86
0 184 266
0 170 512
0 155 772
0 141 1044
0 125 1321
0 109 1616
0 94 1927
0 79 2253
0 69 2566
0 60 2884
0 50 3235
0 38 3636
0 25 4079
0 507 0
0 511 0
0 511 0
0 507 0
0 491 160
0 467 688
0 446 1235
0 422 1798
0 397 2380
0 373 2984
0 352 3621
0 330 4095
0 318 4095
0 311 4095
0 302 4095
0 294 4095
0 285 4095
0 1081 0
0 1096 0
0 1106 0
0 1112 0
0 1103 0
0 1061 554
0 1028 1439
0 996 2315
0 963 3187
0 932 4043
0 902 4095
0 875 4095
0 862 4095
0 860 4095
0 855 4095
0 849 4095
0 845 4095
0 1858 0
0 1851 0
0 1842 0
0 1831 0
0 1811 0
0 1739 141
0 1688 1153
0 1644 2095
0 1602 2993
0 1563 3847
0 1529 4095
0 1500 4095
0 1488 4095
0 1486 4095
0 1483 4095
0 1481 4095
0 1480 4095
0 2489 0
0 2485 0
0 2480 0
0 2473 0
0 2459 0
0 2390 0
0 2337 787
0 2291 1754
0 2251 2669
0 2215 3536
0 2182 4095
0 2155 4095
0 2145 4095
0 2145 4095
0 2143 4095
0 2143 4095
0 2143 4095
0 3145 0
0 3145 0
0 3143 0
0 3139 0
0 3130 0
0 3072 0
0 3010 435
0 2964 1432
0 2923 2363
0 2887 3242
0 2855 4068
0 2829 4095
0 2820 4095
0 2823 4095
0 2823 4095
0 2823 4095
0 2823 4095
0 3817 0
0 3818 0
0 3819 0
0 3818 0
0 3811 0
0 3766 0
0 3693 104
0 3645 1134
0 3604 2082
0 3568 2973
0 3537 3807
0 3512 4095
0 3504 4095
0 3506 4095
0 3505 4095
0 3505 4095
0 3506 4095
0 4095 0
0 4095 0
0 4095 0
0 4095 0
0 4095 0
0 4095 0
0 4095 0
0 4095 870
0 4095 1834
0 4095 2735
0 4095 3577
0 4095 4095
0 4095 4095
0 4095 4095
0 4095 4095
0 4095 4095
0 4095 4095
0 4095 0
0 4095 0
0 4095 0
0 4095 0
0 4095 0
0 4095 0
0 4095 0
0 4095 763
0 4095 1732
0 4095 2635
0 4095 3479
0 4095 4095
0 4095 4095
0 4095 4095
0 4095 4095
0 4095 4095
0 4095 4095
0 4095 0
0 4095 0
0 4095 0
0 4095 0
0 4095 0
0 4095 0
0 4095 0
0 4095 754
0 4095 1718
0 4095 2617
0 4095 3457
0 4095 4095
0 4095 4095
0 4095 4095
0 4095 4095
0 4095 4095
0 4095 4095
0 4095 0
0 4095 0
0 4095 0
0 4095 0
0 4095 0
0 4095 0
0 4095 0
0 4095 905
0 4095 1850
0 4095 2692
0 4095 3436
0 4095 4076
0 4095 4095
0 4095 4095
0 4095 4095
0 4095 4095
0 4095 4095
0 4095 0
0 4095 0
0 4095 0
0 4095 0
143 4095 523
464 4095 1261
733 4095 2068
1005 4095 2650
1262 4095 3108
1511 4095 3476
1727 4095 3765
1967 4095 3991
2225 4095 4095
2522 4095 4095
2761 4095 4095
3006 4095 4095
3229 4095 4095
3199 4095 3063
3474 4095 3415
3736 4095 3723
3945 4095 3948
4050 4095 4055
4058 4095 4069
4064 4095 4084
4071 4095 4095
4078 4095 4095
4086 4095 4095
4095 4095 4095
4095 4095 4095
4095 4095 4095
4095 4095 4095
4095 4095 4095
4095 4095 4095
4095 4095 4095
0 0 0
0 0 0
0 0 0
0 0 0
0 0 0
0 0 0
0 0 0
0 0 0
0 0 0
0 0 0
0 0 0
0 0 0
0 0 0
0 0 0
0 0 0
0 0 0
0 0 0
0 0 0
0 0 0
0 0 0
0 0 0
0 0 0
0 0 0
0 0 0
0 0 0
0 0 0
0 0 0
0 0 0
0 0 0
0 0 0
0 0 0
0 0 0
0 0 0
0 0 0
0 0 0
0 0 0
0 0 0
0 0 0
0 0 0
0 0 0
0 0 0
0 0 0
0 0 0
0 0 0
0 0 0
0 0 0
0 0 0
0 0 0
0 0 0
0 0 0
3 1 66
20 37 0
22 45 0
23 50 1
20 51 66
18 52 135
12 49 237
6 44 351
0 38 471
0 31 606
0 24 751
0 16 900
0 8 1068
0 0 1243
0 0 1435
0 0 1650
0 0 1870
0 0 2126
0 227 0
0 226 0
0 222 0
0 212 72
0 202 304
0 183 616
0 164 946
0 143 1286
0 123 1650
0 102 2022
0 81 2411
0 60 2816
0 45 3213
0 33 3624
0 17 4063
0 1 4095
0 0 4095
0 549 0
0 552 0
0 553 0
0 550 0
0 532 139
0 502 763
0 472 1403
0 444 2066
0 414 2754
0 384 3455
0 354 4095
0 326 4095
0 311 4095
0 303 4095
0 294 4095
0 283 4095
0 273 4095
0 1157 0
0 1169 0
0 1177 0
0 1178 0
0 1158 0
0 1110 564
0 1068 1509
0 1027 2425
0 987 3314
0 948 4095
0 913 4095
0 882 4095
0 869 4095
0 866 4095
0 862 4095
0 858 4095
0 854 4095
0 1861 0
0 1855 0
0 1847 0
0 1836 0
0 1817 0
0 1747 155
0 1697 1163
0 1651 2102
0 1609 2999
0 1571 3853
0 1538 4095
0 1509 4095
0 1497 4095
0 1498 4095
0 1495 4095
0 1493 4095
0 1492 4095
0 2497 0
0 2494 0
0 2490 0
0 2484 0
0 2470 0
0 2402 0
0 2349 801
0 2303 1765
0 2263 2678
0 2227 3545
0 2195 4095
0 2169 4095
0 2160 4095
0 2161 4095
0 2159 4095
0 2159 4095
0 2158 4095
0 3158 0
0 3158 0
0 3156 0
0 3153 0
0 3143 0
0 3083 0
0 3024 453
0 2978 1447
0 2938 2376
0 2902 3254
0 2872 4080
0 2846 4095
0 2837 4095
0 2839 4095
0 2839 4095
0 2839 4095
0 2839 4095
0 3833 0
0 3834 0
0 3834 0
0 3833 0
0 3826 0
0 3781 0
0 3708 125
0 3661 1150
0 3621 2098
0 3585 2987
0 3554 3820
0 3528 4095
0 3519 4095
0 3521 4095
0 3521 4095
0 3521 4095
0 3521 4095
0 4095 0
0 4095 0
0 4095 0
0 4095 0
0 4095 0
0 4095 0
0 4095 0
0 4095 886
0 4095 1848
0 4095 2747
0 4095 3587
0 4095 4095
0 4095 4095
0 4095 4095
0 4095 4095
0 4095 4095
0 4095 4095
0 4095 0
0 4095 0
0 4095 0
0 4095 0
0 4095 0
0 4095 0
0 4095 0
0 4095 777
0 4095 1742
0 4095 2643
0 4095 3484
0 4095 4095
0 4095 4095
0 4095 4095
0 4095 4095
0 4095 4095
0 4095 4095
0 4095 0
0 4095 0
0 4095 0
0 4095 0
0 4095 0
0 4095 0
0 4095 0
0 4095 762
0 4095 1723
0 4095 2620
0 4095 3459
0 4095 4095
0 4095 4095
0 4095 4095
0 4095 4095
0 4095 4095
0 4095 4095
0 4095 0
0 4095 0
0 4095 0
0 4095 0
0 4095 0
0 4095 0
0 4095 280
0 4095 1278
0 4095 2137
0 4095 2878
0 4095 3510
0 4095 4031
0 4095 4095
0 4095 4095
281 4095 4095
594 4095 4095
891 4095 4095
199 4095 0
614 4095 5
1000 4095 662
1367 4095 1254
1732 4095 1814
1993 4095 2339
2173 4095 2848
2370 4095 3221
2552 4095 3507
2756 4095 3737
2935 4095 3906
3117 4095 4028
3308 4095 4095
3530 4095 4095
3720 4095 4095
3907 4095 4095
4046 4095 4095
4053 4095 4042
4066 4095 4058
4078 4095 4073
4090 4095 4088
4095 4095 4095
4095 4095 4095
4095 4095 4095
4095 4095 4095
4095 4095 4095
4095 4095 4095
4095 4095 4095
4095 4095 4095
4095 4095 4095
4095 4095 4095
4095 4095 4095
4095 4095 4095
4095 4095 4095
0 0 0
0 0 0
0 0 0
0 0 0
0 0 0
0 0 0
0 0 0
0 0 0
0 0 0
0 0 0
0 0 0
0 0 0
0 0 0
0 0 0
0 0 0
0 0 0
0 0 0
0 0 0
0 0 0
0 0 0
0 0 0
0 0 0
0 0 0
0 0 0
0 0 0
0 0 0
0 0 0
0 0 0
0 0 0
0 0 0
0 0 0
0 0 0
0 0 0
