3DLUTS/GC_VENOM_LUTS/Additional_Formats/3DL/GC_Venom_V-LOG/GC_Venom_Adara_V-Log.3dl
# Converted by Briz LUT Converter
0 256 512 768 1023
0 0 0
0 0 0
0 0 0
0 0 0
0 0 0
0 94 0
0 203 170
0 209 1153
0 141 3044
0 72 4095
0 3017 0
0 2999 0
0 2867 2349
0 2641 4095
0 2493 4095
0 4095 0
0 4095 0
0 4095 783
0 4095 4095
0 4095 4095
1615 4095 1914
3479 4095 3661
4044 4095 4085
4077 4095 4095
4095 4095 4095
0 0 0
0 0 0
0 0 0
0 0 0
0 0 0
435 307 0
451 307 211
290 172 3008
0 0 4095
0 0 4095
0 2888 0
0 2876 0
0 2750 2222
0 2524 4095
0 2379 4095
0 4095 0
0 4095 0
0 4095 647
0 4095 4095
0 4095 4095
4095 4095 4095
4095 4095 4095
4095 4095 4095
4095 4095 4095
4095 4095 4095
0 0 0
0 0 0
0 0 0
0 0 0
0 0 0
4095 0 0
4095 0 0
4095 0 2989
4039 0 4095
3881 0 4095
2956 2264 0
2945 2250 0
2809 2126 1623
2581 1908 4095
2434 1763 4095
1227 4095 0
1318 4095 0
1446 4095 597
1662 4095 3908
2044 4095 4095
4095 4095 4095
4095 4095 4095
4095 4095 4095
4095 4095 4095
4095 4095 4095
0 0 0
171 0 7
731 0 283
1190 0 1095
2007 0 2721
4095 0 0
4095 0 0
4095 0 2527
4095 0 4095
4095 0 4095
4095 1817 0
4095 1802 0
4095 1677 1196
4095 1464 4095
4095 1317 4095
4095 4095 0
4095 4095 1557
4095 4051 3225
4095 4048 3993
4095 4095 4095
4095 4095 4095
4095 4095 4095
4095 4095 4095
4095 4095 4095
4095 4095 4095
4095 0 0
4095 0 0
4095 0 1706
4095 0 4095
4095 0 4095
4095 0 0
4095 0 0
4095 0 2394
4095 0 4095
4095 0 4095
4095 1686 0
4095 1669 0
4095 1540 1056
4095 1321 4095
4095 1170 4095
4095 4095 4094
4095 4095 4095
4095 4095 4095
4095 4095 4095
4095 4095 4095
4095 4095 4095
4095 4095 4095
4095 4095 4095
4095 4095 4095
4095 4095 4095
