3DLUTS/GC_VENOM_LUTS/Additional_Formats/3DL/GC_Venom_V-LOG/GC_Venom_Ayla_V-Log.3dl
# Converted by Briz LUT Converter
0 128 256 384 512 640 768 896 1023
0 0 0
0 0 0
0 0 0
0 0 0
0 0 0
0 0 0
0 0 0
0 0 0
0 0 0
0 0 0
0 0 0
0 0 0
0 0 0
0 0 0
0 0 0
0 0 0
0 0 0
0 0 0
0 31 0
0 58 3
0 81 81
0 92 264
0 96 528
0 95 869
0 92 1254
0 91 1670
0 86 2162
0 601 0
0 654 0
0 704 0
0 717 719
0 722 1770
0 722 2960
0 729 4095
0 754 4095
0 770 4095
0 2069 0
0 2096 0
0 2125 0
0 2100 577
0 2085 2086
0 2080 3515
0 2098 4095
0 2147 4095
0 2196 4095
0 3600 0
0 3663 0
0 3722 0
0 3721 709
0 3718 2271
0 3724 3725
0 3753 4095
0 3808 4095
0 3863 4095
0 4095 0
0 4095 0
0 4095 0
0 4095 1039
0 4095 2619
0 4095 4023
0 4095 4095
0 4095 4095
171 4095 4095
2057 4095 2043
2554 4095 2726
3025 4095 3277
3440 4095 3751
3815 4095 4012
4058 4095 4095
4079 4095 4095
4095 4095 4095
4095 4095 4095
4095 4095 4095
4095 4095 4095
4095 4095 4095
4095 4095 4095
4095 4095 4095
4095 4095 4095
4095 4095 4095
4095 4095 4095
4095 4095 4095
0 0 0
0 0 0
0 0 0
0 0 0
0 0 0
0 0 0
0 0 0
0 0 0
0 0 0
0 0 0
0 0 0
0 0 0
0 0 0
0 0 0
0 0 0
0 0 0
0 0 0
3 2 98
0 110 0
0 124 0
0 134 134
0 129 462
0 118 898
0 101 1423
0 85 2006
0 73 2608
0 55 3321
0 778 0
0 830 0
0 873 0
0 866 868
0 847 2208
0 822 3605
0 812 4095
0 826 4095
0 842 4095
0 2189 0
0 2237 0
0 2282 0
0 2268 748
0 2260 2262
0 2261 3694
0 2288 4095
0 2343 4095
0 2397 4095
0 3812 0
0 3876 0
0 3935 0
0 3930 927
0 3928 2483
0 3931 3931
0 3955 4095
0 4005 4095
0 4051 4095
0 4095 0
0 4095 0
0 4095 0
0 4095 1658
298 4095 3043
823 4095 4014
1380 4095 4095
1895 4095 4095
2380 4095 4095
3584 4095 3512
3918 4095 3916
4070 4095 4075
4090 4095 4095
4095 4095 4095
4095 4095 4095
4095 4095 4095
4095 4095 4095
4095 4095 4095
4095 4095 4095
4095 4095 4095
4095 4095 4095
4095 4095 4095
4095 4095 4095
4095 4095 4095
4095 4095 4095
4095 4095 4095
4095 4095 4095
0 0 0
0 0 0
0 0 0
0 0 0
0 0 0
0 0 0
0 0 0
0 0 0
0 0 0
0 0 0
0 0 0
0 0 0
0 0 0
3 2 7
28 2 146
48 0 356
67 0 629
81 0 951
136 146 0
140 151 0
137 149 149
117 129 662
89 101 1323
54 65 2121
20 30 2955
0 2 3765
0 0 4095
0 930 0
0 964 0
0 985 0
0 950 952
0 914 2409
0 885 3798
0 883 4095
0 916 4095
0 952 4095
0 2346 0
0 2401 0
0 2453 0
0 2447 930
0 2445 2447
0 2453 3885
0 2482 4095
0 2542 4095
0 2598 4095
0 4010 0
0 4073 0
0 4095 0
0 4095 1122
0 4095 2666
0 4095 4095
0 4095 4095
0 4095 4095
0 4095 4095
598 4095 0
1099 4095 520
1583 4095 1549
1986 4095 2680
2353 4095 3492
2721 4095 4010
3068 4095 4095
3422 4095 4095
3749 4095 4095
4095 4095 4088
4095 4095 4095
4095 4095 4095
4095 4095 4095
4095 4095 4095
4095 4095 4095
4095 4095 4095
4095 4095 4095
4095 4095 4095
4095 4095 4095
4095 4095 4095
4095 4095 4095
4095 4095 4095
4095 4095 4095
4095 4095 4095
4095 4095 4095
4095 4095 4095
4095 4095 4095
0 0 0
0 0 0
0 0 0
0 0 0
0 0 0
0 0 0
0 0 0
0 0 0
0 0 0
0 0 0
47 4 4
117 1 49
176 0 181
227 0 393
272 0 675
318 0 1008
368 0 1361
423 0 1808
636 106 0
701 95 0
765 74 75
804 25 838
839 0 1788
869 0 2874
913 0 3975
966 0 4095
1012 0 4095
826 887 0
846 907 0
862 923 0
833 894 896
812 872 2373
803 863 3786
819 879 4095
865 925 4095
912 972 4095
808 2389 0
869 2449 0
926 2506 0
921 2503 979
919 2504 2506
923 2511 3947
950 2541 4095
1008 2598 4095
1064 2655 4095
1003 4057 0
1059 4095 0
1110 4095 0
1089 4095 1135
1066 4095 2682
1056 4095 4095
1160 4095 4095
1401 4095 4095
1735 4079 4095
2683 4095 1340
2967 4095 2166
3228 4095 2829
3451 4095 3457
3671 4095 3862
3889 4095 4058
4070 4095 4095
4093 4095 4095
4095 4095 4095
4095 4095 4095
4095 4095 4095
4095 4095 4095
4095 4095 4095
4095 4095 4095
4095 4095 4095
4095 4095 4095
4095 4095 4095
4095 4095 4095
4095 4095 4095
4095 4095 4095
4095 4095 4095
4095 4095 4095
4095 4095 4095
4095 4095 4095
4095 4095 4095
4095 4095 4095
4095 4095 4095
0 0 0
0 0 0
0 0 0
0 0 0
0 0 0
0 0 0
0 0 0
0 0 0
0 0 0
340 0 0
446 0 0
548 0 87
635 0 361
715 0 724
802 0 1172
897 0 1660
1018 0 2177
1151 0 2814
1639 0 0
1804 0 0
1962 0 0
2091 0 971
2204 0 2235
2297 0 3595
2379 0 4095
2461 0 4095
2505 0 4095
2285 824 0
2324 864 0
2364 904 0
2350 888 890
2342 878 2388
2342 875 3812
2368 900 4095
2421 953 4095
2475 1006 4095
2385 2435 0
2448 2499 0
2507 2557 0
2502 2553 1018
2500 2552 2554
2504 2558 3998
2531 2585 4095
2583 2637 4095
2634 2687 4095
2559 4068 0
2607 4095 0
2657 4095 0
2689 4095 1270
2761 4038 2812
2882 3991 3992
3020 3965 4095
3192 3964 4095
3344 3966 4095
3746 4095 2954
3884 4095 3497
4010 4095 3890
4088 4095 4078
4095 4095 4095
4095 4095 4095
4095 4095 4095
4095 4095 4095
4095 4095 4095
4095 4095 4095
4095 4095 4095
4095 4095 4095
4095 4095 4095
4095 4095 4095
4095 4095 4095
4095 4095 4095
4095 4095 4095
4095 4095 4095
4095 4095 4095
4095 4095 4095
4095 4095 4095
4095 4095 4095
4095 4095 4095
4095 4095 4095
4095 4095 4095
4095 4095 4095
4095 4095 4095
0 0 0
0 0 0
0 0 0
0 0 0
0 0 0
0 0 0
88 0 108
235 0 329
384 0 607
956 0 0
1107 0 0
1265 0 39
1407 0 493
1566 0 1056
1741 0 1736
1940 0 2464
2167 0 3181
2399 0 4021
3257 0 0
3501 0 0
3706 0 0
3821 0 1018
3888 0 2472
3897 0 3882
3892 0 4095
3916 0 4095
3946 0 4095
3772 829 0
3823 881 0
3872 930 0
3865 921 923
3864 916 2435
3871 919 3869
3900 946 4095
3960 1005 4095
4016 1062 4095
3927 2496 0
3991 2560 0
4048 2617 0
4040 2609 1063
4033 2601 2603
4032 2600 4045
4053 2621 4095
4095 2667 4095
4095 2708 4095
4005 4025 0
4007 4025 0
3999 4014 818
3955 3969 2183
3928 3940 3245
3918 3929 3929
3931 3939 4095
3959 3965 4095
3993 3997 4095
4095 4095 4062
4095 4095 4087
4095 4095 4095
4095 4095 4095
4095 4095 4095
4095 4095 4095
4095 4095 4095
4095 4095 4095
4095 4095 4095
4095 4095 4095
4095 4095 4095
4095 4095 4095
4095 4095 4095
4095 4095 4095
4095 4095 4095
4095 4095 4095
4095 4095 4095
4095 4095 4095
4095 4095 4095
4095 4095 4095
4095 4095 4095
4095 4095 4095
4095 4095 4095
4095 4095 4095
4095 4095 4095
4095 4095 4095
4095 4095 4095
0 0 0
0 0 0
76 0 9
243 0 80
409 0 229
569 0 451
735 0 726
917 0 1036
1099 0 1406
1846 0 0
2089 0 0
2363 0 0
2622 0 632
2882 0 1461
3162 0 2430
3452 0 3408
3786 0 4095
4095 0 4095
4095 0 0
4095 0 0
4095 0 0
4095 0 1020
4095 0 2497
4095 0 3907
4095 0 4095
4095 0 4095
4095 0 4095
4095 920 0
4095 979 0
4095 1033 0
4095 1027 1029
4095 1028 2551
4095 1034 3991
4095 1062 4095
4095 1121 4095
4095 1178 4095
4095 2604 0
4095 2662 0
4095 2714 0
4095 2701 1148
4095 2686 2687
4095 2678 4095
4095 2689 4095
4095 2752 4095
4095 2847 4095
4095 3957 518
4095 3961 1512
4095 3968 2305
4095 3965 3115
4095 3974 3679
4095 4000 4000
4095 4038 4095
4095 4082 4095
4095 4095 4095
4095 4095 4095
4095 4095 4095
4095 4095 4095
4095 4095 4095
4095 4095 4095
4095 4095 4095
4095 4095 4095
4095 4095 4095
4095 4095 4095
4095 4095 4095
4095 4095 4095
4095 4095 4095
4095 4095 4095
4095 4095 4095
4095 4095 4095
4095 4095 4095
4095 4095 4095
4095 4095 4095
4095 4095 4095
4095 4095 4095
4095 4095 4095
4095 4095 4095
4095 4095 4095
4095 4095 4095
4095 4095 4095
4095 4095 4095
4095 4095 4095
372 0 0
596 0 0
810 0 36
993 0 256
1175 0 553
1361 0 926
1576 0 1349
1809 0 1777
2078 0 2316
3137 0 0
3509 0 0
3903 0 0
4095 0 794
4095 0 1940
4095 0 3200
4095 0 4095
4095 0 4095
4095 0 4095
4095 0 0
4095 0 0
4095 0 0
4095 0 1134
4095 0 2625
4095 0 4047
4095 0 4095
4095 0 4095
4095 0 4095
4095 1104 0
4095 1169 0
4095 1226 0
4095 1221 1224
4095 1220 2742
4095 1227 4095
4095 1254 4095
4095 1310 4095
4095 1361 4095
4095 2771 0
4095 2821 0
4095 2863 0
4095 2845 1302
4095 2854 2856
4095 2905 4095
4095 3019 4095
4095 3160 4095
4095 3301 4095
4095 3982 2371
4095 4003 3007
4095 4030 3515
4095 4058 3901
4095 4092 4083
4095 4095 4095
4095 4095 4095
4095 4095 4095
4095 4095 4095
4095 4095 4095
4095 4095 4095
4095 4095 4095
4095 4095 4095
4095 4095 4095
4095 4095 4095
4095 4095 4095
4095 4095 4095
4095 4095 4095
4095 4095 4095
4095 4095 4095
4095 4095 4095
4095 4095 4095
4095 4095 4095
4095 4095 4095
4095 4095 4095
4095 4095 4095
4095 4095 4095
4095 4095 4095
4095 4095 4095
4095 4095 4095
4095 4095 4095
4095 4095 4095
4095 4095 4095
4095 4095 4095
4095 4095 4095
4095 4095 4095
1223 0 0
1468 0 0
1720 0 12
1954 0 399
2194 0 874
2464 0 1449
2797 0 2085
3168 0 2720
3565 0 3479
4095 0 0
4095 0 0
4095 0 0
4095 0 925
4095 0 2328
4095 0 3753
4095 0 4095
4095 0 4095
4095 0 4095
4095 0 0
4095 0 0
4095 0 0
4095 0 1283
4095 0 2782
4095 0 4095
4095 0 4095
4095 0 4095
4095 0 4095
4095 1291 0
4095 1354 0
4095 1412 0
4095 1405 1408
4095 1401 2923
4095 1402 4095
4095 1427 4095
4095 1476 4095
4095 1521 4095
4095 2910 0
4095 2990 0
4095 3093 456
4095 3168 2049
4095 3246 3247
4095 3347 4081
4095 3452 4095
4095 3574 4095
4095 3692 4095
4095 4067 3813
4095 4095 4063
4095 4095 4089
4095 4095 4095
4095 4095 4095
4095 4095 4095
4095 4095 4095
4095 4095 4095
4095 4095 4095
4095 4095 4095
4095 4095 4095
4095 4095 4095
4095 4095 4095
4095 4095 4095
4095 4095 4095
4095 4095 4095
4095 4095 4095
4095 4095 4095
4095 4095 4095
4095 4095 4095
4095 4095 4095
4095 4095 4095
4095 4095 4095
4095 4095 4095
4095 4095 4095
4095 4095 4095
4095 4095 4095
4095 4095 4095
4095 4095 4095
4095 4095 4095
4095 4095 4095
4095 4095 4095
4095 4095 4095
4095 4095 4095
4095 4095 4095
4095 4095 4095
