3DLUTS/GC_VENOM_LUTS/Additional_Formats/3DL/GC_Venom_V-LOG/GC_Venom_Damyan_V-Log.3dl
# Converted by Briz LUT Converter
0 128 256 384 512 640 768 896 1023
0 310 434
0 332 577
0 346 805
0 330 1393
0 293 2238
0 256 3074
0 224 3860
0 201 4095
0 172 4095
0 725 662
0 742 841
0 749 1135
0 716 1934
0 654 3096
0 595 4095
0 548 4095
0 517 4095
0 482 4095
0 1132 686
0 1140 874
0 1140 1160
0 1100 1947
0 1029 3135
0 961 4095
0 914 4095
0 886 4095
0 856 4095
0 1675 437
0 1693 716
0 1720 931
0 1710 1587
0 1661 2735
0 1606 4005
0 1583 4095
0 1580 4095
0 1575 4095
0 2551 152
0 2588 496
0 2631 735
0 2645 1281
0 2618 2349
0 2574 3646
0 2560 4095
0 2570 4095
0 2574 4095
0 3569 0
0 3609 328
0 3653 644
0 3682 1092
0 3669 2041
0 3631 3307
0 3616 4095
0 3629 4095
0 3639 4095
0 4095 7
0 4095 401
0 4095 741
0 4095 1163
0 4095 2038
0 4095 3271
0 4095 4095
0 4095 4095
0 4095 4095
0 4095 200
0 4095 651
0 4095 1075
0 4095 1582
0 4095 2447
0 4095 3489
0 4095 4095
452 4095 4095
941 4095 4095
2641 4095 3094
3104 4095 3468
3494 4095 3743
3807 4095 3944
4043 4095 4075
4074 4095 4095
4093 4095 4095
4095 4095 4095
4095 4095 4095
139 307 482
132 322 639
116 328 895
51 303 1576
0 255 2552
0 208 3500
0 168 4095
0 139 4095
0 103 4095
0 679 623
0 693 804
0 697 1102
0 663 1924
0 598 3122
0 536 4095
0 489 4095
0 459 4095
0 424 4095
0 1063 633
0 1072 824
0 1075 1104
0 1041 1878
0 978 3067
0 917 4095
0 879 4095
0 861 4095
0 840 4095
0 1683 436
0 1708 717
0 1741 938
0 1739 1611
0 1699 2775
0 1652 4050
0 1635 4095
0 1639 4095
0 1638 4095
0 2627 210
0 2665 551
0 2713 789
0 2729 1348
0 2703 2431
0 2662 3732
0 2651 4095
0 2661 4095
0 2667 4095
0 3669 29
0 3709 407
0 3755 717
0 3782 1172
0 3771 2138
0 3734 3410
0 3719 4095
0 3732 4095
0 3739 4095
0 4095 95
0 4095 485
0 4095 819
0 4095 1243
0 4095 2131
0 4095 3368
0 4095 4095
0 4095 4095
0 4095 4095
0 4095 689
0 4095 1227
201 4095 1703
588 4095 2198
977 4095 2914
1384 4095 3671
1799 4095 4095
2241 4095 4095
2630 4095 4095
3965 4095 3997
4074 4095 4085
4095 4095 4095
4095 4095 4095
4095 4095 4095
4095 4095 4095
4095 4095 4095
4095 4095 4095
4095 4095 4095
984 162 388
1004 167 550
1011 166 824
943 134 1574
840 79 2654
734 29 3695
642 0 4095
574 0 4095
440 0 4095
973 486 436
962 498 623
939 502 921
834 476 1751
653 432 2977
394 411 4095
276 376 4095
213 351 4095
147 320 4095
694 896 480
637 925 695
599 944 981
491 936 1766
372 892 2975
271 849 4095
214 823 4095
195 811 4095
175 798 4095
41 1674 418
75 1707 702
116 1747 932
108 1752 1621
63 1721 2797
11 1680 4075
0 1667 4095
0 1673 4095
0 1674 4095
0 2683 249
0 2723 588
0 2772 822
0 2792 1396
0 2769 2493
0 2730 3798
0 2720 4095
0 2733 4095
0 2740 4095
0 3749 95
0 3790 470
0 3835 773
0 3863 1236
0 3850 2213
0 3814 3490
0 3801 4095
0 3812 4095
0 3818 4095
0 4095 161
0 4095 547
0 4095 875
0 4095 1301
0 4095 2200
0 4095 3439
0 4095 4095
0 4095 4095
0 4095 4095
1043 4095 1571
1465 4095 2109
1903 4095 2568
2285 4095 2982
2637 4095 3458
2952 4095 3871
3243 4095 4091
3549 4095 4095
3807 4095 4095
4095 4095 4095
4095 4095 4095
4095 4095 4095
4095 4095 4095
4095 4095 4095
4095 4095 4095
4095 4095 4095
4095 4095 4095
4095 4095 4095
2218 0 215
2269 0 376
2305 0 643
2275 0 1396
2204 0 2526
2130 0 3639
2077 0 4095
2050 0 4095
2013 0 4095
2397 189 175
2393 200 368
2379 203 644
2301 173 1407
2184 111 2590
2067 50 3775
1982 9 4095
1933 0 4095
1883 0 4095
2267 582 198
2285 602 420
2304 623 679
2262 612 1420
2180 569 2612
2097 526 3832
2049 504 4095
2042 501 4095
2029 494 4095
1929 1379 166
1969 1416 467
2015 1459 692
2005 1471 1355
1954 1445 2518
1892 1410 3811
1867 1402 4095
1874 1410 4095
1875 1414 4095
1427 2446 54
1472 2485 401
1525 2533 645
1530 2560 1200
1487 2547 2279
1425 2516 3588
1401 2512 4095
1413 2524 4095
1421 2533 4095
913 3575 0
958 3613 332
1009 3656 646
1011 3692 1102
953 3692 2065
796 3688 3363
737 3685 4095
744 3695 4095
743 3701 4095
602 4095 76
652 4095 477
747 4095 864
832 4095 1357
921 4095 2248
1035 4095 3380
1209 4095 4095
1458 4095 4095
1725 4095 4095
2830 4095 2649
3132 4095 3090
3413 4095 3442
3628 4095 3702
3818 4095 3923
3978 4095 4057
4078 4095 4095
4095 4095 4095
4095 4095 4095
4095 4095 4095
4095 4095 4095
4095 4095 4095
4095 4095 4095
4095 4095 4095
4095 4095 4095
4095 4095 4095
4095 4095 4095
4095 4095 4095
3354 0 71
3414 0 245
3461 0 498
3455 0 1220
3409 0 2365
3356 0 3537
3321 0 4095
3303 0 4095
3275 0 4095
3520 0 0
3520 0 225
3520 0 455
3478 0 1145
3398 0 2288
3315 0 3504
3260 0 4095
3233 0 4095
3207 0 4095
3520 395 34
3545 419 294
3574 448 527
3560 443 1227
3508 403 2398
3450 359 3639
3424 343 4095
3426 345 4095
3423 344 4095
3405 1209 47
3444 1248 365
3491 1295 590
3501 1307 1213
3468 1281 2347
3424 1243 3647
3411 1235 4095
3421 1245 4095
3426 1251 4095
3073 2255 0
3115 2296 277
3163 2344 545
3186 2369 1058
3166 2354 2098
3125 2319 3394
3112 2309 4095
3124 2321 4095
3130 2329 4095
2704 3345 0
2743 3381 156
2785 3422 484
2808 3453 921
2789 3446 1833
2742 3411 3088
2717 3393 4095
2724 3401 4095
2727 3405 4095
2657 4095 52
2744 4095 607
2842 4095 1114
2925 4095 1645
2991 4095 2411
3058 4095 3306
3160 4073 3943
3290 4058 4095
3419 4047 4095
3915 4095 3664
4022 4095 3936
4091 4095 4078
4095 4095 4095
4095 4095 4095
4095 4095 4095
4095 4095 4095
4095 4095 4095
4095 4095 4095
4095 4095 4095
4095 4095 4095
4095 4095 4095
4095 4095 4095
4095 4095 4095
4095 4095 4095
4095 4095 4095
4095 4095 4095
4095 4095 4095
4095 0 0
4095 0 187
4095 0 408
4095 0 1084
4095 0 2220
4095 0 3438
4095 0 4095
4095 0 4095
4095 0 4095
4095 0 0
4095 0 163
4095 0 367
4095 0 997
4095 0 2115
4095 0 3365
4095 0 4095
4095 0 4095
4095 0 4095
4095 330 0
4095 360 274
4095 397 499
4095 402 1164
4095 370 2313
4095 330 3573
4095 316 4095
4095 322 4095
4095 322 4095
4095 1172 54
4095 1211 388
4095 1260 618
4095 1277 1205
4095 1251 2309
4095 1212 3607
4095 1202 4095
4095 1214 4095
4095 1222 4095
4095 2200 0
4095 2243 285
4095 2289 578
4095 2315 1056
4095 2298 2056
4095 2259 3338
4095 2246 4095
4095 2258 4095
4095 2264 4095
3960 3254 0
3993 3289 118
4030 3327 459
4064 3352 882
4066 3341 1748
4038 3300 2979
4016 3277 4022
4012 3289 4095
3999 3303 4095
3846 4032 793
3864 4030 1392
3887 4031 1933
3908 4029 2434
3918 4019 3000
3923 4005 3569
3939 4003 3939
3970 4017 4091
4002 4034 4095
4095 4095 4095
4095 4095 4095
4095 4095 4095
4095 4095 4095
4095 4095 4095
4095 4095 4095
4095 4095 4095
4095 4095 4095
4095 4095 4095
4095 4095 4095
4095 4095 4095
4095 4095 4095
4095 4095 4095
4095 4095 4095
4095 4095 4095
4095 4095 4095
4095 4095 4095
4095 4095 4095
4095 0 0
4095 0 152
4095 0 357
4095 0 989
4095 0 2097
4095 0 3329
4095 0 4095
4095 0 4095
4095 0 4095
4095 0 0
4095 0 131
4095 0 336
4095 0 941
4095 0 2049
4095 0 3314
4095 0 4095
4095 0 4095
4095 0 4095
4095 338 0
4095 375 304
4095 417 530
4095 427 1172
4095 397 2309
4095 357 3582
4095 346 4095
4095 353 4095
4095 357 4095
4095 1202 106
4095 1244 447
4095 1293 682
4095 1312 1252
4095 1290 2343
4095 1252 3637
4095 1242 4095
4095 1254 4095
4095 1262 4095
4095 2234 0
4095 2274 349
4095 2320 651
4095 2346 1115
4095 2329 2094
4095 2289 3368
4095 2273 4095
4095 2284 4095
4095 2289 4095
4095 3268 0
4095 3302 162
4095 3337 514
4095 3361 969
4095 3355 1846
4095 3329 3037
4095 3326 3986
4095 3361 4095
4095 3401 4095
4095 3990 2006
4095 4001 2549
4095 4015 3002
4095 4028 3357
4095 4037 3666
4095 4048 3922
4094 4068 4056
4095 4094 4095
4095 4095 4095
4095 4095 4095
4095 4095 4095
4095 4095 4095
4095 4095 4095
4095 4095 4095
4095 4095 4095
4095 4095 4095
4095 4095 4095
4095 4095 4095
4095 4095 4095
4095 4095 4095
4095 4095 4095
4095 4095 4095
4095 4095 4095
4095 4095 4095
4095 4095 4095
4095 4095 4095
4095 4095 4095
4095 0 0
4095 0 144
4095 0 342
4095 0 946
4095 0 2036
4095 0 3279
4095 0 4095
4095 0 4095
4095 0 4095
4095 0 0
4095 0 148
4095 0 358
4095 0 967
4095 0 2080
4095 0 3352
4095 0 4095
4095 0 4095
4095 0 4095
4095 412 74
4095 450 378
4095 496 608
4095 507 1255
4095 480 2397
4095 442 3669
4095 432 4095
4095 442 4095
4095 446 4095
4095 1296 195
4095 1340 536
4095 1390 771
4095 1408 1346
4095 1385 2439
4095 1348 3738
4095 1339 4095
4095 1351 4095
4095 1358 4095
4095 2329 62
4095 2368 434
4095 2413 733
4095 2436 1199
4095 2418 2180
4095 2375 3454
4095 2357 4095
4095 2365 4095
4095 2369 4095
4095 3345 0
4095 3383 425
4095 3428 903
4095 3463 1426
4095 3475 2255
4095 3475 3250
4095 3500 3978
4095 3562 4095
4095 3621 4095
4095 4031 3274
4095 4050 3624
4095 4072 3894
4095 4091 4062
4095 4095 4095
4095 4095 4095
4095 4095 4095
4095 4095 4095
4095 4095 4095
4095 4095 4095
4095 4095 4095
4095 4095 4095
4095 4095 4095
4095 4095 4095
4095 4095 4095
4095 4095 4095
4095 4095 4095
4095 4095 4095
4095 4095 4095
4095 4095 4095
4095 4095 4095
4095 4095 4095
4095 4095 4095
4095 4095 4095
4095 4095 4095
4095 4095 4095
4095 4095 4095
4095 0 0
4095 0 135
4095 0 331
4095 0 912
4095 0 1991
4095 0 3246
4095 0 4095
4095 0 4095
4095 0 4095
4095 0 0
4095 0 186
4095 0 404
4095 0 1016
4095 0 2135
4095 0 3415
4095 0 4095
4095 0 4095
4095 0 4095
4095 495 157
4095 535 463
4095 582 694
4095 596 1346
4095 570 2490
4095 534 3764
4095 526 4095
4095 536 4095
4095 543 4095
4095 1395 290
4095 1438 631
4095 1491 865
4095 1508 1444
4095 1484 2539
4095 1445 3835
4095 1436 4095
4095 1447 4095
4095 1453 4095
4095 2420 151
4095 2459 520
4095 2502 817
4095 2523 1283
4095 2502 2264
4095 2457 3536
4095 2436 4095
4095 2446 4095
4095 2469 4095
4095 3456 590
4095 3507 1165
4095 3563 1675
4095 3614 2188
4095 3652 2857
4095 3681 3545
4095 3729 3996
4095 3796 4095
4095 3853 4095
4095 4095 4076
4095 4095 4095
4095 4095 4095
4095 4095 4095
4095 4095 4095
4095 4095 4095
4095 4095 4095
4095 4095 4095
4095 4095 4095
4095 4095 4095
4095 4095 4095
4095 4095 4095
4095 4095 4095
4095 4095 4095
4095 4095 4095
4095 4095 4095
4095 4095 4095
4095 4095 4095
4095 4095 4095
4095 4095 4095
4095 4095 4095
4095 4095 4095
4095 4095 4095
4095 4095 4095
4095 4095 4095
4095 4095 4095
4095 4095 4095
