3DLUTS/Munk_70pross.cube
TITLE "Generated by Resolve"
LUT_3D_SIZE 33
0.0151522 0 0.0040589
0.0344701 0 0.00517281
0.05449 0 0.00637827
0.0748302 0.00108339 0.00729381
0.0961929 0.00198367 0.00781262
0.122332 0.00233463 0.00749218
0.156359 0.00242618 0.00512703
0.193957 0.00276188 0.00250248
0.232334 0.00357061 0
0.280217 0.00355535 0
0.332525 0.00271611 0
0.387304 0.000900282 0
0.44712 0 0
0.504448 0 0
0.552666 0 0
0.59556 0 0
0.634119 0 0
0.667613 0 0
0.697261 0 0
0.724102 0 0
0.748501 0 0
0.770657 0 0
0.790875 0 0
0.808988 0 0
0.825391 0 0
0.840162 0 0
0.853437 0 0
0.865156 0 0
0.875364 0 0
0.884779 0 0
0.894179 0 0
0.903593 0 0
0.912993 0 0
0.0112764 0.0129397 0.00332647
0.0312505 0.0130312 0.00425727
0.0518654 0.0129702 0.00529488
0.0728618 0.0127108 0.00634775
0.0952163 0.0120546 0.00766003
0.121462 0.0117342 0.0075227
0.155688 0.0118105 0.00515755
0.193698 0.0121462 0.00251774
0.232364 0.0129702 0
0.280766 0.0129549 0
0.333379 0.0120851 0
0.388479 0.0102693 0
0.448905 0.00939956 0
0.506218 0.00939956 0
0.554192 0.00939956 0
0.597086 0.00939956 0
0.635538 0.00939956 0
0.668894 0.00939956 0
0.698375 0.00939956 0
0.725124 0.00939956 0
0.749432 0.00939956 0
0.771496 0.00939956 0
0.79147 0.00939956 0
0.809583 0.00939956 0
0.825864 0.00939956 0
0.840513 0.00939956 0
0.853697 0.00939956 0
0.865278 0.00939956 0
0.875364 0.00939956 0
0.884779 0.00939956 0
0.894179 0.00939956 0
0.903593 0.00939956 0
0.912993 0.00939956 0
0.00888075 0.0327916 0.00352483
0.0289464 0.0327916 0.00393683
0.0493782 0.0326848 0.0043946
0.0702373 0.0324254 0.00489815
0.0917678 0.0320287 0.00518807
0.117449 0.0310674 0.00474556
0.1514 0.0296788 0.00210575
0.190112 0.0283818 0
0.229892 0.0270695 0
0.279393 0.0250858 0
0.332937 0.0226291 0
0.388373 0.0196689 0
0.449027 0.0188144 0
0.506584 0.0188144 0
0.554589 0.0188144 0
0.597604 0.0188144 0
0.636011 0.0188144 0
0.669383 0.0188144 0
0.698863 0.0188144 0
0.725582 0.0188144 0
0.749874 0.0188144 0
0.771923 0.0188144 0
0.791836 0.0188144 0
0.809903 0.0188144 0
0.826123 0.0188144 0
0.840726 0.0188144 0
0.853834 0.0188144 0
0.865339 0.0188144 0
0.875364 0.0188144 0
0.884779 0.0188144 0
0.894179 0.0188144 0
0.903593 0.0188144 0
0.912993 0.0188144 0
0.00492866 0.0532082 0.00459297
0.0254063 0.052842 0.00434882
0.0461738 0.0527657 0.00454719
0.0673075 0.052491 0.00476081
0.0885786 0.0520485 0.00480659
0.113252 0.051194 0.00421149
0.145296 0.0499123 0.00132753
0.183764 0.0487221 0
0.222644 0.047715 0
0.269642 0.0459907 0
0.324224 0.0434119 0
0.382071 0.0393683 0
0.44361 0.0346838 0
0.502922 0.0282139 0
0.553017 0.0282139 0
0.596643 0.0282139 0
0.634836 0.0282139 0
0.667964 0.0282139 0
0.697749 0.0282139 0
0.724697 0.0282139 0
0.749187 0.0282139 0
0.771359 0.0282139 0
0.791424 0.0282139 0
0.809613 0.0282139 0
0.825925 0.0282139 0
0.840589 0.0282139 0
0.853758 0.0282139 0
0.865309 0.0282139 0
0.875364 0.0282139 0
0.884779 0.0282139 0
0.894179 0.0282139 0
0.903593 0.0282139 0
0.912993 0.0282139 0
0 0.0745098 0.00634775
0.0214084 0.0735332 0.00537118
0.0424811 0.073228 0.00521859
0.0637522 0.0729229 0.00526436
0.0852522 0.0726635 0.00540169
0.108919 0.0719615 0.00488289
0.139086 0.0707256 0.0027924
0.177783 0.0694896 0
0.216632 0.0683604 0
0.261509 0.0670329 0
0.315938 0.0648814 0
0.371679 0.0618601 0
0.434363 0.0570687 0
0.4981 0.0485542 0
0.551186 0.0376135 0
0.596216 0.0376135 0
0.63566 0.0376135 0
0.670008 0.0376135 0
0.699641 0.0376135 0
0.726253 0.0376135 0
0.750301 0.0376135 0
0.771572 0.0376135 0
0.790722 0.0376135 0
0.808972 0.0376135 0
0.825467 0.0376135 0
0.840269 0.0376135 0
0.853574 0.0376135 0
0.865232 0.0376135 0
0.875364 0.0376135 0
0.884779 0.0376135 0
0.894179 0.0376135 0
0.903593 0.0376135 0
0.912993 0.0376135 0
0 0.0955367 0.00735485
0.0162661 0.0944686 0.00614939
0.0382696 0.0940414 0.00588998
0.0600137 0.0938277 0.00595102
0.0817426 0.0936446 0.00613413
0.104585 0.0932021 0.00593576
0.133379 0.0923629 0.00451667
0.171633 0.0912032 0.000549325
0.21088 0.0903639 0
0.254688 0.089189 0
0.308782 0.0872663 0
0.364385 0.0848859 0
0.426612 0.0810254 0
0.490135 0.0744335 0
0.550057 0.0551308 0
0.597177 0.0484474 0
0.637873 0.0471504 0
0.672984 0.0470283 0
0.703456 0.0470283 0
0.730556 0.0470283 0
0.754742 0.0470283 0
0.776394 0.0470283 0
0.795697 0.0470283 0
0.813245 0.0470283 0
0.828733 0.0470283 0
0.842527 0.0470283 0
0.85481 0.0470283 0
0.865095 0.0470283 0
0.875364 0.0470283 0
0.884779 0.0470283 0
0.894179 0.0470283 0
0.903593 0.0470283 0
0.912993 0.0470283 0
0 0.116777 0.007187
0.00939956 0.116609 0.00680552
0.0327764 0.115496 0.00582895
0.0553902 0.115282 0.00595102
0.0780499 0.115282 0.00633249
0.100801 0.115251 0.00682078
0.127947 0.114717 0.00633249
0.164416 0.113741 0.00392157
0.204913 0.113329 0
0.247913 0.112978 0
0.30219 0.112062 0
0.359106 0.110506 0
0.421439 0.107439 0
0.486671 0.102266 0
0.544625 0.088365 0
0.599191 0.074342 0
0.641581 0.0733654 0
0.677409 0.0720989 0
0.708507 0.0708019 0
0.736049 0.0691997 0
0.76054 0.0673838 0
0.782513 0.0654307 0
0.802121 0.0632334 0
0.819684 0.0607767 0
0.83534 0.0580911 0
0.849302 0.0564279 0
0.861433 0.0564279 0
0.871977 0.0564279 0
0.880949 0.0564279 0
0.889006 0.0564279 0
0.897047 0.0564279 0
0.904952 0.0564279 0
0.912993 0.0564279 0
0 0.140444 0.00450141
0.00939956 0.140871 0.00444038
0.0232395 0.139986 0.00381476
0.0481117 0.139391 0.00396735
0.0719615 0.139452 0.00497444
0.095613 0.139666 0.00622568
0.121736 0.139635 0.00698863
0.1561 0.139025 0.00605783
0.197955 0.138598 0.00350958
0.240711 0.138705 0
0.295781 0.138781 0
0.355062 0.138827 0
0.418753 0.137392 0
0.485863 0.133715 0
0.544213 0.126909 0
0.596048 0.109148 0
0.640787 0.103487 0
0.677287 0.102358 0
0.708888 0.100893 0
0.737377 0.0992294 0
0.763668 0.0969406 0
0.786847 0.0946059 0
0.807279 0.092195 0
0.825437 0.089601 0
0.841688 0.0867781 0
0.85597 0.083772 0
0.868544 0.0805524 0
0.879499 0.0773022 0
0.888792 0.0738231 0
0.896727 0.0700694 0
0.904601 0.0663767 0
0.912459 0.0658427 0
0.92015 0.0658427 0
0 0.167971 0
0.00939956 0.168566 0
0.0188144 0.1691 0
0.0308995 0.168963 0
0.0594949 0.16846 0.000228885
0.0864881 0.168872 0.00288396
0.112383 0.169421 0.00518807
0.144915 0.169421 0.00628672
0.188754 0.169329 0.00573739
0.232807 0.169696 0.00370794
0.287175 0.170108 0
0.348516 0.170474 0
0.413352 0.169909 0
0.48336 0.167666 0
0.544579 0.16202 0
0.596857 0.147173 0
0.642832 0.133639 0
0.680156 0.132708 0
0.711666 0.131518 0
0.739925 0.130159 0
0.76495 0.128405 0
0.787411 0.126513 0
0.807553 0.124315 0
0.825772 0.121813 0
0.842252 0.119005 0
0.857282 0.115831 0
0.87097 0.112428 0
0.88423 0.108095 0
0.894896 0.104112 0
0.9037 0.100038 0
0.912047 0.0959335 0
0.920256 0.0919509 0
0.928298 0.0879988 0
0 0.200107 0
0.00939956 0.2009 0
0.0188144 0.201633 0
0.0282139 0.202899 0
0.0376135 0.20383 0
0.0685893 0.20383 0.00109865
0.0962234 0.204639 0.00492866
0.130266 0.205142 0.00697337
0.177157 0.205219 0.007187
0.223438 0.206134 0.00607309
0.27541 0.207111 0.00267033
0.339239 0.207935 0
0.404807 0.208515 0
0.476524 0.20766 0
0.541665 0.204547 0
0.595453 0.197818 0
0.641596 0.184192 0
0.680476 0.174533 0
0.713771 0.165713 0
0.742702 0.161822 0
0.768383 0.160281 0
0.791287 0.158267 0
0.811978 0.156085 0
0.830457 0.153658 0
0.847105 0.150958 0
0.861997 0.148135 0
0.875059 0.144869 0
0.886687 0.141283 0
0.896727 0.13756 0
0.905333 0.133577 0
0.913771 0.129274 0
0.922576 0.124956 0
0.932052 0.120302 0
0 0.235813 0
0.00939956 0.236698 0
0.0188144 0.237201 0
0.0282139 0.238834 0
0.0376135 0.240543 0
0.0545357 0.241215 0.00215152
0.0824292 0.241901 0.00596628
0.111192 0.242786 0.00892653
0.156924 0.242908 0.00941482
0.213001 0.243839 0.00849927
0.264057 0.24567 0.00631724
0.328573 0.247486 0
0.395804 0.24947 0
0.468925 0.250889 0
0.538643 0.250675 0
0.594629 0.247761 0
0.641733 0.243229 0
0.6813 0.238376 0
0.714412 0.23064 0
0.743435 0.223453 0
0.769604 0.217914 0
0.792935 0.212406 0
0.813962 0.206241 0
0.833005 0.201251 0
0.85037 0.195468 0
0.866041 0.1888 0
0.880079 0.181353 0
0.892454 0.174701 0
0.902693 0.170794 0
0.911589 0.166705 0
0.91989 0.162448 0
0.9281 0.15819 0
0.936416 0.153933 0
0 0.275578 0
0.00939956 0.276905 0
0.0188144 0.277638 0
0.0282139 0.278645 0
0.0376135 0.281209 0
0.0470283 0.28368 0.00277714
0.0748913 0.284703 0.00662242
0.10341 0.286442 0.00994888
0.136126 0.287526 0.0116579
0.192142 0.288014 0.0103456
0.249546 0.289937 0.00784314
0.315618 0.291966 0
0.386145 0.294514 0
0.460136 0.297383 0
0.534646 0.298573 0
0.594507 0.297704 0
0.644266 0.294942 0
0.68481 0.291707 0
0.718761 0.28809 0
0.748302 0.284474 0
0.774411 0.280888 0
0.797848 0.277745 0
0.818921 0.274281 0
0.83772 0.270512 0
0.854658 0.266255 0
0.86981 0.261234 0
0.883528 0.253071 0
0.895705 0.244007 0
0.906157 0.233661 0
0.915282 0.222766 0
0.924071 0.212604 0
0.932937 0.202472 0
0.94197 0.19237 0
0 0.321569 0
0.00939956 0.323232 0
0.0188144 0.324224 0
0.0282139 0.324605 0
0.0376135 0.327565 0
0.0470283 0.330617 0.00282292
0.0665599 0.332555 0.00706493
0.0964065 0.334493 0.0113222
0.127199 0.336538 0.0134585
0.162005 0.337911 0.0120699
0.227131 0.339971 0.00695811
0.29836 0.343648 0
0.374472 0.34815 0
0.450736 0.352773 0
0.528832 0.35555 0
0.594202 0.356435 0
0.646387 0.355016 0
0.689128 0.352605 0
0.724636 0.349828 0
0.754772 0.346303 0
0.781674 0.342916 0
0.805295 0.33904 0
0.826459 0.335027 0
0.845533 0.330526 0
0.862837 0.325353 0
0.878264 0.320089 0
0.891814 0.314137 0
0.903868 0.307698 0
0.914031 0.300206 0
0.92282 0.29279 0
0.930571 0.284749 0
0.938476 0.276753 0
0.946532 0.26743 0
0 0.36968 0
0.00939956 0.371542 0
0.0188144 0.372686 0
0.0282139 0.37319 0
0.0376135 0.375326 0
0.0470283 0.379019 0.00334173
0.0577707 0.382345 0.00794995
0.0898604 0.38439 0.0118257
0.120378 0.387289 0.0143282
0.154498 0.389792 0.0130617
0.191043 0.393027 0.00518807
0.271748 0.397299 0
0.360098 0.403342 0
0.440574 0.410056 0
0.52192 0.414343 0
0.593256 0.416815 0
0.648875 0.416693 0
0.695033 0.415595 0
0.731395 0.413275 0
0.762448 0.410086 0
0.789899 0.40708 0
0.814054 0.403708 0
0.835569 0.400229 0
0.854917 0.396185 0
0.872328 0.391485 0
0.887922 0.386038 0
0.901701 0.379797 0
0.913863 0.373159 0
0.924178 0.365316 0
0.93315 0.35697 0
0.940749 0.347585 0
0.948501 0.338354 0
0.956222 0.329549 0
0 0.421103 0
0.00939956 0.423011 0
0.0188144 0.424369 0
0.0282139 0.425071 0
0.0376135 0.425849 0
0.0470283 0.430014 0.00151064
0.0564279 0.434226 0.00547799
0.0842298 0.437308 0.00787366
0.114855 0.441032 0.010132
0.148104 0.444663 0.00794995
0.184833 0.44921 0
0.228733 0.455558 0
0.339727 0.462364 0
0.42771 0.471061 0
0.51252 0.477623 0
0.590875 0.481971 0
0.650752 0.483268 0
0.699107 0.4822 0
0.738048 0.480049 0
0.770077 0.476661 0
0.79826 0.473289 0
0.822965 0.469535 0
0.845075 0.465827 0
0.86482 0.461784 0
0.882628 0.457145 0
0.898497 0.45185 0
0.912657 0.445762 0
0.924926 0.439033 0
0.935683 0.432105 0
0.94461 0.424018 0
0.952331 0.415503 0
0.959976 0.406775 0
0.967376 0.397406 0
0 0.474067 0
0.00939956 0.47599 0
0.0188144 0.477424 0
0.0282139 0.478218 0
0.0376135 0.478431 0
0.0470283 0.481605 0
0.0564279 0.486229 0.00108339
0.079057 0.490028 0.00274662
0.111131 0.493874 0.00132753
0.14345 0.498527 0
0.1794 0.504082 0
0.21677 0.512169 0
0.297826 0.520638 0
0.410758 0.530953 0
0.500694 0.540261 0
0.585565 0.547066 0
0.650858 0.550118 0
0.702403 0.550332 0
0.743725 0.548699 0
0.777279 0.545785 0
0.806119 0.542382 0
0.831342 0.538628 0
0.853956 0.534936 0
0.874144 0.530632 0
0.892195 0.52578 0
0.908446 0.520317 0
0.922927 0.514122 0
0.935576 0.507332 0
0.946822 0.500145 0
0.956161 0.491936 0
0.964263 0.483284 0
0.971847 0.474434 0
0.979538 0.465553 0
0 0.522057 0
0.00939956 0.524025 0
0.0188144 0.525292 0
0.0282139 0.525917 0
0.0376135 0.526177 0
0.0470283 0.527581 0
0.0564279 0.53196 0
0.0763256 0.536263 0
0.109148 0.540307 0
0.140078 0.5458 0
0.174685 0.551995 0
0.211536 0.560464 0
0.25861 0.570733 0
0.390463 0.58117 0
0.486198 0.593118 0
0.575921 0.602289 0
0.64799 0.607996 0
0.703044 0.609705 0
0.747005 0.609262 0
0.782467 0.607462 0
0.812222 0.604379 0
0.838239 0.601343 0
0.861494 0.598383 0
0.882124 0.594903 0
0.900664 0.591012 0
0.917647 0.586648 0
0.932464 0.581186 0
0.945541 0.575067 0
0.956878 0.568368 0
0.966873 0.561364 0
0.975128 0.553109 0
0.983047 0.544686 0
0.990906 0.535958 0
0 0.565408 0
0.00939956 0.567224 0
0.0188144 0.568444 0
0.0282139 0.569238 0
0.0376135 0.569604 0
0.0470283 0.569604 0
0.0564279 0.573602 0
0.0749828 0.57818 0
0.107301 0.582284 0
0.137209 0.587701 0
0.17023 0.593912 0
0.206439 0.602426 0
0.244144 0.613504 0
0.354589 0.62475 0
0.469261 0.638376 0
0.563149 0.649363 0
0.641535 0.65713 0
0.700496 0.660304 0
0.747509 0.661036 0
0.784405 0.659892 0
0.815152 0.657511 0
0.841489 0.654826 0
0.863386 0.651316 0
0.883146 0.64773 0
0.901503 0.644083 0
0.918303 0.640009 0
0.933837 0.635935 0
0.948043 0.631434 0
0.960784 0.626444 0
0.971786 0.620935 0
0.981186 0.615198 0
0.9906 0.609003 0
1 0.602289 0
0 0.604578 0
0.00939956 0.60618 0
0.0188144 0.60734 0
0.0282139 0.608072 0
0.0376135 0.608408 0
0.0470283 0.608484 0
0.0564279 0.610452 0
0.0729076 0.614481 0
0.105104 0.618006 0
0.134234 0.623102 0
0.165591 0.628992 0
0.200946 0.63711 0
0.238193 0.648264 0
0.313069 0.660105 0
0.44831 0.674098 0
0.546014 0.687129 0
0.631113 0.6972 0
0.694224 0.702159 0
0.744167 0.704005 0
0.783948 0.704189 0
0.814984 0.70248 0
0.839323 0.699214 0
0.860868 0.69601 0
0.880888 0.692958 0
0.899458 0.689982 0
0.916625 0.686854 0
0.932342 0.683238 0
0.946609 0.679362 0
0.959594 0.675135 0
0.97113 0.670619 0
0.981186 0.665888 0
0.9906 0.66067 0
1 0.655253 0
0 0.638193 0
0.00939956 0.63946 0
0.0188144 0.64033 0
0.0282139 0.640818 0
0.0376135 0.641138 0
0.0470283 0.641276 0
0.0564279 0.641596 0
0.0703441 0.645304 0
0.102144 0.648463 0
0.131014 0.653193 0
0.16083 0.658778 0
0.195041 0.666056 0
0.231601 0.676555 0
0.285283 0.688792 0
0.423178 0.702159 0
0.5252 0.716411 0
0.616419 0.728344 0
0.684916 0.735225 0
0.73843 0.738567 0
0.781003 0.740001 0
0.812909 0.73901 0
0.836545 0.736019 0
0.858305 0.733272 0
0.878721 0.730846 0
0.897536 0.728313 0
0.915022 0.725841 0
0.931029 0.723232 0
0.945647 0.720409 0
0.95877 0.71722 0
0.97055 0.713603 0
0.98114 0.709819 0
0.990585 0.705684 0
1 0.701549 0
0 0.667216 0
0.00939956 0.668345 0
0.0188144 0.669108 0
0.0282139 0.669581 0
0.0376135 0.669902 0
0.0470283 0.670085 0
0.0564279 0.670039 0
0.0672465 0.672663 0
0.0981918 0.675502 0
0.127245 0.679576 0
0.156146 0.684825 0
0.188617 0.691386 0
0.224704 0.700954 0
0.265614 0.7131 0
0.393744 0.725567 0
0.502174 0.740749 0
0.597665 0.753841 0
0.673213 0.762966 0
0.730419 0.767376 0
0.775586 0.76968 0
0.809079 0.769451 0
0.833509 0.767147 0
0.855726 0.764874 0
0.876448 0.762753 0
0.895689 0.760723 0
0.913497 0.758709 0
0.929778 0.756634 0
0.944671 0.754314 0
0.958144 0.752026 0
0.97026 0.749462 0
0.980957 0.746471 0
0.99057 0.743435 0
0.999985 0.740032 0
0 0.69337 0
0.00939956 0.694392 0
0.0188144 0.695125 0
0.0282139 0.695628 0
0.0376135 0.695979 0
0.0470283 0.696147 0
0.0564279 0.696193 0
0.0658427 0.697124 0
0.0920424 0.700389 0
0.12311 0.703716 0
0.151171 0.708507 0
0.182071 0.714473 0
0.217304 0.72285 0
0.254658 0.734539 0
0.352651 0.746838 0
0.477897 0.761959 0
0.576226 0.775753 0
0.6589 0.786694 0
0.720378 0.792554 0
0.769192 0.795773 0
0.804959 0.796429 0
0.83032 0.794522 0
0.852949 0.792508 0
0.874144 0.790799 0
0.893706 0.789029 0
0.911818 0.787366 0
0.928435 0.785519 0
0.943603 0.783688 0
0.957473 0.781735 0
0.969863 0.779751 0
0.980896 0.77763 0
0.990585 0.775143 0
1 0.772625 0
0 0.717494 0
0.00939956 0.718379 0
0.0188144 0.718914 0
0.0282139 0.719402 0
0.0376135 0.719722 0
0.0470283 0.719905 0
0.0564279 0.719966 0
0.0658427 0.719905 0
0.0864729 0.722881 0
0.118257 0.72578 0
0.146258 0.730312 0
0.175723 0.735698 0
0.209827 0.743114 0
0.246738 0.753948 0
0.306844 0.766384 0
0.451881 0.780499 0
0.553384 0.795209 0
0.642786 0.807645 0
0.708934 0.814878 0
0.760952 0.818845 0
0.801068 0.820737 0
0.826902 0.819074 0
0.850065 0.817395 0
0.871656 0.815824 0
0.891615 0.814313 0
0.910109 0.812924 0
0.927138 0.81146 0
0.942626 0.809827 0
0.956725 0.808194 0
0.969467 0.806516 0
0.980789 0.804807 0
0.9906 0.802838 0
1 0.800702 0
0 0.739376 0
0.00939956 0.740169 0
0.0188144 0.740764 0
0.0282139 0.741207 0
0.0376135 0.741527 0
0.0470283 0.741726 0
0.0564279 0.741787 0
0.0658427 0.741772 0
0.0808728 0.743465 0
0.112673 0.746136 0
0.141054 0.750301 0
0.169665 0.755398 9.15541e-05
0.202228 0.761837 0.000228885
0.238621 0.77171 0
0.286244 0.783948 0
0.422232 0.797055 0
0.528756 0.812314 0
0.623468 0.825849 0
0.695857 0.834714 0
0.751568 0.839597 0
0.795499 0.842405 0
0.823362 0.841398 0
0.847013 0.839811 0
0.869017 0.838483 0
0.889403 0.837278 0
0.908278 0.835966 0
0.925689 0.834745 0
0.941527 0.833539 0
0.955993 0.832212 0
0.969024 0.830839 0
0.980606 0.829358 0
0.9906 0.827726 0
1 0.825956 0
0 0.759625 0
0.00939956 0.760342 0
0.0188144 0.760891 0
0.0282139 0.761303 0
0.0376135 0.761608 0
0.0470283 0.761776 0
0.0564279 0.761883 0
0.0658427 0.761883 0
0.0752422 0.76231 0
0.105272 0.765377 0
0.135714 0.768795 0
0.16379 0.773648 0.000747692
0.194797 0.779644 0.00167849
0.230381 0.788098 0.000595102
0.268452 0.8 0
0.386755 0.8121 0
0.503258 0.827604 0
0.601984 0.841764 0
0.681361 0.852384 0
0.740993 0.858106 0
0.787808 0.861494 0
0.819425 0.861631 0
0.843717 0.860227 0
0.866163 0.859037 0
0.887083 0.858061 0
0.906264 0.857023 0
0.924071 0.855985 0
0.940322 0.854841 0
0.955093 0.853803 0
0.968414 0.852674 0
0.980362 0.851423 0
0.9906 0.85008 0
1 0.848737 0
0 0.778531 0
0.00939956 0.779126 0
0.0188144 0.779629 0
0.0282139 0.77998 0
0.0376135 0.780255 0
0.0470283 0.780438 0
0.0564279 0.780529 0
0.0658427 0.780575 0
0.0752422 0.780529 0
0.0978714 0.783047 0
0.130068 0.786114 0
0.15816 0.790753 0.00112917
0.18761 0.796078 0.00247196
0.222232 0.803784 0.00196841
0.259724 0.814633 0.000259403
0.337118 0.826535 0
0.476722 0.841077 0
0.577829 0.855711 0
0.664393 0.867765 0
0.728862 0.874846 0
0.779507 0.879026 0
0.815122 0.880186 0
0.840208 0.878996 0
0.863233 0.877958 0
0.88455 0.877012 0
0.904158 0.876158 0
0.922393 0.875334 0
0.938949 0.874388 0
0.954131 0.873472 0
0.967849 0.872526 0
0.980102 0.871489 0
0.9906 0.87042 0
1 0.869276 0
0 0.79617 0.000854505
0.00939956 0.796704 0.0011902
0.0188144 0.797131 0.00132753
0.0282139 0.797498 0.00151064
0.0376135 0.797757 0.00166323
0.0470283 0.797925 0.00175479
0.0564279 0.798047 0.00183108
0.0658427 0.798093 0.0018616
0.0752422 0.798077 0.0018616
0.0910353 0.799298 0.00196841
0.123583 0.802274 0.00228885
0.15227 0.806699 0.00387579
0.180972 0.81181 0.00366217
0.214054 0.818418 0.00323491
0.251057 0.828321 0.00173953
0.304799 0.84007 0
0.448005 0.853239 0
0.552331 0.868238 0
0.64567 0.881636 0
0.715373 0.889967 0
0.769451 0.894804 0
0.810636 0.897337 0
0.836561 0.896284 0
0.860044 0.895247 0
0.881788 0.894392 0
0.901961 0.89366 0
0.920562 0.892912 0
0.93753 0.892195 0
0.953048 0.891432 0
0.967086 0.890669 0
0.97969 0.88986 0
0.9906 0.889021 0
1 0.888106 0
0.000366217 0.812726 0.00480659
0.00973526 0.813153 0.00489815
0.0191348 0.813474 0.00502022
0.0286259 0.813764 0.0053254
0.0380713 0.813993 0.00544747
0.0474861 0.814145 0.00553903
0.0569009 0.814252 0.00561532
0.0663157 0.814313 0.00570687
0.0757305 0.814313 0.00564584
