3DLUTS/Munk_70pross.cube
TITLE "Generated by Resolve"
LUT_3D_SIZE 5
0.0151522 0 0.0040589
0.232334 0.00357061 0
0.634119 0 0
0.825391 0 0
0.912993 0 0
0 0.167971 0
0.188754 0.169329 0.00573739
0.642832 0.133639 0
0.842252 0.119005 0
0.928298 0.0879988 0
0 0.522057 0
0.109148 0.540307 0
0.64799 0.607996 0
0.900664 0.591012 0
0.990906 0.535958 0
0 0.759625 0
0.0752422 0.76231 0
0.503258 0.827604 0
0.887083 0.858061 0
1 0.848737 0
0.00115969 0.876982 0.0280613
0.0764019 0.877134 0.0283818
0.273228 0.908232 0.00349432
0.861738 0.974029 0
1 0.972473 0
0 0.00959792 0.219059
0.218051 0.00146487 0.20972
0.629053 0 0.146288
0.828046 0 0.110323
0.915923 0 0.083711
0 0.163119 0.174945
0.182757 0.166232 0.175906
0.64097 0.130098 0.136217
0.843137 0.116045 0.122438
0.929168 0.085359 0.0907454
0 0.519966 0.122423
0.106325 0.538201 0.129335
0.643915 0.604974 0.0899672
0.899947 0.586618 0.0836652
0.989639 0.528893 0.0752422
0 0.758389 0.0752422
0.0752422 0.760769 0.0752422
0.495949 0.82565 0.0752422
0.886473 0.857389 0.0752422
1 0.848127 0.0752422
0.00115969 0.876951 0.103304
0.0764019 0.877119 0.103624
0.27216 0.907805 0.0789197
0.861509 0.974014 0.0752422
1 0.972457 0.0752422
0 0.0137331 0.590082
0.0984817 0 0.606317
0.62649 0 0.616312
0.839551 0 0.596674
0.927596 0 0.548531
0 0.157809 0.558816
0.0762188 0.156985 0.584451
0.645975 0.124285 0.631571
0.856672 0.110475 0.613474
0.939742 0.0799573 0.557794
0 0.547845 0.598459
0.101183 0.566339 0.617563
0.609903 0.611215 0.616632
0.882612 0.584726 0.590356
0.980636 0.528939 0.538415
0 0.781415 0.518257
0.0752422 0.785321 0.533639
0.393423 0.83357 0.520745
0.87892 0.854658 0.456031
0.99556 0.840955 0.369574
0.00135805 0.889174 0.374563
0.0763714 0.89131 0.396368
0.266194 0.917388 0.400259
0.856809 0.967941 0.253971
0.998474 0.968978 0.225025
0 0.0198825 0.747814
0.0752422 0.00764477 0.768551
0.618082 0 0.816495
0.848692 0 0.824109
0.941421 0 0.816037
0 0.159091 0.737438
0.0752422 0.159045 0.761639
0.638575 0.12015 0.838529
0.867842 0.105959 0.844968
0.951202 0.0774548 0.826017
0 0.548562 0.821454
0.0839094 0.566201 0.830594
0.556497 0.617044 0.850523
0.878859 0.578103 0.870314
0.980499 0.525917 0.860639
0 0.794141 0.851469
0.0752422 0.79707 0.854795
0.327626 0.84448 0.864057
0.865003 0.868788 0.860212
0.989349 0.860594 0.849836
0 0.913314 0.821866
0.0752422 0.913878 0.828672
0.257572 0.936477 0.836194
0.829084 0.985092 0.826444
0.988952 0.986328 0.813428
0 0.0204318 0.830503
0.0752422 0.0104067 0.850263
0.603159 0 0.905013
0.848615 0 0.919966
0.94493 0 0.922698
0 0.152163 0.824842
0.0752422 0.151583 0.845579
0.621164 0.111254 0.928756
0.865995 0.0977188 0.940368
0.951476 0.0752422 0.929931
0 0.5364 0.910643
0.0752422 0.555718 0.920363
0.53257 0.607202 0.945754
0.876844 0.568292 0.976669
0.981826 0.521691 0.975891
0 0.79321 0.969696
0.0752422 0.79617 0.970275
0.320348 0.840818 0.981521
0.853269 0.869688 0.982086
0.988449 0.858763 0.986221
0 0.915511 0.973342
0.0752422 0.915984 0.974548
0.252384 0.936675 0.981796
0.823224 0.985931 0.983291
0.987167 0.987655 0.982116
