3DLUTS/Munk_70pross.cube
TITLE "Generated by Resolve"
LUT_3D_SIZE 9
0.0151522 0 0.0040589
0.0961929 0.00198367 0.00781262
0.232334 0.00357061 0
0.44712 0 0
0.634119 0 0
0.748501 0 0
0.825391 0 0
0.875364 0 0
0.912993 0 0
0 0.0745098 0.00634775
0.0852522 0.0726635 0.00540169
0.216632 0.0683604 0
0.434363 0.0570687 0
0.63566 0.0376135 0
0.750301 0.0376135 0
0.825467 0.0376135 0
0.875364 0.0376135 0
0.912993 0.0376135 0
0 0.167971 0
0.0594949 0.16846 0.000228885
0.188754 0.169329 0.00573739
0.413352 0.169909 0
0.642832 0.133639 0
0.76495 0.128405 0
0.842252 0.119005 0
0.894896 0.104112 0
0.928298 0.0879988 0
0 0.321569 0
0.0376135 0.327565 0
0.127199 0.336538 0.0134585
0.374472 0.34815 0
0.646387 0.355016 0
0.781674 0.342916 0
0.862837 0.325353 0
0.914031 0.300206 0
0.946532 0.26743 0
0 0.522057 0
0.0376135 0.526177 0
0.109148 0.540307 0
0.25861 0.570733 0
0.64799 0.607996 0
0.812222 0.604379 0
0.900664 0.591012 0
0.956878 0.568368 0
0.990906 0.535958 0
0 0.667216 0
0.0376135 0.669902 0
0.0981918 0.675502 0
0.224704 0.700954 0
0.597665 0.753841 0
0.809079 0.769451 0
0.895689 0.760723 0
0.958144 0.752026 0
0.999985 0.740032 0
0 0.759625 0
0.0376135 0.761608 0
0.0752422 0.76231 0
0.194797 0.779644 0.00167849
0.503258 0.827604 0
0.787808 0.861494 0
0.887083 0.858061 0
0.955093 0.853803 0
1 0.848737 0
0.000793469 0.827893 0.00827039
0.038529 0.829084 0.0090486
0.0761883 0.829389 0.00924697
0.16788 0.839567 0.0150759
0.366247 0.874983 0
0.746105 0.922103 0
0.875868 0.925414 0
0.950545 0.923247 0
1 0.921141 0
0.00115969 0.876982 0.0280613
0.0387884 0.877089 0.0282902
0.0764019 0.877134 0.0283818
0.139712 0.880964 0.0306249
0.273228 0.908232 0.00349432
0.682673 0.960723 0
0.861738 0.974029 0
0.943938 0.973022 0
1 0.972473 0
0.00486763 0.000442512 0.0798199
0.0924086 0.0021973 0.0790875
0.226184 0.00309758 0.0693217
0.439994 0 0.0376135
0.631708 0 0.0376135
0.74699 0 0.0376135
0.824857 0 0.0376135
0.875364 0 0.0376135
0.912993 0 0.0376135
0 0.0722057 0.0719768
0.0824598 0.0704356 0.0698405
0.212207 0.0659648 0.0597696
0.429725 0.0545205 0.0376135
0.632715 0.0376135 0.0376135
0.748394 0.0376135 0.0376135
0.824994 0.0376135 0.0376135
0.875364 0.0376135 0.0376135
0.912993 0.0376135 0.0376135
0 0.164767 0.0486
0.0586252 0.165316 0.0500038
0.185443 0.166278 0.0504005
0.406973 0.166903 0.0376135
0.639277 0.13138 0.0376135
0.763317 0.126284 0.0376135
0.841443 0.11693 0.0376135
0.894545 0.102129 0.0376135
0.927687 0.0863355 0.0376135
0 0.317617 0.0376135
0.0376135 0.323308 0.0376135
0.125338 0.332464 0.0509346
0.369345 0.343328 0.0376135
0.642725 0.350469 0.0376135
0.779797 0.338491 0.0376135
0.861662 0.321691 0.0376135
0.913359 0.296971 0.0376135
0.946151 0.26331 0.0376135
0 0.518929 0.0376135
0.0376135 0.523598 0.0376135
0.107271 0.53724 0.0376135
0.251438 0.567407 0.0376135
0.644907 0.60499 0.0376135
0.810788 0.601709 0.0376135
0.900084 0.588617 0.0376135
0.956466 0.56611 0.0376135
0.990494 0.533623 0.0376135
0 0.666026 0.0376135
0.0376135 0.669017 0.0376135
0.0968338 0.674479 0.0376135
0.223423 0.699596 0.0376135
0.594736 0.752651 0.0376135
0.808606 0.768917 0.0376135
0.895476 0.760098 0.0376135
0.958099 0.751461 0.0376135
0.999969 0.739544 0.0376135
0 0.759167 0.0376135
0.0376135 0.761181 0.0376135
0.0752422 0.761807 0.0376135
0.194034 0.779095 0.0392767
0.501015 0.826993 0.0376135
0.787274 0.86125 0.0376135
0.886976 0.857908 0.0376135
0.955047 0.853697 0.0376135
1 0.848661 0.0376135
0.000808728 0.827741 0.0458381
0.0385138 0.828946 0.0465858
0.0761578 0.829297 0.0467994
0.167575 0.839414 0.0525063
0.364233 0.874815 0.0376135
0.745815 0.922042 0.0376135
0.875837 0.925414 0.0376135
0.950545 0.923278 0.0376135
1 0.921172 0.0376135
0.00115969 0.876982 0.0656901
0.0387884 0.877089 0.0659037
0.0764019 0.877119 0.0660105
0.13962 0.880949 0.0682689
0.273228 0.908232 0.0410925
0.682933 0.960754 0.0376135
0.861845 0.974029 0.0376135
0.94403 0.973022 0.0376135
1 0.972488 0.0376135
0 0.00959792 0.219059
0.0676127 0.00683604 0.22356
0.218051 0.00146487 0.20972
0.428962 0 0.179156
0.629053 0 0.146288
0.748684 0 0.130114
0.828046 0 0.110323
0.879118 0 0.0963607
0.915923 0 0.083711
0 0.0761883 0.19678
0.0581064 0.073228 0.201465
0.205112 0.0623331 0.195605
0.422492 0.046067 0.17261
0.630793 0.0376135 0.145678
0.748989 0.0376135 0.1308
0.828428 0.0376135 0.112398
0.879271 0.0376135 0.0990463
0.916182 0.0376135 0.0868849
0 0.163119 0.174945
0.0501869 0.164309 0.176043
0.182757 0.166232 0.175906
0.405371 0.165713 0.158541
0.64097 0.130098 0.136217
0.765057 0.125338 0.13164
0.843137 0.116045 0.122438
0.89659 0.101503 0.107836
0.929168 0.085359 0.0907454
0 0.318547 0.146242
0.0376135 0.324422 0.150118
0.125811 0.335103 0.156466
0.369619 0.345068 0.136461
0.644816 0.349676 0.112993
0.780835 0.336309 0.114504
0.862547 0.318654 0.112673
0.913817 0.292988 0.105623
0.946517 0.257298 0.0920577
0 0.519966 0.122423
0.0376135 0.524971 0.12517
0.106325 0.538201 0.129335
0.247654 0.56788 0.0984512
0.643915 0.604974 0.0899672
0.810513 0.600595 0.0882124
0.899947 0.586618 0.0836652
0.956237 0.563149 0.0753796
0.989639 0.528893 0.0752422
0 0.665309 0.0755016
0.0376135 0.668528 0.0791333
0.0952621 0.673747 0.0828412
0.221042 0.698054 0.0881361
0.590188 0.751278 0.0752422
0.80734 0.767773 0.0752422
0.894987 0.758648 0.0752422
0.957977 0.750027 0.0752422
0.999924 0.738048 0.0752422
0 0.758389 0.0752422
0.0376135 0.760388 0.0752422
0.0752422 0.760769 0.0752422
0.192401 0.77792 0.0767987
0.495949 0.82565 0.0752422
0.785565 0.860563 0.0752422
0.886473 0.857389 0.0752422
0.954879 0.853178 0.0752422
1 0.848127 0.0752422
0.000869764 0.827451 0.0834516
0.0384833 0.828626 0.084062
0.0761425 0.829023 0.0842603
0.166506 0.83888 0.0897383
0.356008 0.874098 0.0752422
0.743938 0.92163 0.0752422
0.875425 0.925246 0.0752422
0.950362 0.923095 0.0752422
1 0.921004 0.0752422
0.00115969 0.876951 0.103304
0.0387884 0.877089 0.103517
0.0764019 0.877119 0.103624
0.138582 0.880796 0.105791
0.27216 0.907805 0.0789197
0.680964 0.960449 0.0752422
0.861509 0.974014 0.0752422
0.943862 0.972992 0.0752422
1 0.972457 0.0752422
0 0.00422675 0.441062
0.0376135 0.000808728 0.444434
0.164096 0 0.44947
0.418357 0 0.427192
0.624704 0 0.405982
0.749142 0 0.379019
0.829648 0 0.3467
0.881117 0 0.311376
0.917845 0 0.267292
0 0.0634165 0.422827
0.0376135 0.0592203 0.429007
0.154116 0.0423896 0.439185
0.415549 0.0376135 0.423774
0.626444 0.0376135 0.406439
0.749538 0.0376135 0.380789
0.83035 0.0376135 0.352224
0.881422 0.0376135 0.319554
0.918059 0.0376135 0.282506
0 0.149416 0.374701
0.0376135 0.151553 0.381521
0.119493 0.163348 0.395636
0.39852 0.152651 0.406699
0.640803 0.126085 0.401679
0.767605 0.121874 0.383886
0.846082 0.112688 0.354742
0.898787 0.0981003 0.319799
0.930724 0.0823682 0.274739
0 0.322698 0.360876
0.0376135 0.328695 0.368063
0.12224 0.341375 0.381918
0.353689 0.35137 0.377584
0.639735 0.343893 0.365057
0.777478 0.324651 0.350515
0.860395 0.305608 0.329809
0.913588 0.275181 0.300481
0.949126 0.225605 0.263493
0 0.530831 0.320684
0.0376135 0.536858 0.329198
0.104936 0.55021 0.341009
0.241764 0.575662 0.336416
0.631479 0.599832 0.266056
0.802563 0.594308 0.227115
0.89424 0.581338 0.218448
0.953735 0.56054 0.20824
0.990524 0.5299 0.19585
0 0.672175 0.2813
0.0376135 0.676127 0.291875
0.0939803 0.680751 0.296544
0.217487 0.702296 0.292592
0.579171 0.749004 0.203464
0.804944 0.767849 0.19411
0.893355 0.759701 0.185199
0.956909 0.751553 0.174899
0.999374 0.739742 0.164446
0 0.761776 0.235325
0.0376135 0.764538 0.244465
0.0752422 0.764965 0.245914
0.189914 0.781064 0.249256
0.486122 0.825208 0.176486
0.78352 0.860655 0.165591
0.8851 0.857511 0.158831
0.953948 0.853162 0.151507
0.999664 0.847974 0.143267
0.000564584 0.829343 0.210727
0.0383154 0.831144 0.218418
0.0760204 0.831754 0.220737
0.164874 0.841367 0.224887
0.344808 0.873152 0.159899
0.740795 0.920684 0.142626
0.874174 0.924453 0.13611
0.949508 0.922499 0.129198
1 0.920623 0.118517
0.000854505 0.877409 0.172335
0.0385443 0.87808 0.183322
0.0762341 0.878325 0.18703
0.137041 0.881605 0.187488
0.269688 0.906706 0.154925
0.677531 0.959792 0.115694
0.860883 0.973968 0.112871
0.943572 0.972976 0.112871
0.999985 0.972427 0.112871
0 0.0137331 0.590082
0.0376135 0.0104524 0.596643
0.0984817 0 0.606317
0.396948 0 0.623392
0.62649 0 0.616312
0.757076 0 0.609873
0.839551 0 0.596674
0.891585 0 0.576364
0.927596 0 0.548531
0 0.0689403 0.5832
0.0376135 0.0659037 0.590021
0.0940871 0.0517739 0.602106
0.394812 0.0376135 0.623926
0.627375 0.0376135 0.61706
0.757809 0.0376135 0.611368
0.84036 0.0376135 0.600153
0.892073 0.0376135 0.5823
0.928191 0.0376135 0.557855
0 0.157809 0.558816
0.0376135 0.160143 0.565759
0.0762188 0.156985 0.584451
0.374334 0.132784 0.629297
0.645975 0.124285 0.631571
0.775662 0.119982 0.626688
0.856672 0.110475 0.613474
0.909102 0.0960403 0.592035
0.939742 0.0799573 0.557794
0 0.30248 0.552636
0.0376135 0.31194 0.558602
0.0806897 0.338506 0.576242
0.290089 0.365789 0.600534
0.637247 0.340932 0.630488
0.779507 0.319341 0.627039
0.864134 0.298177 0.616358
0.91931 0.262364 0.596368
0.956756 0.217594 0.5682
0 0.547845 0.598459
0.0376135 0.553765 0.605035
0.101183 0.566339 0.617563
0.236973 0.591272 0.627832
0.609903 0.611215 0.616632
0.789746 0.601068 0.605814
0.882612 0.584726 0.590356
0.94287 0.562005 0.568429
0.980636 0.528939 0.538415
0 0.694926 0.574716
0.0376135 0.698528 0.584039
0.0874037 0.702937 0.589593
0.211826 0.72224 0.597559
0.534203 0.757763 0.573861
0.779736 0.76788 0.55108
0.886503 0.761746 0.527611
0.951156 0.751263 0.498314
0.994217 0.73727 0.462425
0 0.781415 0.518257
0.0376135 0.784695 0.531167
0.0752422 0.785321 0.533639
0.184466 0.800076 0.544518
0.393423 0.83357 0.520745
0.755261 0.855879 0.485908
0.87892 0.854658 0.456031
0.948714 0.848035 0.420768
0.99556 0.840955 0.369574
0 0.844999 0.44918
0.0376135 0.847532 0.464332
0.0752422 0.848356 0.469017
0.161257 0.85742 0.476921
0.301625 0.884688 0.464546
0.716701 0.91519 0.412619
0.868986 0.918914 0.373297
0.94609 0.91516 0.311101
0.998093 0.913481 0.263447
0.00135805 0.889174 0.374563
0.038819 0.89073 0.390173
0.0763714 0.89131 0.396368
0.135882 0.894255 0.398779
0.266194 0.917388 0.400259
0.65861 0.953307 0.325704
0.856809 0.967941 0.253971
0.941466 0.968322 0.236393
0.998474 0.968978 0.225025
0 0.0179446 0.683009
0.0376135 0.0157473 0.689677
0.0791028 0.00454719 0.702647
0.367086 0 0.734722
0.623499 0 0.737697
0.760632 0 0.740124
0.845899 0 0.737224
0.89929 0 0.728847
0.93637 0 0.716442
0 0.0698863 0.680079
0.0376135 0.0677043 0.68658
0.0757153 0.0542 0.700816
0.365087 0.0376135 0.735821
0.623957 0.0376135 0.737987
0.761746 0.0376135 0.741314
0.84683 0.0376135 0.739391
0.899718 0.0376135 0.732158
0.936584 0.0376135 0.721035
0 0.160021 0.665415
0.0376135 0.162295 0.67126
0.0752422 0.159609 0.690608
0.343725 0.137636 0.744106
0.644556 0.122744 0.757824
0.780011 0.118456 0.759518
0.864225 0.108583 0.757153
0.916365 0.0951553 0.746441
0.947585 0.0792401 0.727459
0 0.286748 0.664591
0.0376135 0.292088 0.667033
0.0752422 0.325414 0.68545
0.253727 0.369619 0.717693
0.630823 0.338369 0.770016
0.781582 0.314549 0.770382
0.868238 0.288884 0.768414
0.925902 0.252293 0.76141
0.965057 0.216281 0.749569
0 0.549523 0.741344
0.0376135 0.555428 0.745388
0.0925307 0.5682 0.754604
0.226139 0.593591 0.766308
0.575006 0.618051 0.766979
0.78529 0.599329 0.779049
0.87982 0.582589 0.773846
0.940841 0.560037 0.765591
0.979736 0.528771 0.753643
0 0.70161 0.757687
0.0376135 0.704784 0.761608
0.0837262 0.708141 0.76463
0.207858 0.726513 0.773541
0.499306 0.762921 0.769024
0.768597 0.774075 0.7664
0.878386 0.768978 0.759228
0.946349 0.760311 0.749065
0.98941 0.748135 0.736004
0 0.792615 0.740917
0.0376135 0.79498 0.746593
0.0752422 0.795514 0.74786
0.180697 0.807919 0.75555
0.331548 0.844633 0.752575
0.738827 0.866484 0.743328
0.86894 0.867155 0.733852
0.944366 0.863508 0.721645
0.99115 0.857603 0.705104
0 0.86009 0.709072
0.0376135 0.861799 0.71754
0.0752422 0.862425 0.720333
0.156832 0.869917 0.725185
0.296407 0.897475 0.726543
0.692973 0.9281 0.709804
0.855009 0.933288 0.697978
0.940002 0.93196 0.683391
0.991608 0.928374 0.663951
0 0.908217 0.657755
0.0376135 0.909117 0.670542
0.0752422 0.909407 0.675334
0.128542 0.912215 0.677775
0.260563 0.933471 0.683742
0.626841 0.968078 0.661433
0.837293 0.979278 0.644572
0.934279 0.979553 0.626429
0.991577 0.977234 0.603037
0 0.0198825 0.747814
0.0376135 0.0182956 0.754345
0.0752422 0.00764477 0.768551
0.343694 0 0.80618
0.618082 0 0.816495
0.762188 0 0.822477
0.848692 0 0.824109
0.903929 0 0.821775
0.941421 0 0.816037
0 0.0686656 0.746853
0.0376135 0.0669718 0.752956
0.0752422 0.0540322 0.767834
0.342336 0.0376135 0.806882
0.619196 0.0376135 0.816785
0.763531 0.0376135 0.823301
0.849821 0.0376135 0.825315
0.904326 0.0376135 0.823499
0.941695 0.0376135 0.818433
0 0.159091 0.737438
0.0376135 0.161212 0.742184
0.0752422 0.159045 0.761639
0.321416 0.138491 0.816709
0.638575 0.12015 0.838529
0.781353 0.115587 0.842573
0.867842 0.105959 0.844968
0.920165 0.0932174 0.838636
0.951202 0.0774548 0.826017
0 0.283558 0.7402
0.0376135 0.288884 0.741558
0.0752422 0.326284 0.759655
0.229114 0.372702 0.791104
0.620356 0.342763 0.854902
0.781918 0.320012 0.856199
0.869993 0.302144 0.856886
0.927855 0.266224 0.85388
0.968338 0.218341 0.84889
0 0.548562 0.821454
0.0376135 0.555047 0.824948
0.0839094 0.566201 0.830594
0.215228 0.592203 0.842893
0.556497 0.617044 0.850523
0.780301 0.595407 0.873365
0.878859 0.578103 0.870314
0.941039 0.556451 0.866819
0.980499 0.525917 0.860639
0 0.702327 0.852659
0.0376135 0.705486 0.854719
0.0794232 0.708705 0.856626
0.202762 0.725963 0.864439
0.475242 0.762051 0.864652
0.752361 0.776928 0.865187
0.875837 0.76788 0.869749
0.944549 0.759136 0.865721
0.987716 0.747234 0.860166
0 0.794141 0.851469
0.0376135 0.796536 0.854154
0.0752422 0.79707 0.854795
0.17792 0.808591 0.860777
0.327626 0.84448 0.864057
0.731106 0.867445 0.862562
0.865003 0.868788 0.860212
0.941558 0.865492 0.855695
0.989349 0.860594 0.849836
0 0.862882 0.840696
0.0376135 0.864393 0.844251
0.0752422 0.864897 0.84538
0.154849 0.871656 0.848997
0.293172 0.898451 0.85359
0.681773 0.930434 0.848447
0.849699 0.936706 0.846082
0.936141 0.936172 0.841001
0.989639 0.934127 0.834485
0 0.913314 0.821866
0.0376135 0.913725 0.826673
0.0752422 0.913878 0.828672
0.125536 0.916289 0.830091
0.257572 0.936477 0.836194
0.607523 0.972366 0.828916
0.829084 0.985092 0.826444
0.928801 0.986679 0.821103
0.988952 0.986328 0.813428
0 0.0204318 0.792874
0.0376135 0.0191501 0.799023
0.0752422 0.00939956 0.813855
0.324819 0 0.853117
0.611231 0 0.867735
0.7608 0 0.876143
0.84976 0 0.881102
0.90631 0 0.882353
0.944411 0 0.880583
0 0.066041 0.793027
0.0376135 0.0645914 0.798489
0.0752422 0.0522927 0.813596
0.324437 0.0376135 0.853223
0.613123 0.0376135 0.867887
0.76257 0.0376135 0.876432
0.850996 0.0376135 0.88159
0.9066 0.0376135 0.882948
0.944503 0.0376135 0.881483
0 0.156069 0.786999
0.0376135 0.157855 0.790478
0.0752422 0.155947 0.809766
0.302983 0.136507 0.864317
0.630182 0.116304 0.891875
0.780224 0.111208 0.898573
0.868269 0.102296 0.902617
0.920989 0.090013 0.89868
0.952789 0.0752422 0.889677
0 0.280613 0.792813
0.0376135 0.283452 0.793347
0.0752422 0.322026 0.811124
0.203281 0.372503 0.840314
0.610285 0.346288 0.911727
0.780224 0.32668 0.914565
0.870344 0.314275 0.916854
0.928206 0.290898 0.915526
0.967269 0.236072 0.91281
0 0.543908 0.873854
0.0376135 0.550591 0.877043
0.0771038 0.562966 0.883741
0.206668 0.588403 0.89546
0.543496 0.614069 0.907012
0.774517 0.591867 0.935912
0.87805 0.574701 0.934035
0.941436 0.554208 0.932921
0.981582 0.525826 0.929824
0 0.700954 0.914061
0.0376135 0.70425 0.915373
0.0752422 0.70779 0.917723
0.197726 0.724544 0.925139
0.45594 0.760128 0.92604
0.743053 0.776608 0.929213
0.87277 0.765774 0.93962
0.943877 0.756695 0.937316
0.987427 0.744305 0.934691
0 0.794064 0.921752
0.0376135 0.796384 0.92311
0.0752422 0.796994 0.92343
0.174731 0.808408 0.928756
0.324041 0.842878 0.933867
0.724971 0.86685 0.933867
0.857481 0.869963 0.932509
0.940581 0.86479 0.934188
0.988602 0.859907 0.931609
0 0.863416 0.919707
0.0376135 0.865003 0.921553
0.0752422 0.865538 0.92221
0.152392 0.87158 0.924559
0.290288 0.897917 0.931273
0.67538 0.930175 0.929229
0.846998 0.936812 0.929854
0.934722 0.936355 0.928023
0.988663 0.934447 0.925261
0 0.9149 0.912612
0.0376135 0.915236 0.914916
0.0752422 0.915358 0.915846
0.123217 0.917525 0.91693
0.255009 0.936629 0.922835
0.596445 0.972351 0.919341
0.825605 0.985885 0.921172
0.926955 0.987671 0.919356
0.987579 0.987503 0.916167
0 0.0204318 0.830503
0.0376135 0.019379 0.835737
0.0752422 0.0104067 0.850263
0.307393 0 0.888579
0.603159 0 0.905013
0.757534 0 0.914046
0.848615 0 0.919966
0.906386 0 0.922591
0.94493 0 0.922698
0 0.0627451 0.830716
0.0376135 0.0615702 0.835416
0.0752422 0.0499886 0.850095
0.308293 0.0376135 0.888716
0.605966 0.0376135 0.905196
0.759701 0.0376135 0.91426
0.849882 0.0376135 0.920165
0.906691 0.0376135 0.922621
0.94493 0.0376135 0.922698
0 0.152163 0.824842
0.0376135 0.153552 0.827237
0.0752422 0.151583 0.845579
0.28513 0.132906 0.897383
0.621164 0.111254 0.928756
0.778347 0.105669 0.937697
0.865995 0.0977188 0.940368
0.919493 0.0859846 0.937392
0.951476 0.0752422 0.929931
0 0.275364 0.830549
0.0376135 0.278523 0.831098
0.0752422 0.305013 0.846922
0.192203 0.362173 0.876493
0.600855 0.338079 0.949279
0.776928 0.318349 0.953262
0.868894 0.306996 0.95668
0.927672 0.284962 0.956786
0.966812 0.236805 0.95555
0 0.5364 0.910643
0.0376135 0.543664 0.913817
0.0752422 0.555718 0.920363
0.200458 0.58117 0.932189
0.53257 0.607202 0.945754
0.770947 0.585367 0.977493
0.876844 0.568292 0.976669
0.941207 0.548531 0.977081
0.981826 0.521691 0.975891
0 0.698817 0.956893
0.0376135 0.702113 0.95758
0.0752422 0.704952 0.959228
0.193423 0.721492 0.967163
0.430426 0.757092 0.969223
0.738094 0.774731 0.973129
0.870253 0.76321 0.986252
0.943343 0.753857 0.985214
0.987228 0.741176 0.984527
0 0.79321 0.969696
0.0376135 0.795544 0.970153
0.0752422 0.79617 0.970275
0.171817 0.807172 0.975311
0.320348 0.840818 0.981521
0.719219 0.866011 0.98172
0.853269 0.869688 0.982086
0.939635 0.863722 0.986969
0.988449 0.858763 0.986221
0 0.863462 0.973953
0.0376135 0.865125 0.974578
0.0752422 0.86569 0.974823
0.150103 0.871458 0.976974
0.287068 0.896849 0.984176
0.668894 0.929305 0.983398
0.844739 0.936538 0.985534
0.931746 0.936797 0.984527
0.988312 0.934005 0.985031
0 0.915511 0.973342
0.0376135 0.915862 0.974212
0.0752422 0.915984 0.974548
0.120684 0.9178 0.975311
0.252384 0.936675 0.981796
0.586938 0.971664 0.979614
0.823224 0.985931 0.983291
0.925872 0.987701 0.983185
0.987167 0.987655 0.982116
