3DLUTS/TO-Morpheous.cube
# Created by: Lutify.me
# Copyright: (c) Copyright Lutify.me 2016, G.T. Colord LTD
# Website: https://lutify.me
# Contact: help@lutify.me
LUT_3D_SIZE 9
0.000000 0.000000 0.012024
0.036987 0.000000 0.002655
0.183319 0.000000 0.000000
0.324249 0.000000 0.000000
0.441895 0.000000 0.000000
0.542542 0.000000 0.000000
0.626007 0.000000 0.000031
0.685181 0.000000 0.000031
0.735321 0.000000 0.000031
0.000000 0.040192 0.042297
0.046448 0.035278 0.013916
0.144379 0.044586 0.000000
0.242706 0.056641 0.000031
0.345032 0.061981 0.000000
0.436646 0.061981 0.000031
0.526642 0.059845 0.000000
0.606903 0.061707 0.000031
0.675415 0.066345 0.000031
0.019073 0.148499 0.110229
0.113800 0.145355 0.108307
0.221954 0.137939 0.007202
0.319031 0.152527 0.000000
0.421112 0.170746 0.000000
0.521210 0.187836 0.000031
0.610046 0.203064 0.000000
0.679932 0.216797 0.000000
0.740417 0.230133 0.000031
0.100128 0.266296 0.169342
0.190247 0.260376 0.174683
0.272400 0.261414 0.150604
0.383545 0.252411 0.010437
0.497253 0.270599 0.004700
0.602356 0.290710 0.001709
0.682678 0.308655 0.001862
0.752625 0.326233 0.000031
0.805267 0.341614 0.000000
0.168518 0.400482 0.205597
0.244354 0.396606 0.211151
0.316315 0.382477 0.198914
0.407074 0.391541 0.153687
0.514526 0.382050 0.033142
0.630402 0.401611 0.017914
0.713531 0.420837 0.006744
0.783386 0.441986 0.006958
0.834900 0.459747 0.007294
0.207275 0.558655 0.210358
0.275177 0.554321 0.210205
0.350769 0.534515 0.201172
0.429810 0.525116 0.175415
0.526520 0.532471 0.119690
0.626434 0.532379 0.050568
0.713684 0.539459 0.032806
0.795654 0.555359 0.027893
0.850006 0.572357 0.025360
0.234528 0.697083 0.191437
0.301208 0.686035 0.187256
0.370026 0.668335 0.179199
0.449158 0.646606 0.160675
0.546722 0.644409 0.123505
0.634705 0.648132 0.071716
0.716705 0.651154 0.050476
0.794312 0.657806 0.037262
0.853821 0.666870 0.052673
0.263336 0.806213 0.172913
0.324646 0.791901 0.169769
0.396240 0.776581 0.162720
0.482727 0.758759 0.152924
0.571838 0.741150 0.137604
0.656036 0.747192 0.125092
0.736511 0.753754 0.113190
0.810333 0.761353 0.130585
0.867340 0.767853 0.140015
0.305511 0.877625 0.185760
0.370209 0.864990 0.185303
0.445404 0.851776 0.181854
0.533844 0.836792 0.179260
0.606842 0.822784 0.176605
0.680756 0.816620 0.174713
0.757629 0.822906 0.173035
0.824768 0.829193 0.173309
0.877655 0.834747 0.198029
0.000000 0.000000 0.026398
0.027893 0.001129 0.067780
0.218842 0.000000 0.043030
0.362762 0.000000 0.024475
0.494171 0.000000 0.019318
0.596283 0.000000 0.016846
0.684235 0.000000 0.014709
0.743896 0.000000 0.014252
0.795990 0.000000 0.014313
0.000000 0.042725 0.074005
0.002808 0.063904 0.100098
0.155121 0.071960 0.083344
0.286011 0.065216 0.054230
0.422241 0.043213 0.017609
0.537048 0.028351 0.001129
0.626526 0.023132 0.000031
0.705750 0.021790 0.000000
0.776276 0.025360 0.000000
0.000000 0.152222 0.138428
0.094879 0.169250 0.146637
0.217957 0.165497 0.111877
0.345551 0.158112 0.032135
0.451233 0.166687 0.000000
0.540070 0.183533 0.000000
0.626465 0.199432 0.000000
0.697571 0.212036 0.000000
0.765198 0.223267 0.000000
0.070526 0.274353 0.207947
0.164886 0.290863 0.204010
0.267242 0.278595 0.194550
0.392120 0.279175 0.118469
0.516418 0.279175 0.027374
0.619171 0.293365 0.001740
0.695190 0.311401 0.001923
0.764343 0.327759 0.000000
0.823120 0.342133 0.000000
0.151825 0.415649 0.252075
0.217682 0.431732 0.238922
0.312897 0.410370 0.236847
0.409302 0.414246 0.207001
0.530823 0.417480 0.155670
0.642365 0.427429 0.094910
0.724731 0.440704 0.061737
0.796478 0.460327 0.055573
0.851440 0.478912 0.063904
0.188660 0.575348 0.259613
0.252258 0.588654 0.248535
0.344879 0.574524 0.245361
0.430328 0.549988 0.230530
0.536957 0.560669 0.193542
0.643036 0.569916 0.180054
0.732178 0.576965 0.165314
0.808838 0.593414 0.151764
0.863556 0.608673 0.146515
0.213196 0.711151 0.247559
0.285370 0.719696 0.244781
0.365540 0.706604 0.241425
0.459381 0.685638 0.233521
0.559326 0.672485 0.217865
0.652527 0.680847 0.201691
0.737885 0.689697 0.209564
0.814453 0.697296 0.207642
0.873779 0.705933 0.212921
0.249695 0.815918 0.248810
0.315002 0.820831 0.246735
0.397430 0.809601 0.244843
0.495453 0.792694 0.240570
0.590118 0.774658 0.235382
0.670135 0.771667 0.231781
0.751312 0.778778 0.228333
0.823792 0.786438 0.245209
0.879181 0.791656 0.250275
0.297241 0.887238 0.270294
0.364807 0.890930 0.268982
0.448456 0.880402 0.267639
0.545227 0.865875 0.267365
0.624146 0.851959 0.268066
0.693939 0.838226 0.269989
0.769470 0.842255 0.269745
0.835571 0.848358 0.271271
0.887421 0.853363 0.293213
0.000000 0.010254 0.056854
0.000000 0.043793 0.105042
0.139038 0.047821 0.165100
0.315125 0.027527 0.158691
0.471069 0.012512 0.140656
0.590729 0.000000 0.128571
0.688446 0.000000 0.119965
0.751709 0.000000 0.116272
0.803436 0.000000 0.115723
0.000000 0.060638 0.103180
0.000000 0.087402 0.138763
0.111084 0.112671 0.181763
0.283081 0.112640 0.172424
0.446869 0.108063 0.160950
0.587708 0.098816 0.151123
0.701416 0.086945 0.142456
0.785828 0.077606 0.136597
0.850403 0.071625 0.133301
0.000000 0.155396 0.176300
0.000000 0.185852 0.209595
0.138672 0.210815 0.246094
0.313782 0.220001 0.227356
0.463928 0.226318 0.213989
0.601013 0.227386 0.198639
0.709106 0.231567 0.188660
0.783234 0.236389 0.183624
0.845551 0.242371 0.181152
0.000000 0.280212 0.245026
0.078003 0.302612 0.269135
0.238403 0.325623 0.275269
0.370544 0.324402 0.260010
0.516357 0.336792 0.238586
0.637177 0.349304 0.217377
0.728210 0.361786 0.203613
0.799316 0.374786 0.195374
0.855469 0.390381 0.202271
0.067596 0.427856 0.303741
0.171936 0.449951 0.317749
0.281036 0.471893 0.309631
0.405914 0.450531 0.296204
0.535583 0.464233 0.291046
0.654694 0.482666 0.265381
0.742004 0.499329 0.250732
0.813629 0.516968 0.241791
0.864075 0.537537 0.255768
0.145355 0.590790 0.333710
0.226593 0.606903 0.339233
0.318726 0.623474 0.324402
0.436462 0.605072 0.321106
0.548798 0.596649 0.305389
0.657013 0.609131 0.308624
0.749908 0.619049 0.300171
0.822876 0.636169 0.288300
0.874176 0.655243 0.303345
0.197601 0.724152 0.347809
0.266144 0.733337 0.341064
0.347961 0.742493 0.333832
0.463287 0.732483 0.331085
0.574982 0.709656 0.326630
0.667023 0.712067 0.320404
0.752625 0.721039 0.332336
0.828247 0.728363 0.333405
0.884979 0.740295 0.341858
0.235901 0.825836 0.356171
0.300781 0.830811 0.353210
0.385803 0.837219 0.350067
0.501282 0.830902 0.349670
0.608490 0.813446 0.349701
0.683624 0.797760 0.349976
0.765167 0.804016 0.349365
0.836212 0.811249 0.367218
0.890656 0.816284 0.375397
0.287109 0.895355 0.381104
0.355042 0.898804 0.380646
0.443481 0.903625 0.380432
0.551147 0.897949 0.380280
0.637665 0.884430 0.381256
0.713409 0.870056 0.384583
0.781250 0.862640 0.385468
0.846100 0.868378 0.386566
0.897156 0.872711 0.408203
0.000000 0.041016 0.090973
0.000000 0.065094 0.122162
0.000000 0.124359 0.215393
0.236237 0.096924 0.259735
0.374176 0.087433 0.271790
0.520996 0.078217 0.268951
0.642120 0.071564 0.263885
0.730225 0.062225 0.259491
0.793457 0.049133 0.257294
0.000000 0.088715 0.135834
0.000000 0.115417 0.170166
0.000000 0.156006 0.228424
0.224792 0.160706 0.277832
0.383667 0.160950 0.289551
0.549561 0.149536 0.285370
0.686737 0.135284 0.278839
0.779968 0.124908 0.273590
0.848633 0.116150 0.270508
0.000000 0.175995 0.212372
0.000000 0.200806 0.241455
0.069885 0.234192 0.292175
0.256378 0.256500 0.365417
0.452850 0.254395 0.331940
0.612671 0.256348 0.316956
0.737335 0.256958 0.311218
0.818573 0.257080 0.307404
0.886078 0.257843 0.304260
0.000000 0.279114 0.293671
0.000000 0.317383 0.331787
0.131165 0.344025 0.373932
0.277191 0.373871 0.422211
0.489960 0.383881 0.381714
0.629089 0.396484 0.383728
0.735962 0.405701 0.374390
0.815399 0.413666 0.365875
0.872498 0.424652 0.365417
0.000000 0.426453 0.359924
0.053986 0.453613 0.384705
0.213074 0.484406 0.418518
0.378052 0.514374 0.442657
0.529816 0.509583 0.426025
0.655975 0.530396 0.415344
0.748322 0.546906 0.403503
0.823578 0.561462 0.390381
0.873840 0.577850 0.394073
0.039886 0.594391 0.405090
0.156097 0.615082 0.428040
0.282135 0.638824 0.451996
0.414795 0.656616 0.454224
0.559540 0.639984 0.448914
0.667969 0.647583 0.457428
0.760101 0.659607 0.450287
0.833191 0.675751 0.438049
0.885315 0.689026 0.437408
0.136627 0.730804 0.437592
0.229004 0.743744 0.455078
0.330078 0.755096 0.473480
0.449677 0.766724 0.467072
0.591614 0.757843 0.466278
0.680511 0.742432 0.465851
0.766022 0.750732 0.477966
0.841309 0.757782 0.480499
0.894592 0.769104 0.477448
0.203766 0.833374 0.465088
0.285187 0.839752 0.483582
0.374176 0.846313 0.485809
0.493805 0.854736 0.483795
0.617523 0.850006 0.484650
0.703552 0.833923 0.486694
0.777924 0.827118 0.488647
0.847443 0.833801 0.505859
0.901062 0.837769 0.509918
0.275635 0.901978 0.503021
0.347961 0.906128 0.508270
0.436676 0.910828 0.508240
0.547119 0.916870 0.508484
0.643677 0.913574 0.509064
0.727600 0.899261 0.512054
0.794403 0.884918 0.516052
0.856079 0.886749 0.517273
0.906281 0.891083 0.536041
0.000000 0.072998 0.124359
0.000000 0.095367 0.151550
0.000000 0.144958 0.219635
0.134827 0.185150 0.345520
0.326172 0.148499 0.351593
0.440613 0.139954 0.376007
0.564423 0.127808 0.386383
0.668976 0.115540 0.391235
0.742950 0.108551 0.393799
0.000000 0.118011 0.167389
0.000000 0.142609 0.197998
0.000000 0.180786 0.253296
0.112457 0.225098 0.351837
0.341339 0.201385 0.383514
0.465210 0.199371 0.405060
0.610291 0.186096 0.416504
0.720184 0.176239 0.420654
0.805023 0.167114 0.422333
0.000000 0.198395 0.243408
0.000000 0.218994 0.269501
0.030579 0.257172 0.330505
0.148071 0.301453 0.418732
0.377777 0.297638 0.445648
0.530487 0.298126 0.462555
0.690063 0.289429 0.467133
0.792877 0.282928 0.464111
0.876526 0.276581 0.458191
0.000000 0.297852 0.339294
0.000000 0.319183 0.366608
0.063629 0.365295 0.441345
0.238342 0.399902 0.482147
0.428955 0.418945 0.570190
0.612762 0.417236 0.530396
0.755066 0.416412 0.513824
0.842499 0.420685 0.498444
0.908447 0.422699 0.491302
0.000000 0.415771 0.428314
0.000000 0.471039 0.484344
0.141144 0.500244 0.523590
0.306305 0.526123 0.559967
0.466064 0.555511 0.597473
0.654541 0.567108 0.562866
0.760590 0.577332 0.561432
0.838562 0.588409 0.556091
0.896332 0.596283 0.549255
0.000000 0.591339 0.496979
0.073456 0.612061 0.520569
0.216583 0.636322 0.546753
0.367310 0.662048 0.578461
0.555298 0.685181 0.610626
0.677399 0.679169 0.599213
0.768951 0.692841 0.594666
0.842468 0.707428 0.586975
0.896393 0.716919 0.576233
0.064819 0.727325 0.530518
0.171204 0.741913 0.552612
0.278351 0.757416 0.575867
0.424774 0.774689 0.603058
0.589600 0.788727 0.614563
0.697357 0.779968 0.615265
0.778595 0.776855 0.622009
0.852478 0.785553 0.626556
0.904236 0.795227 0.617371
0.153442 0.832428 0.564301
0.237579 0.841675 0.582428
0.341095 0.851562 0.604034
0.485626 0.862823 0.630768
0.612305 0.870483 0.631989
0.715240 0.868774 0.633484
0.791809 0.852478 0.636169
0.858521 0.855316 0.640991
0.911346 0.859131 0.651428
0.235901 0.903625 0.597260
0.316589 0.910126 0.614807
0.421143 0.917084 0.634979
0.540009 0.923737 0.645386
0.638641 0.928497 0.646088
0.734283 0.929504 0.647583
0.810028 0.914490 0.651398
0.866089 0.905762 0.654022
0.915710 0.909576 0.659088
0.000000 0.101837 0.154327
0.000000 0.124908 0.181519
0.000000 0.168549 0.243469
0.016846 0.222015 0.336823
0.276520 0.218842 0.455139
0.428741 0.184509 0.452576
0.525177 0.171783 0.485565
0.622528 0.162567 0.496887
0.697845 0.151245 0.506653
0.000000 0.146637 0.197937
0.000000 0.170349 0.228302
0.000000 0.206024 0.283661
0.036896 0.254028 0.370636
0.284729 0.256226 0.547913
0.452942 0.233398 0.491974
0.563599 0.227234 0.523132
0.666473 0.216919 0.536835
0.760162 0.204437 0.550079
0.000000 0.220215 0.272217
0.000000 0.241821 0.302460
0.010437 0.280548 0.367767
0.109253 0.325195 0.451904
0.304199 0.340668 0.633057
0.500763 0.329102 0.555969
0.623627 0.332275 0.581940
0.732971 0.323364 0.596375
0.824127 0.314484 0.604248
0.000000 0.316620 0.378845
0.000000 0.336365 0.409241
0.037872 0.385803 0.500488
0.207458 0.427063 0.541901
0.361786 0.463898 0.644897
0.567474 0.454132 0.628754
0.690887 0.455597 0.645966
0.801514 0.449524 0.651154
0.884521 0.442169 0.649017
0.000000 0.432159 0.491211
0.000000 0.473267 0.546692
0.103760 0.516388 0.611908
0.264069 0.546478 0.643097
0.445740 0.581390 0.661865
0.627106 0.588593 0.705170
0.751465 0.590240 0.693176
0.856964 0.588654 0.682068
0.922028 0.594055 0.667419
0.000000 0.569183 0.572723
0.014496 0.626556 0.634003
0.176300 0.647400 0.659058
0.320160 0.668274 0.683594
0.513824 0.689026 0.707520
0.657379 0.707062 0.730713
0.779968 0.716492 0.716064
0.857422 0.726044 0.709229
0.912994 0.733215 0.704071
0.019592 0.724396 0.631409
0.130463 0.736633 0.646729
0.239441 0.750641 0.663239
0.381927 0.770996 0.686218
0.563751 0.791443 0.714539
0.698151 0.802673 0.734253
0.790070 0.797241 0.733154
0.861267 0.806732 0.733551
0.913086 0.815216 0.725128
0.112640 0.827026 0.646729
0.203400 0.837250 0.664612
0.306580 0.848816 0.685181
0.449066 0.862701 0.709198
0.597778 0.874786 0.731415
0.713715 0.881714 0.742218
0.805084 0.878540 0.744324
0.868134 0.871979 0.747345
0.920685 0.875916 0.755219
0.204254 0.901184 0.677612
0.284027 0.908417 0.693420
0.384857 0.917328 0.711090
0.513367 0.926300 0.730835
0.633148 0.933258 0.749329
0.732178 0.938629 0.752563
0.817871 0.938934 0.754181
0.876556 0.924591 0.757629
0.924438 0.924805 0.759613
0.000000 0.127625 0.181061
0.000000 0.150665 0.208405
0.000000 0.189087 0.266083
0.000000 0.239075 0.348816
0.187134 0.274078 0.492920
0.389740 0.248260 0.497925
0.528534 0.207855 0.550293
0.619995 0.190216 0.583954
0.683167 0.181183 0.599304
0.000000 0.174652 0.228363
0.000000 0.197845 0.260254
0.000000 0.231903 0.317139
0.016022 0.277466 0.399170
0.212402 0.313141 0.551849
0.428192 0.285370 0.572632
0.570465 0.258423 0.598785
0.658203 0.250305 0.627136
0.734100 0.240936 0.641846
0.000000 0.243073 0.303375
0.000000 0.266632 0.340057
0.001648 0.305267 0.407623
0.091003 0.349792 0.491791
0.259796 0.385681 0.633850
0.491943 0.357147 0.685944
0.626587 0.351593 0.661346
0.710938 0.353180 0.683228
0.784515 0.352325 0.694061
0.000000 0.336334 0.419769
0.000000 0.360199 0.461761
0.026398 0.410767 0.549286
0.190369 0.453888 0.595001
0.320557 0.495758 0.707977
0.549988 0.473877 0.793701
0.677826 0.483917 0.717682
0.766998 0.482544 0.739349
0.843201 0.478210 0.747833
0.000000 0.448639 0.547058
0.000000 0.489349 0.611481
0.086182 0.536011 0.676514
0.237183 0.570465 0.702179
0.411102 0.607697 0.726379
0.587341 0.614441 0.815063
0.727936 0.615997 0.764191
0.811676 0.619202 0.778625
0.888214 0.616180 0.782623
0.000000 0.576691 0.640442
0.000000 0.639526 0.721313
0.154816 0.657990 0.745483
0.302124 0.678680 0.767242
0.477478 0.705719 0.780426
0.636871 0.727417 0.789276
0.770142 0.729370 0.801331
0.853455 0.733521 0.805786
0.926880 0.733002 0.799286
0.000000 0.735504 0.733002
0.095917 0.746887 0.747406
0.214691 0.759857 0.762756
0.352295 0.775269 0.779968
0.528076 0.791321 0.796661
0.671082 0.802704 0.808929
0.791382 0.814301 0.822296
0.871887 0.822540 0.818817
0.925415 0.828400 0.815063
0.090118 0.824249 0.736908
0.181305 0.832825 0.748352
0.279968 0.843201 0.761261
0.413391 0.857208 0.777405
0.562622 0.871185 0.795227
0.694946 0.882690 0.812744
0.806976 0.892029 0.829041
0.877045 0.886780 0.831573
0.928497 0.891815 0.833618
0.201752 0.889038 0.747803
0.273315 0.899780 0.760406
0.363617 0.911713 0.776031
0.479034 0.923126 0.792145
0.602539 0.932190 0.807709
0.721893 0.941223 0.824341
0.818451 0.947906 0.834656
0.886047 0.945435 0.836639
0.932526 0.938019 0.838776
0.000000 0.156494 0.211334
0.000000 0.178070 0.239197
0.000000 0.213013 0.295502
0.000000 0.259460 0.375092
0.115387 0.307190 0.528290
0.339874 0.288025 0.687256
0.504822 0.265106 0.592834
0.628418 0.219971 0.643036
0.697266 0.201447 0.667816
0.000000 0.201691 0.260040
0.000000 0.225159 0.294952
0.000000 0.258331 0.353790
0.008911 0.302643 0.436615
0.156128 0.349121 0.601105
0.369476 0.326691 0.749817
0.553040 0.306763 0.646362
0.667877 0.277710 0.687408
0.742981 0.267365 0.711243
0.000000 0.266998 0.338440
0.000000 0.291595 0.381714
0.000000 0.330231 0.449310
0.085754 0.375244 0.533295
0.218506 0.419678 0.684875
0.432159 0.394836 0.815857
0.618134 0.383545 0.713806
0.717102 0.371033 0.739441
0.789062 0.367401 0.759094
0.000000 0.356415 0.461517
0.000000 0.385681 0.518494
0.025421 0.436646 0.594757
0.182343 0.480133 0.641449
0.297485 0.523590 0.753113
0.499298 0.507172 0.868958
0.687988 0.497681 0.790131
0.767517 0.503204 0.788116
0.836121 0.497894 0.805847
0.000000 0.464386 0.594757
0.000000 0.514343 0.682526
0.077789 0.558075 0.721710
0.226166 0.593018 0.748169
0.388123 0.630188 0.778961
0.572144 0.635284 0.854553
0.735046 0.624176 0.847748
0.808929 0.634277 0.824310
0.868011 0.636688 0.837463
0.000000 0.593445 0.703369
0.000000 0.648926 0.782837
0.144562 0.670380 0.799377
0.281281 0.695404 0.812500
0.444977 0.725433 0.831329
0.618866 0.742737 0.841644
0.762146 0.739594 0.883820
0.840668 0.748230 0.850922
0.895996 0.752319 0.859863
0.000000 0.744507 0.801086
0.082123 0.754852 0.813751
0.205078 0.766846 0.827515
0.343506 0.781342 0.843018
0.509460 0.797394 0.856354
0.649078 0.811462 0.861450
0.775665 0.827087 0.867249
0.865448 0.829987 0.872009
0.926300 0.831390 0.876831
0.079956 0.829254 0.809052
0.174988 0.837219 0.818848
0.277039 0.846588 0.830078
0.410797 0.858185 0.842499
0.549927 0.869110 0.854065
0.678680 0.879395 0.864838
0.792511 0.889893 0.875641
0.883270 0.900146 0.889069
0.934906 0.903290 0.886963
0.209961 0.885437 0.809875
0.282104 0.893097 0.819427
0.374451 0.902283 0.830200
0.482178 0.911560 0.840729
0.594879 0.924042 0.853516
0.705902 0.937042 0.867767
0.809753 0.948700 0.882721
0.887634 0.954926 0.893311
0.939636 0.948273 0.895142
0.000000 0.185364 0.243622
0.000000 0.207458 0.275024
0.000000 0.241089 0.333649
0.000000 0.285004 0.413147
0.074005 0.338806 0.563812
0.277161 0.337067 0.737640
0.506042 0.304291 0.690094
0.615356 0.274597 0.682251
0.713623 0.231598 0.724609
0.000000 0.228882 0.294495
0.000000 0.253082 0.334656
0.000000 0.286072 0.394165
0.011047 0.329620 0.479950
0.118500 0.383209 0.641327
0.311279 0.375305 0.801880
0.560333 0.340851 0.747650
0.658051 0.323059 0.728760
0.754913 0.294403 0.765259
0.000000 0.291931 0.378845
0.000000 0.317719 0.429779
0.002838 0.356842 0.493744
0.087402 0.402374 0.576538
0.191345 0.451355 0.727753
0.377167 0.438171 0.869141
0.626862 0.407288 0.815582
0.711304 0.404083 0.781769
0.796173 0.384827 0.807922
0.000000 0.378723 0.509430
0.000000 0.414551 0.575745
0.028198 0.463837 0.640900
0.178406 0.507446 0.687439
0.288177 0.550385 0.792419
0.475586 0.541962 0.900421
0.689697 0.516052 0.884399
0.768646 0.524109 0.833344
0.838989 0.518066 0.848877
0.000000 0.480713 0.641449
0.000000 0.544312 0.734497
0.071686 0.580017 0.763580
0.204132 0.616394 0.796204
0.341736 0.654602 0.845001
0.564850 0.653778 0.895538
0.728027 0.637665 0.930328
0.812714 0.646332 0.871033
0.868042 0.651154 0.876495
0.000000 0.616180 0.770416
0.000000 0.665436 0.828217
0.130219 0.688019 0.840118
0.230804 0.715424 0.864044
0.421753 0.744049 0.876831
0.603577 0.757568 0.888794
0.742218 0.756531 0.937103
0.846649 0.754425 0.910645
0.893311 0.763519 0.899567
0.000000 0.750946 0.857330
0.080963 0.760803 0.869476
0.198273 0.773621 0.881226
0.318359 0.792419 0.890900
0.478699 0.810425 0.897949
0.625458 0.826233 0.904236
0.761810 0.838989 0.912811
0.861206 0.836731 0.944366
0.913269 0.843475 0.917572
0.061371 0.837463 0.869781
0.152313 0.845276 0.879303
0.253052 0.855103 0.890594
0.381012 0.866058 0.902466
0.523041 0.875458 0.912659
0.660675 0.884521 0.922394
0.778107 0.895660 0.928436
0.866882 0.907166 0.932800
0.934113 0.910034 0.935974
0.217560 0.887207 0.866150
0.290649 0.894897 0.875183
0.385315 0.903687 0.885254
0.489563 0.912262 0.894836
0.601990 0.921509 0.904968
0.712585 0.931427 0.915527
0.810822 0.941742 0.926361
0.883942 0.950531 0.935944
0.945221 0.960541 0.947144
