3DLUTS/TO-Morpheous.cube
# Created by: Lutify.me
# Copyright: (c) Copyright Lutify.me 2016, G.T. Colord LTD
# Website: https://lutify.me
# Contact: help@lutify.me
LUT_3D_SIZE 5
0.000000 0.000000 0.012024
0.183319 0.000000 0.000000
0.441895 0.000000 0.000000
0.626007 0.000000 0.000031
0.735321 0.000000 0.000031
0.019073 0.148499 0.110229
0.221954 0.137939 0.007202
0.421112 0.170746 0.000000
0.610046 0.203064 0.000000
0.740417 0.230133 0.000031
0.168518 0.400482 0.205597
0.316315 0.382477 0.198914
0.514526 0.382050 0.033142
0.713531 0.420837 0.006744
0.834900 0.459747 0.007294
0.234528 0.697083 0.191437
0.370026 0.668335 0.179199
0.546722 0.644409 0.123505
0.716705 0.651154 0.050476
0.853821 0.666870 0.052673
0.305511 0.877625 0.185760
0.445404 0.851776 0.181854
0.606842 0.822784 0.176605
0.757629 0.822906 0.173035
0.877655 0.834747 0.198029
0.000000 0.010254 0.056854
0.139038 0.047821 0.165100
0.471069 0.012512 0.140656
0.688446 0.000000 0.119965
0.803436 0.000000 0.115723
0.000000 0.155396 0.176300
0.138672 0.210815 0.246094
0.463928 0.226318 0.213989
0.709106 0.231567 0.188660
0.845551 0.242371 0.181152
0.067596 0.427856 0.303741
0.281036 0.471893 0.309631
0.535583 0.464233 0.291046
0.742004 0.499329 0.250732
0.864075 0.537537 0.255768
0.197601 0.724152 0.347809
0.347961 0.742493 0.333832
0.574982 0.709656 0.326630
0.752625 0.721039 0.332336
0.884979 0.740295 0.341858
0.287109 0.895355 0.381104
0.443481 0.903625 0.380432
0.637665 0.884430 0.381256
0.781250 0.862640 0.385468
0.897156 0.872711 0.408203
0.000000 0.072998 0.124359
0.000000 0.144958 0.219635
0.326172 0.148499 0.351593
0.564423 0.127808 0.386383
0.742950 0.108551 0.393799
0.000000 0.198395 0.243408
0.030579 0.257172 0.330505
0.377777 0.297638 0.445648
0.690063 0.289429 0.467133
0.876526 0.276581 0.458191
0.000000 0.415771 0.428314
0.141144 0.500244 0.523590
0.466064 0.555511 0.597473
0.760590 0.577332 0.561432
0.896332 0.596283 0.549255
0.064819 0.727325 0.530518
0.278351 0.757416 0.575867
0.589600 0.788727 0.614563
0.778595 0.776855 0.622009
0.904236 0.795227 0.617371
0.235901 0.903625 0.597260
0.421143 0.917084 0.634979
0.638641 0.928497 0.646088
0.810028 0.914490 0.651398
0.915710 0.909576 0.659088
0.000000 0.127625 0.181061
0.000000 0.189087 0.266083
0.187134 0.274078 0.492920
0.528534 0.207855 0.550293
0.683167 0.181183 0.599304
0.000000 0.243073 0.303375
0.001648 0.305267 0.407623
0.259796 0.385681 0.633850
0.626587 0.351593 0.661346
0.784515 0.352325 0.694061
0.000000 0.448639 0.547058
0.086182 0.536011 0.676514
0.411102 0.607697 0.726379
0.727936 0.615997 0.764191
0.888214 0.616180 0.782623
0.000000 0.735504 0.733002
0.214691 0.759857 0.762756
0.528076 0.791321 0.796661
0.791382 0.814301 0.822296
0.925415 0.828400 0.815063
0.201752 0.889038 0.747803
0.363617 0.911713 0.776031
0.602539 0.932190 0.807709
0.818451 0.947906 0.834656
0.932526 0.938019 0.838776
0.000000 0.185364 0.243622
0.000000 0.241089 0.333649
0.074005 0.338806 0.563812
0.506042 0.304291 0.690094
0.713623 0.231598 0.724609
0.000000 0.291931 0.378845
0.002838 0.356842 0.493744
0.191345 0.451355 0.727753
0.626862 0.407288 0.815582
0.796173 0.384827 0.807922
0.000000 0.480713 0.641449
0.071686 0.580017 0.763580
0.341736 0.654602 0.845001
0.728027 0.637665 0.930328
0.868042 0.651154 0.876495
0.000000 0.750946 0.857330
0.198273 0.773621 0.881226
0.478699 0.810425 0.897949
0.761810 0.838989 0.912811
0.913269 0.843475 0.917572
0.217560 0.887207 0.866150
0.385315 0.903687 0.885254
0.601990 0.921509 0.904968
0.810822 0.941742 0.926361
0.945221 0.960541 0.947144
