3DLUTS/TO-Morpheous.cube
# Created by: Lutify.me
# Copyright: (c) Copyright Lutify.me 2016, G.T. Colord LTD
# Website: https://lutify.me
# Contact: help@lutify.me
LUT_3D_SIZE 33
0.000000 0.000000 0.012024
0.000000 0.000000 0.012268
0.000000 0.000000 0.008087
0.000000 0.000000 0.006897
0.036987 0.000000 0.002655
0.078217 0.000000 0.000305
0.115753 0.000000 0.000000
0.150513 0.000000 0.000000
0.183319 0.000000 0.000000
0.216614 0.000000 0.000000
0.252625 0.000000 0.000000
0.290649 0.000000 0.000000
0.324249 0.000000 0.000000
0.356598 0.000000 0.000000
0.386902 0.000000 0.000031
0.415344 0.000000 0.000031
0.441895 0.000000 0.000000
0.468262 0.000000 0.000031
0.493805 0.000000 0.000031
0.518127 0.000000 0.000000
0.542542 0.000000 0.000000
0.566254 0.000000 0.000000
0.588806 0.000000 0.000000
0.608734 0.000000 0.000031
0.626007 0.000000 0.000031
0.641449 0.000000 0.000000
0.656647 0.000000 0.000000
0.671234 0.000000 0.000031
0.685181 0.000000 0.000031
0.698517 0.000000 0.000031
0.711395 0.000000 0.000031
0.723816 0.000000 0.000000
0.735321 0.000000 0.000031
0.000000 0.000000 0.016693
0.000000 0.000000 0.013306
0.000000 0.000000 0.008026
0.000000 0.000000 0.006714
0.018036 0.000000 0.004425
0.055084 0.000000 0.000641
0.085388 0.000000 0.000000
0.115234 0.000000 0.000031
0.144470 0.000000 0.000000
0.170380 0.000000 0.000000
0.199707 0.000000 0.000000
0.226868 0.000000 0.000031
0.254120 0.000000 0.000000
0.282410 0.000000 0.000000
0.315887 0.000000 0.000031
0.345154 0.000000 0.000000
0.372131 0.000000 0.000000
0.406738 0.000000 0.000000
0.436523 0.000000 0.000000
0.470245 0.000000 0.000000
0.502716 0.000000 0.000000
0.529236 0.000000 0.000000
0.554779 0.000000 0.000031
0.579041 0.000000 0.000000
0.599731 0.000000 0.000000
0.622986 0.000000 0.000031
0.641449 0.000000 0.000031
0.660675 0.000000 0.000000
0.678223 0.000000 0.000000
0.692871 0.000000 0.000031
0.706940 0.000000 0.000031
0.720001 0.000000 0.000000
0.732178 0.000000 0.000000
0.000000 0.000000 0.022278
0.000000 0.000000 0.017151
0.000000 0.000000 0.010986
0.000000 0.000000 0.008698
0.018158 0.000000 0.005493
0.046753 0.000000 0.001862
0.075684 0.001007 0.000000
0.101288 0.003632 0.000031
0.126740 0.005554 0.000031
0.152893 0.006805 0.000031
0.178070 0.007843 0.000031
0.201630 0.008423 0.000000
0.224854 0.008972 0.000000
0.249359 0.009064 0.000000
0.277161 0.008789 0.000031
0.306396 0.008057 0.000031
0.332123 0.006439 0.000000
0.359528 0.005157 0.000031
0.389252 0.003815 0.000031
0.423157 0.001465 0.000000
0.456879 0.000061 0.000031
0.490723 0.000000 0.000031
0.517212 0.000000 0.000000
0.543640 0.000000 0.000031
0.568726 0.000000 0.000000
0.593597 0.000000 0.000031
0.617554 0.000000 0.000000
0.639771 0.000031 0.000031
0.660706 0.000427 0.000000
0.679474 0.001068 0.000000
0.695038 0.001770 0.000000
0.708862 0.002747 0.000000
0.722076 0.003967 0.000000
0.000000 0.016968 0.028748
0.000000 0.012817 0.025665
0.000000 0.013062 0.022339
0.003967 0.012909 0.012146
0.029877 0.014069 0.008667
0.056244 0.014954 0.002625
0.083801 0.017059 0.000000
0.108856 0.019806 0.000000
0.133453 0.022308 0.000000
0.158264 0.024902 0.000031
0.182831 0.026947 0.000000
0.207764 0.029053 0.000000
0.230377 0.030457 0.000000
0.253479 0.031219 0.000000
0.278198 0.032349 0.000000
0.304077 0.031769 0.000031
0.330048 0.031067 0.000031
0.352997 0.030151 0.000031
0.377258 0.028748 0.000000
0.403412 0.027466 0.000031
0.430908 0.025879 0.000000
0.458496 0.024353 0.000000
0.485535 0.022736 0.000000
0.509796 0.022034 0.000000
0.532379 0.021637 0.000000
0.555573 0.021088 0.000000
0.579559 0.020477 0.000031
0.602753 0.019714 0.000000
0.624023 0.019714 0.000000
0.643890 0.019714 0.000000
0.663574 0.019958 0.000000
0.678253 0.021210 0.000031
0.691589 0.022430 0.000000
0.000000 0.040192 0.042297
0.000000 0.037140 0.040405
0.000000 0.035400 0.038239
0.017090 0.036407 0.031555
0.046448 0.035278 0.013916
0.074066 0.035370 0.005981
0.101013 0.037231 0.000000
0.122803 0.040741 0.000000
0.144379 0.044586 0.000000
0.167877 0.047821 0.000031
0.192932 0.050964 0.000031
0.218719 0.054016 0.000000
0.242706 0.056641 0.000031
0.266296 0.058655 0.000000
0.291565 0.060364 0.000000
0.318451 0.061920 0.000000
0.345032 0.061981 0.000000
0.368134 0.062500 0.000000
0.390137 0.062256 0.000031
0.412842 0.062103 0.000000
0.436646 0.061981 0.000031
0.460052 0.060669 0.000031
0.484161 0.060364 0.000031
0.506592 0.060181 0.000031
0.526642 0.059845 0.000000
0.546875 0.060120 0.000000
0.567322 0.060303 0.000031
0.587280 0.060730 0.000000
0.606903 0.061707 0.000031
0.626556 0.061859 0.000031
0.644775 0.062958 0.000031
0.661987 0.064362 0.000031
0.675415 0.066345 0.000031
0.000000 0.065399 0.057007
0.000000 0.064697 0.055847
0.008423 0.060577 0.054260
0.032013 0.061401 0.051971
0.060638 0.061493 0.036346
0.090912 0.058502 0.010254
0.120178 0.058594 0.000031
0.142456 0.061798 0.000000
0.164001 0.065735 0.000031
0.186310 0.069641 0.000031
0.209229 0.074005 0.000031
0.232819 0.078705 0.000031
0.255463 0.082458 0.000000
0.279449 0.085754 0.000000
0.304504 0.088379 0.000000
0.331299 0.091064 0.000000
0.359619 0.093262 0.000000
0.385223 0.095032 0.000000
0.410156 0.096832 0.000000
0.434174 0.098572 0.000000
0.459045 0.100128 0.000000
0.484161 0.101776 0.000031
0.509033 0.103271 0.000000
0.533142 0.105042 0.000000
0.554535 0.106415 0.000000
0.573822 0.107910 0.000000
0.592743 0.109650 0.000031
0.611359 0.111603 0.000000
0.629669 0.113617 0.000000
0.647705 0.115723 0.000031
0.665466 0.117920 0.000000
0.682434 0.120483 0.000031
0.698242 0.122833 0.000000
0.000000 0.092651 0.074524
0.006866 0.094757 0.073486
0.027466 0.089111 0.072235
0.050476 0.088593 0.071991
0.076965 0.089478 0.064148
0.105865 0.088226 0.041443
0.137421 0.082916 0.004120
0.162079 0.085205 0.000641
0.184937 0.088440 0.000031
0.207275 0.092590 0.000000
0.229828 0.096649 0.000031
0.253265 0.101532 0.000031
0.276123 0.105774 0.000000
0.298706 0.109894 0.000031
0.321625 0.114258 0.000031
0.345917 0.118713 0.000031
0.373077 0.122284 0.000000
0.401550 0.125580 0.000031
0.427521 0.128174 0.000000
0.451141 0.130737 0.000000
0.475647 0.133026 0.000000
0.500671 0.135437 0.000000
0.525269 0.138367 0.000000
0.550171 0.140778 0.000031
0.573792 0.143616 0.000031
0.592865 0.145844 0.000000
0.611603 0.148163 0.000031
0.630157 0.150726 0.000000
0.648224 0.153137 0.000000
0.665924 0.155792 0.000000
0.683075 0.158447 0.000031
0.699951 0.160889 0.000000
0.716187 0.163605 0.000031
0.000000 0.120605 0.092438
0.022766 0.123566 0.090881
0.047913 0.119629 0.090942
0.069580 0.116150 0.089691
0.094452 0.117371 0.086517
0.121857 0.117645 0.072449
0.152954 0.112701 0.032410
0.181152 0.109985 0.004730
0.204254 0.112549 0.000793
0.226868 0.116089 0.000824
0.250244 0.119995 0.000031
0.274384 0.124725 0.000000
0.297760 0.129028 0.000000
0.321167 0.133575 0.000000
0.344910 0.137878 0.000000
0.369965 0.142151 0.000000
0.396667 0.146759 0.000000
0.424377 0.151581 0.000031
0.449463 0.155762 0.000000
0.471741 0.158997 0.000031
0.494080 0.162750 0.000000
0.516754 0.165955 0.000031
0.539978 0.169464 0.000000
0.564178 0.172729 0.000031
0.588165 0.175842 0.000031
0.608643 0.178802 0.000031
0.626892 0.181488 0.000000
0.644745 0.184143 0.000031
0.662567 0.187012 0.000000
0.679504 0.189728 0.000000
0.696259 0.192657 0.000000
0.712250 0.195587 0.000031
0.728058 0.198212 0.000000
0.019073 0.148499 0.110229
0.038696 0.151978 0.107300
0.066467 0.150330 0.109467
0.089264 0.143982 0.109528
0.113800 0.145355 0.108307
0.138092 0.145721 0.100006
0.166656 0.144989 0.075439
0.196045 0.137177 0.020111
0.221954 0.137939 0.007202
0.245636 0.140137 0.000916
0.269562 0.143951 0.000946
0.294037 0.148438 0.001007
0.319031 0.152527 0.000000
0.343506 0.157166 0.000000
0.367676 0.161499 0.000000
0.393555 0.166046 0.000031
0.421112 0.170746 0.000000
0.449585 0.175598 0.000000
0.476227 0.180267 0.000031
0.498993 0.183868 0.000000
0.521210 0.187836 0.000031
0.543732 0.191498 0.000031
0.565948 0.195435 0.000000
0.587982 0.199249 0.000031
0.610046 0.203064 0.000000
0.629547 0.206909 0.000000
0.647736 0.210236 0.000000
0.663696 0.213562 0.000031
0.679932 0.216797 0.000000
0.695496 0.220001 0.000000
0.710999 0.223419 0.000000
0.725677 0.226624 0.000000
0.740417 0.230133 0.000031
0.040405 0.177063 0.126953
0.060028 0.180847 0.124390
0.087158 0.180176 0.126892
0.111633 0.173920 0.127899
0.133606 0.172760 0.125336
0.156860 0.174133 0.122650
0.182526 0.174438 0.110413
0.209137 0.172241 0.078247
0.236359 0.164734 0.020691
0.262024 0.164917 0.002960
0.287659 0.168579 0.002045
0.313995 0.172577 0.001129
0.339203 0.176971 0.001129
0.364410 0.181458 0.001160
0.389862 0.185333 0.000031
0.416504 0.189972 0.000031
0.444092 0.194946 0.000031
0.472687 0.200104 0.000031
0.500671 0.204865 0.000031
0.524475 0.208710 0.000000
0.546478 0.212769 0.000000
0.568359 0.216797 0.000031
0.589874 0.220642 0.000000
0.611206 0.224915 0.000000
0.632568 0.229095 0.000031
0.653381 0.233276 0.000031
0.671295 0.236786 0.000000
0.686798 0.239960 0.000000
0.702515 0.243469 0.000031
0.717621 0.246582 0.000000
0.732452 0.250183 0.000031
0.746460 0.253754 0.000000
0.760712 0.257111 0.000000
0.060638 0.205750 0.141754
0.079468 0.209137 0.140411
0.106934 0.209412 0.143311
0.131744 0.203674 0.144653
0.152832 0.200073 0.143921
0.174561 0.201538 0.140869
0.197906 0.202362 0.133789
0.223206 0.201874 0.114990
0.248688 0.199524 0.080322
0.275360 0.192108 0.019440
0.303650 0.193176 0.003387
0.330536 0.197083 0.003510
0.357788 0.201019 0.001251
0.383850 0.205566 0.001282
0.409851 0.209686 0.001312
0.436768 0.214447 0.001343
0.464264 0.219482 0.001404
0.494141 0.224213 0.000000
0.521667 0.229523 0.000031
0.546295 0.233734 0.000000
0.568512 0.237823 0.000000
0.589874 0.242004 0.000031
0.610626 0.246033 0.000000
0.631561 0.250397 0.000031
0.652069 0.254700 0.000000
0.672577 0.259064 0.000000
0.691315 0.263397 0.000031
0.706696 0.266876 0.000000
0.721710 0.270264 0.000031
0.736145 0.273804 0.000000
0.750610 0.277130 0.000000
0.764099 0.281006 0.000000
0.777649 0.284790 0.000031
0.078491 0.235260 0.154968
0.100494 0.238281 0.156219
0.127350 0.239136 0.158966
0.151367 0.233917 0.160706
0.171448 0.228302 0.160278
0.191864 0.228973 0.156982
0.213593 0.230347 0.153168
0.236115 0.230896 0.142120
0.261078 0.230072 0.121918
0.287659 0.226379 0.078064
0.314514 0.220154 0.020325
0.345306 0.221680 0.004547
0.372742 0.225800 0.003906
0.399902 0.230316 0.004059
0.426178 0.234863 0.004181
0.454651 0.238983 0.001465
0.482666 0.243958 0.001465
0.511536 0.249237 0.001526
0.539124 0.254486 0.001556
0.564423 0.259521 0.001617
0.585846 0.263580 0.001617
0.606964 0.267883 0.001648
0.628540 0.271484 0.000000
0.648712 0.276062 0.000000
0.669006 0.280579 0.000000
0.688843 0.285248 0.000000
0.707001 0.289581 0.000000
0.723877 0.293884 0.000031
0.738190 0.297577 0.000031
0.751892 0.301208 0.000000
0.765747 0.304993 0.000000
0.779266 0.308533 0.000031
0.792267 0.312378 0.000000
0.100128 0.266296 0.169342
0.121094 0.269440 0.170471
0.146637 0.270844 0.172882
0.170563 0.265717 0.175415
0.190247 0.260376 0.174683
0.208557 0.257355 0.172150
0.228729 0.259552 0.167908
0.250153 0.260986 0.163452
0.272400 0.261414 0.150604
0.298340 0.260284 0.127625
0.326447 0.255798 0.078949
0.354675 0.251190 0.026794
0.383545 0.252411 0.010437
0.413727 0.256042 0.004333
0.441193 0.260559 0.004425
0.468964 0.265350 0.004578
0.497253 0.270599 0.004700
0.525513 0.276154 0.004822
0.555176 0.281097 0.001678
0.580658 0.286346 0.001709
0.602356 0.290710 0.001709
0.622620 0.295074 0.001801
0.642883 0.299591 0.001801
0.663116 0.304260 0.001831
0.682678 0.308655 0.001862
0.701935 0.313629 0.001892
0.720764 0.318481 0.001923
0.737457 0.322754 0.001953
0.752625 0.326233 0.000031
0.766052 0.329865 0.000000
0.779480 0.333954 0.000000
0.792480 0.337891 0.000000
0.805267 0.341614 0.000000
0.120026 0.298676 0.181488
0.140594 0.301880 0.182922
0.164337 0.303741 0.185272
0.187317 0.298798 0.187592
0.207001 0.293701 0.187744
0.224274 0.288483 0.185944
0.243103 0.288757 0.181641
0.263214 0.291107 0.176056
0.284760 0.292664 0.170837
0.308289 0.293457 0.156311
0.334290 0.292084 0.131165
0.363617 0.287109 0.082825
0.391846 0.282928 0.035339
0.421173 0.283569 0.013733
0.450012 0.287903 0.011047
0.479767 0.292419 0.007080
0.509399 0.297516 0.004974
0.538239 0.303192 0.005127
0.565857 0.309052 0.005249
0.591766 0.314636 0.005341
0.613495 0.319458 0.005463
0.633881 0.324158 0.005554
0.655487 0.327942 0.001923
0.675140 0.332825 0.001923
0.694489 0.337738 0.001953
0.713715 0.342468 0.001984
0.732147 0.347626 0.002014
0.749390 0.352570 0.002075
0.763824 0.356415 0.002075
0.777344 0.360443 0.002075
0.790222 0.364258 0.002106
0.802826 0.368561 0.002167
0.815216 0.372498 0.002197
0.137756 0.330627 0.191376
0.157867 0.333954 0.192657
0.180878 0.335815 0.195190
0.202301 0.331085 0.197235
0.221222 0.326385 0.198273
0.238647 0.321442 0.196655
0.255219 0.317535 0.193420
0.275208 0.319794 0.187561
0.295898 0.322083 0.180603
0.318726 0.324341 0.174225
0.342896 0.325226 0.157654
0.370026 0.323883 0.129852
0.395630 0.319153 0.088013
0.424469 0.314667 0.044098
0.454865 0.314453 0.017853
0.485077 0.319458 0.015442
0.514832 0.324921 0.013123
0.544647 0.330353 0.010956
0.574921 0.335541 0.005493
0.600800 0.341492 0.005585
0.622528 0.346619 0.005707
0.642944 0.351257 0.005829
0.662903 0.356171 0.005920
0.682617 0.361359 0.006012
0.701935 0.366486 0.006104
0.720825 0.371582 0.006226
0.740875 0.375916 0.002136
0.758179 0.381287 0.002136
0.772675 0.385498 0.002167
0.785950 0.389679 0.002228
0.799103 0.393616 0.002228
0.811798 0.397827 0.002228
0.823975 0.401825 0.002289
0.154175 0.364380 0.199585
0.173401 0.367767 0.200897
0.194641 0.369873 0.203033
0.215179 0.364929 0.205078
0.233612 0.360474 0.205505
0.251160 0.355835 0.205383
0.268097 0.350861 0.202820
0.286041 0.349060 0.197693
0.306519 0.351929 0.190216
0.328735 0.354492 0.180908
0.351929 0.356750 0.174683
0.376770 0.357971 0.156036
0.401459 0.356628 0.130280
0.427246 0.352966 0.093140
0.453522 0.347351 0.046997
0.485382 0.347443 0.027679
0.518524 0.351227 0.019806
0.548828 0.357208 0.017456
0.577667 0.363342 0.015381
0.604950 0.369263 0.013367
0.627106 0.374237 0.011566
0.649475 0.378021 0.006042
0.669434 0.383118 0.006134
0.689148 0.388458 0.006256
0.708557 0.393494 0.006348
0.727081 0.399109 0.006439
0.745514 0.404602 0.006561
0.763184 0.409882 0.006653
0.778290 0.414764 0.006744
0.791626 0.419281 0.006836
0.805542 0.422699 0.004608
0.818604 0.426208 0.002380
0.830688 0.430603 0.002380
0.168518 0.400482 0.205597
0.187988 0.403992 0.207214
0.208008 0.405914 0.208954
0.226349 0.401367 0.210114
0.244354 0.396606 0.211151
0.261902 0.391876 0.210663
0.279694 0.387054 0.209015
0.296692 0.381958 0.205811
0.316315 0.382477 0.198914
0.338104 0.385223 0.189301
0.360687 0.388153 0.178253
0.384735 0.390564 0.171234
0.407074 0.391541 0.153687
0.431458 0.390686 0.129913
0.457611 0.387482 0.096161
0.484558 0.382660 0.052979
0.514526 0.382050 0.033142
0.547913 0.385254 0.026062
0.580750 0.390503 0.021759
0.608063 0.396759 0.019714
0.630402 0.401611 0.017914
0.651520 0.406677 0.016205
0.671997 0.411591 0.014435
0.692169 0.416443 0.012756
0.713531 0.420837 0.006744
0.732239 0.426025 0.006653
0.750641 0.431732 0.006775
0.768372 0.437286 0.006866
0.783386 0.441986 0.006958
0.797333 0.446686 0.007019
0.810059 0.451202 0.007111
0.822754 0.455292 0.007172
0.834900 0.459747 0.007294
0.180939 0.439331 0.209930
0.198395 0.441986 0.211334
0.217865 0.444794 0.212646
0.235962 0.440216 0.213562
0.253510 0.435699 0.213776
0.271179 0.430847 0.213501
0.289337 0.425873 0.212158
0.307617 0.420837 0.209961
0.324768 0.415588 0.205109
0.347076 0.418152 0.197021
0.369049 0.421143 0.186310
0.391479 0.423584 0.174072
0.413696 0.425537 0.164612
0.436768 0.427094 0.150940
0.460938 0.426544 0.127930
0.488098 0.424438 0.097626
0.515472 0.420837 0.060547
0.545349 0.419800 0.036499
0.575317 0.421509 0.027435
0.606079 0.426208 0.028107
0.631531 0.430878 0.028412
0.653961 0.435272 0.022583
0.674622 0.440155 0.020782
0.694946 0.445465 0.019043
0.714905 0.450500 0.017426
0.734253 0.455658 0.015686
0.753021 0.461060 0.013824
0.772552 0.465302 0.007324
0.788300 0.470337 0.007172
0.802765 0.474731 0.007294
0.815430 0.479187 0.007324
0.827881 0.483276 0.007416
0.839844 0.487610 0.007446
0.191254 0.479828 0.212219
0.208893 0.482666 0.213257
0.226532 0.485413 0.213989
0.243958 0.480865 0.214691
0.261566 0.476227 0.214691
0.279358 0.471405 0.214233
0.297852 0.466492 0.213165
0.316437 0.461487 0.210785
0.334778 0.456146 0.206757
0.354156 0.452301 0.200714
0.376404 0.455078 0.192566
0.398285 0.457611 0.181549
0.420013 0.459869 0.168427
0.442139 0.461609 0.152527
0.466431 0.463470 0.146210
0.491119 0.463531 0.123230
0.518341 0.462311 0.096497
0.546936 0.459930 0.065247
0.574890 0.458740 0.042023
0.602539 0.459869 0.029053
0.626831 0.462585 0.029388
0.650635 0.465912 0.029968
0.674805 0.470337 0.030579
0.697510 0.474274 0.025452
0.717255 0.479614 0.023621
0.736694 0.485077 0.021698
0.755585 0.490295 0.019897
0.773712 0.495544 0.018158
0.790100 0.500397 0.016479
0.805237 0.504852 0.014771
0.819672 0.507507 0.008301
0.832520 0.511688 0.007629
0.845154 0.515778 0.007721
0.199432 0.521179 0.212128
0.216187 0.524139 0.212616
0.233704 0.526947 0.212982
0.250854 0.522430 0.213318
0.268402 0.517883 0.213257
0.286041 0.513123 0.212646
0.304565 0.508484 0.210327
0.323853 0.503326 0.208221
0.343048 0.497925 0.204834
0.361969 0.492493 0.199890
0.381927 0.489594 0.193817
0.403381 0.492279 0.185699
0.425629 0.494537 0.174347
0.448303 0.496521 0.161011
0.471832 0.498138 0.144287
0.496307 0.500305 0.135376
0.521393 0.500916 0.116699
0.549561 0.500488 0.093018
0.577179 0.498871 0.067993
0.602753 0.498016 0.047119
0.625427 0.498138 0.033783
0.648315 0.500458 0.031219
0.670990 0.502960 0.031158
0.692871 0.505768 0.031738
0.716339 0.510284 0.032349
0.738342 0.514740 0.032715
0.758270 0.519348 0.026123
0.776428 0.524506 0.024323
0.792999 0.529449 0.022552
0.808502 0.534271 0.020874
0.821594 0.537872 0.019257
0.834503 0.541840 0.017761
0.847504 0.546356 0.019226
0.207275 0.558655 0.210358
0.223816 0.561462 0.210449
0.240784 0.563232 0.210358
0.257904 0.558960 0.210480
0.275177 0.554321 0.210205
0.292664 0.550018 0.208557
0.311310 0.544983 0.207001
0.330780 0.539520 0.204346
0.350769 0.534515 0.201172
0.368408 0.529144 0.197235
0.386902 0.523438 0.191895
0.407288 0.522308 0.184387
0.429810 0.525116 0.175415
0.453308 0.527374 0.164215
0.477264 0.529419 0.150208
0.501465 0.531006 0.133148
0.526520 0.532471 0.119690
0.552887 0.533905 0.106659
0.578827 0.533966 0.086945
0.603943 0.533173 0.066986
0.626434 0.532379 0.050568
0.647949 0.532471 0.037903
0.669891 0.534363 0.033051
0.691895 0.536774 0.032135
0.713684 0.539459 0.032806
0.734680 0.542572 0.033478
0.756714 0.546906 0.034149
0.777740 0.551422 0.034637
0.795654 0.555359 0.027893
0.810974 0.559998 0.026245
0.824158 0.563751 0.024628
0.837189 0.567841 0.023102
0.850006 0.572357 0.025360
0.214539 0.594421 0.207092
0.230927 0.597137 0.206970
0.247742 0.597626 0.206329
0.264679 0.593414 0.206146
0.281921 0.588654 0.205719
0.298950 0.584625 0.203979
0.318207 0.579468 0.202209
0.337280 0.574554 0.199860
0.357330 0.569061 0.196198
0.374786 0.563843 0.191376
0.392578 0.558533 0.186707
0.410706 0.552826 0.181213
0.433716 0.553680 0.172882
0.457062 0.556091 0.163055
0.481812 0.558655 0.151306
0.506836 0.560699 0.137360
0.531555 0.562164 0.119507
0.557343 0.563629 0.104919
0.582123 0.564697 0.097076
0.605377 0.564850 0.080566
0.627655 0.564514 0.065674
0.648834 0.564331 0.051666
0.670166 0.564880 0.041016
0.691711 0.566620 0.034882
0.713287 0.568787 0.033264
0.734406 0.571472 0.033905
0.754822 0.574463 0.034607
0.774719 0.577271 0.035278
0.794403 0.581268 0.035858
0.812561 0.585205 0.036499
0.826721 0.587952 0.029785
0.839661 0.591858 0.028259
0.852417 0.596588 0.030914
0.221161 0.629913 0.203125
0.237396 0.632477 0.202423
0.253937 0.631683 0.201508
0.270782 0.627167 0.201202
0.288116 0.622772 0.200531
0.305481 0.618469 0.198486
0.324432 0.613434 0.196777
0.342834 0.608704 0.194550
0.361145 0.603638 0.190460
0.379761 0.598389 0.187042
0.398407 0.592743 0.182678
0.416626 0.587036 0.175934
0.436462 0.582184 0.169586
0.460785 0.584229 0.160217
0.485382 0.586243 0.148407
0.510925 0.588379 0.136353
0.536743 0.590515 0.122101
0.562714 0.591980 0.104950
0.586334 0.592957 0.090027
0.607697 0.593842 0.088684
0.628662 0.594116 0.075256
0.650452 0.594177 0.062897
0.671539 0.594513 0.051483
0.692505 0.595276 0.042511
0.713593 0.596558 0.036133
0.734467 0.598877 0.034363
0.754913 0.601532 0.035034
0.774597 0.604095 0.035675
0.792786 0.606689 0.036346
0.810242 0.609436 0.036896
0.825684 0.612213 0.037476
0.840729 0.615448 0.037933
0.855011 0.618896 0.035889
0.227814 0.664001 0.197571
0.243988 0.666473 0.196838
0.260559 0.664124 0.195679
0.277435 0.659668 0.195160
0.294067 0.655212 0.194519
0.311066 0.651093 0.192322
0.329376 0.646271 0.190735
0.347229 0.641724 0.187561
0.365509 0.636566 0.185089
0.384552 0.631470 0.181793
0.403290 0.626038 0.176453
0.422760 0.620270 0.171661
0.442474 0.614349 0.165802
0.464264 0.611572 0.157318
0.489655 0.613647 0.147003
0.515167 0.615784 0.135101
0.541718 0.617798 0.122955
0.567383 0.619354 0.108521
0.590912 0.620483 0.093781
0.610809 0.620697 0.077850
0.631348 0.622070 0.080078
0.651947 0.622742 0.071655
0.673157 0.622955 0.060486
0.694214 0.623535 0.050720
0.714905 0.624603 0.044189
0.735260 0.625732 0.037811
0.755371 0.627808 0.036041
0.775024 0.630402 0.036041
0.793488 0.632660 0.036774
0.810272 0.634827 0.037292
0.824432 0.636353 0.037933
0.838745 0.638641 0.038849
0.854279 0.643066 0.047333
0.234528 0.697083 0.191437
0.251099 0.698761 0.190155
0.268188 0.694305 0.189697
0.284271 0.690674 0.187897
0.301208 0.686035 0.187256
0.317261 0.682251 0.185181
0.334473 0.677582 0.184174
0.351715 0.673035 0.181183
0.370026 0.668335 0.179199
0.388916 0.663544 0.175049
0.408966 0.657898 0.171570
0.429047 0.652588 0.167572
0.449158 0.646606 0.160675
0.469177 0.640411 0.154388
0.494354 0.640411 0.144989
0.520538 0.642517 0.135040
0.546722 0.644409 0.123505
0.572235 0.646118 0.110809
0.595306 0.647247 0.097992
0.615112 0.647797 0.085602
0.634705 0.648132 0.071716
0.654968 0.649139 0.071381
0.675323 0.649841 0.067871
0.696228 0.650330 0.057953
0.716705 0.651154 0.050476
0.737000 0.652557 0.044067
0.756470 0.653900 0.038666
0.775879 0.655731 0.037201
0.794312 0.657806 0.037262
0.811035 0.660126 0.037720
0.825348 0.661530 0.038300
0.839142 0.663208 0.039246
0.853821 0.666870 0.052673
0.242188 0.728424 0.185181
0.257843 0.728180 0.184021
0.274506 0.723846 0.183655
0.289642 0.720306 0.182068
0.305542 0.715729 0.181488
0.321716 0.711975 0.179169
0.338776 0.707336 0.178040
0.356445 0.702911 0.175079
0.375092 0.698273 0.173035
0.394440 0.693634 0.169250
0.414978 0.688263 0.166138
0.434875 0.683289 0.160767
0.456207 0.677307 0.156433
0.477478 0.671326 0.151489
0.498840 0.666656 0.143738
0.526062 0.668640 0.135071
0.552887 0.670746 0.125366
0.575989 0.672211 0.117157
0.599792 0.673615 0.107269
0.619934 0.674622 0.098419
0.640228 0.675751 0.089142
0.660400 0.676697 0.079346
0.680756 0.678040 0.078949
0.701080 0.679596 0.083527
0.721741 0.680725 0.077454
0.741943 0.681793 0.072235
0.761292 0.683319 0.067413
0.780334 0.684784 0.063965
0.798248 0.686432 0.062531
0.814789 0.688202 0.062134
0.828888 0.689819 0.062897
0.842651 0.691284 0.063416
0.857391 0.694885 0.077026
0.249329 0.757660 0.178650
0.264771 0.755676 0.177307
0.280792 0.751587 0.177124
0.295380 0.748047 0.175629
0.311066 0.743866 0.175415
0.326691 0.740265 0.173401
0.343414 0.736237 0.170990
0.362061 0.731720 0.169830
0.380310 0.727448 0.166870
0.400787 0.722412 0.164825
0.421753 0.717255 0.162262
0.442535 0.712494 0.157379
0.464203 0.706787 0.153595
0.485321 0.701233 0.147614
0.507080 0.695251 0.142792
0.532013 0.693878 0.135529
0.559326 0.695892 0.127441
0.581665 0.697479 0.120605
0.603943 0.698975 0.114044
0.624817 0.700195 0.107574
0.645325 0.701416 0.100800
0.665894 0.702820 0.095032
0.686096 0.704224 0.087952
0.706085 0.705688 0.086823
0.726593 0.707825 0.098267
