3DLUTS/GC_VENOM_LUTS/Additional_Formats/3DL/GC_Venom_709/GC_Venom_Sarkan_709.3dl
# Converted by Briz LUT Converter
0 64 128 192 256 320 384 448 512 576 640 704 768 832 896 960 1023
0 0 0
5 7 8
11 15 21
17 23 42
21 30 71
25 37 113
27 42 167
29 47 238
28 50 321
27 52 424
24 52 544
19 50 680
12 47 841
4 42 1017
0 35 1212
0 29 1413
0 24 1606
45 111 86
47 120 119
47 128 164
47 134 223
44 139 309
40 141 416
34 142 544
27 141 691
17 139 862
7 134 1051
0 129 1264
0 120 1500
0 110 1768
0 97 2056
0 84 2359
0 71 2662
0 63 2925
29 253 120
27 261 178
23 269 253
18 273 350
9 275 489
0 274 661
0 272 859
0 267 1082
0 261 1332
0 252 1608
0 241 1905
0 228 2241
0 212 2610
0 195 3012
0 177 3423
0 161 3825
0 151 4095
0 436 82
0 446 164
0 453 268
0 459 404
0 461 594
0 460 828
0 456 1092
0 450 1387
0 441 1711
0 431 2065
0 418 2444
0 404 2866
0 386 3326
0 367 3817
0 347 4095
0 331 4095
0 323 4095
0 692 0
0 705 60
0 716 192
0 725 363
0 727 599
0 726 882
0 721 1196
0 714 1539
0 706 1911
0 694 2306
0 682 2722
0 665 3168
0 647 3650
0 627 4095
0 608 4095
0 592 4095
0 588 4095
0 1006 0
0 1016 0
0 1026 86
0 1030 276
0 1030 533
0 1025 831
0 1019 1157
0 1011 1506
0 1002 1880
0 990 2272
0 977 2682
0 962 3123
0 944 3597
0 926 4086
0 907 4095
0 894 4095
0 891 4095
0 1313 0
0 1323 0
0 1332 0
0 1338 194
0 1338 451
0 1336 751
0 1331 1078
0 1325 1429
0 1315 1803
0 1306 2198
0 1294 2608
0 1280 3051
0 1263 3526
0 1245 4015
0 1229 4095
0 1215 4095
0 1214 4095
0 1633 0
0 1646 0
0 1655 0
0 1662 112
0 1664 370
0 1661 671
0 1658 999
0 1651 1350
0 1644 1726
0 1634 2121
0 1624 2533
0 1611 2976
0 1594 3451
0 1578 3942
0 1561 4095
0 1549 4095
0 1547 4095
0 1964 0
0 1976 0
0 1986 0
0 1994 38
0 1996 296
0 1995 598
0 1991 926
0 1987 1279
0 1979 1654
0 1970 2050
0 1959 2462
0 1946 2904
0 1931 3381
0 1914 3871
0 1898 4095
0 1885 4095
0 1884 4095
0 2296 0
0 2309 0
0 2320 0
0 2327 0
0 2330 234
0 2329 535
0 2326 864
0 2320 1216
0 2313 1591
0 2304 1987
0 2293 2399
0 2280 2842
0 2264 3317
0 2247 3808
0 2230 4095
0 2218 4095
0 2216 4095
0 2632 0
0 2644 0
0 2654 0
0 2662 0
0 2664 166
0 2663 469
0 2659 796
0 2653 1148
0 2645 1523
0 2635 1917
0 2625 2329
0 2611 2771
0 2595 3247
0 2577 3737
0 2560 4095
0 2547 4095
0 2543 4095
0 2964 0
0 2976 0
0 2987 0
0 2993 0
0 2995 92
0 2993 392
0 2988 719
0 2982 1071
0 2973 1444
0 2964 1840
0 2952 2250
0 2939 2693
0 2922 3168
0 2904 3657
0 2887 4095
0 2874 4095
0 2872 4095
0 3292 0
0 3305 0
0 3314 0
0 3321 0
0 3323 11
0 3320 312
0 3317 640
0 3310 991
0 3303 1366
0 3292 1761
0 3281 2172
0 3268 2615
0 3251 3090
0 3234 3580
0 3217 4062
0 3205 4095
0 3202 4095
0 3621 0
0 3633 0
0 3642 0
0 3650 0
0 3651 0
0 3650 238
0 3646 565
0 3640 916
0 3632 1291
0 3622 1686
0 3612 2098
0 3598 2540
0 3582 3017
0 3564 3506
0 3547 3988
0 3535 4095
0 3532 4095
0 3949 0
0 3960 0
0 3971 0
0 3978 0
0 3980 0
0 3978 169
0 3974 497
0 3969 849
0 3961 1223
0 3952 1619
0 3940 2030
0 3926 2472
0 3911 2949
0 3893 3438
0 3877 3921
0 3864 4095
0 3861 4095
0 4095 0
0 4095 0
0 4095 0
0 4095 0
0 4095 0
0 4095 112
0 4095 441
0 4095 792
0 4095 1166
0 4095 1562
0 4095 1973
0 4095 2416
0 4095 2891
0 4095 3381
0 4095 3864
0 4095 4095
0 4095 4095
0 4095 0
0 4095 0
0 4095 0
0 4095 0
0 4095 0
0 4095 124
0 4095 452
0 4095 803
0 4095 1178
0 4095 1573
0 4095 1984
0 4095 2427
0 4095 2902
0 4095 3392
0 4095 3874
0 4095 4095
0 4095 4095
32 23 25
43 31 40
54 38 63
64 44 93
74 50 139
81 53 199
88 55 277
93 56 370
96 56 478
98 54 607
98 50 750
96 44 919
93 37 1108
87 28 1320
81 18 1547
75 7 1783
71 0 1992
135 124 91
144 131 131
150 137 183
155 141 254
158 142 354
158 142 481
156 140 628
153 136 799
148 130 990
141 122 1206
133 113 1441
122 101 1707
109 87 2005
94 71 2331
78 54 2667
63 39 2996
53 28 3276
183 252 99
186 259 164
188 264 246
189 268 355
186 267 509
180 264 699
172 259 916
162 251 1159
150 242 1431
136 230 1728
120 217 2055
102 202 2416
81 184 2823
58 163 3252
35 143 3696
14 124 4095
0 113 4095
160 428 40
161 436 129
161 444 242
158 448 388
151 448 593
141 444 841
129 439 1123
114 430 1434
98 421 1779
80 408 2151
62 396 2552
40 379 2988
16 360 3466
0 338 3962
0 317 4095
0 300 4095
0 292 4095
54 684 0
56 695 15
56 705 156
54 711 334
48 712 579
38 708 870
28 703 1192
15 695 1541
2 684 1914
0 673 2311
0 659 2722
0 643 3164
0 624 3636
0 605 4095
0 586 4095
0 572 4095
0 567 4095
0 985 0
0 995 0
0 1002 62
0 1008 254
0 1007 510
0 1004 810
0 998 1136
0 991 1486
0 981 1859
0 970 2252
0 958 2663
0 943 3104
0 926 3579
0 907 4068
0 890 4095
0 876 4095
0 874 4095
0 1293 0
0 1304 0
0 1313 0
0 1319 175
0 1321 433
0 1318 733
0 1314 1061
0 1307 1411
0 1299 1786
0 1289 2180
0 1277 2591
0 1264 3034
0 1247 3509
0 1230 4000
0 1213 4095
0 1201 4095
0 1198 4095
0 1617 0
0 1629 0
0 1639 0
0 1646 96
0 1648 354
0 1647 656
0 1642 984
0 1637 1336
0 1629 1711
0 1620 2106
0 1610 2518
0 1596 2961
0 1581 3438
0 1563 3927
0 1548 4095
0 1535 4095
0 1533 4095
0 1949 0
0 1961 0
0 1973 0
0 1980 23
0 1983 283
0 1981 584
0 1978 913
0 1972 1265
0 1965 1639
0 1956 2036
0 1945 2448
0 1933 2891
0 1917 3367
0 1901 3858
0 1884 4095
0 1872 4095
0 1870 4095
0 2282 0
0 2296 0
0 2306 0
0 2314 0
0 2316 220
0 2315 522
0 2312 850
0 2306 1202
0 2299 1577
0 2289 1972
0 2279 2385
0 2265 2827
0 2250 3304
0 2232 3793
0 2216 4095
0 2203 4095
0 2200 4095
0 2617 0
0 2629 0
0 2640 0
0 2647 0
0 2650 152
0 2648 453
0 2643 780
0 2638 1132
0 2629 1506
0 2620 1902
0 2608 2313
0 2595 2756
0 2578 3231
0 2560 3720
0 2543 4095
0 2530 4095
0 2527 4095
0 2948 0
0 2961 0
0 2970 0
0 2977 0
0 2978 75
0 2976 375
0 2972 703
0 2965 1054
0 2958 1429
0 2947 1823
0 2936 2234
0 2922 2677
0 2905 3152
0 2888 3642
0 2871 4095
0 2859 4095
0 2856 4095
0 3276 0
0 3288 0
0 3298 0
0 3305 0
0 3306 0
0 3305 297
0 3300 624
0 3294 975
0 3287 1350
0 3276 1745
0 3266 2157
0 3252 2599
0 3236 3075
0 3218 3564
0 3201 4046
0 3189 4095
0 3186 4095
0 3605 0
0 3617 0
0 3628 0
0 3634 0
0 3636 0
0 3635 222
0 3630 549
0 3625 901
0 3617 1276
0 3608 1671
0 3596 2083
0 3582 2525
0 3567 3001
0 3549 3491
0 3533 3974
0 3520 4095
0 3518 4095
0 3933 0
0 3945 0
0 3956 0
0 3962 0
0 3965 0
0 3963 153
0 3960 482
0 3953 833
0 3945 1207
0 3936 1603
0 3925 2014
0 3912 2458
0 3895 2933
0 3878 3423
0 3861 3905
0 3848 4095
0 3846 4095
0 4095 0
0 4095 0
0 4095 0
0 4095 0
0 4095 0
0 4095 97
0 4095 425
0 4095 776
0 4095 1152
0 4095 1546
0 4095 1958
0 4095 2400
0 4095 2875
0 4095 3366
0 4095 3848
0 4095 4095
0 4095 4095
0 4095 0
0 4095 0
0 4095 0
0 4095 0
0 4095 0
0 4095 109
0 4095 436
0 4095 787
0 4095 1162
0 4095 1556
0 4095 1969
0 4095 2410
0 4095 2885
0 4095 3375
0 4095 3857
0 4095 4095
0 4095 4095
96 42 46
113 49 69
129 54 99
145 58 141
158 60 203
169 60 282
179 60 380
186 57 493
193 53 629
197 48 780
200 41 954
201 32 1149
200 21 1375
196 8 1617
192 0 1881
188 0 2137
189 0 2370
253 131 89
265 136 136
277 140 197
286 142 278
293 141 394
297 138 538
299 133 707
299 126 897
297 117 1113
293 106 1352
288 94 1618
280 80 1912
270 63 2243
257 44 2597
244 24 2960
232 5 3318
226 0 3611
351 250 76
359 255 148
367 260 239
372 261 359
373 258 527
371 253 734
366 245 969
361 236 1235
353 225 1529
343 212 1856
331 197 2205
317 179 2596
299 158 3021
280 136 3478
259 113 3940
243 93 4095
234 81 4095
380 423 2
387 432 98
391 437 219
393 440 375
391 438 593
385 434 858
378 427 1156
368 419 1486
356 408 1844
343 395 2232
327 380 2640
309 362 3085
288 342 3569
266 321 4070
245 299 4095
227 282 4095
221 276 4095
323 680 0
330 691 0
334 699 131
337 704 316
334 704 567
328 699 864
321 693 1190
311 684 1539
301 674 1912
289 662 2304
276 649 2714
260 633 3154
243 616 3628
223 596 4095
205 578 4095
190 563 4095
186 559 4095
243 976 0
253 985 0
262 994 53
267 999 245
267 1000 503
264 996 802
258 990 1128
251 983 1479
241 974 1852
231 964 2246
219 952 2657
205 938 3099
188 920 3573
170 903 4063
152 885 4095
140 872 4095
137 869 4095
164 1287 0
176 1299 0
185 1308 0
192 1315 170
192 1315 428
191 1314 729
186 1309 1056
180 1303 1407
172 1295 1782
162 1285 2177
151 1274 2589
137 1260 3031
122 1245 3507
104 1227 3997
88 1211 4095
75 1198 4095
73 1196 4095
85 1614 0
97 1626 0
108 1636 0
115 1643 93
117 1646 353
115 1644 654
112 1640 982
106 1635 1334
98 1627 1708
90 1619 2105
79 1608 2516
67 1595 2960
50 1579 3436
34 1563 3927
17 1546 4095
5 1533 4095
4 1532 4095
12 1947 0
25 1961 0
35 1971 0
44 1979 23
46 1981 281
44 1980 583
41 1977 912
36 1971 1263
29 1964 1639
19 1955 2034
10 1945 2447
0 1931 2890
0 1916 3366
0 1899 3856
0 1882 4095
0 1870 4095
0 1868 4095
0 2282 0
0 2294 0
0 2305 0
0 2313 0
0 2315 219
0 2314 520
0 2310 848
0 2305 1200
0 2297 1575
0 2288 1971
0 2277 2382
0 2264 2825
0 2247 3301
0 2229 3790
0 2213 4095
0 2199 4095
0 2198 4095
0 2615 0
0 2628 0
0 2637 0
0 2644 0
0 2646 149
0 2644 450
0 2641 778
0 2634 1129
0 2626 1504
0 2616 1898
0 2604 2309
0 2591 2751
0 2574 3226
0 2556 3716
0 2539 4095
0 2526 4095
0 2523 4095
0 2944 0
0 2956 0
0 2966 0
0 2973 0
0 2974 70
0 2972 372
0 2968 699
0 2961 1050
0 2954 1424
0 2943 1819
0 2933 2231
0 2919 2673
0 2903 3149
0 2885 3638
0 2867 4095
0 2855 4095
0 2852 4095
0 3273 0
0 3284 0
0 3295 0
0 3301 0
0 3303 0
0 3301 293
0 3297 620
0 3292 973
0 3283 1347
0 3274 1742
0 3263 2154
0 3249 2596
0 3233 3072
0 3215 3561
0 3199 4044
0 3186 4095
0 3184 4095
0 3602 0
0 3614 0
0 3624 0
0 3631 0
0 3634 0
0 3631 219
0 3628 547
0 3622 898
0 3614 1273
0 3605 1668
0 3593 2080
0 3580 2523
0 3564 2998
0 3547 3489
0 3530 3971
0 3517 4095
0 3515 4095
0 3930 0
0 3943 0
0 3953 0
0 3961 0
0 3962 0
0 3960 151
0 3957 479
0 3950 830
0 3943 1205
0 3933 1600
0 3923 2013
0 3909 2455
0 3892 2930
0 3875 3420
0 3858 3902
0 3846 4095
0 3843 4095
0 4095 0
0 4095 0
0 4095 0
0 4095 0
0 4095 0
0 4095 95
0 4095 422
0 4095 774
0 4095 1148
0 4095 1543
0 4095 1955
0 4095 2397
0 4095 2873
0 4095 3362
0 4095 3844
0 4095 4095
0 4095 4095
0 4095 0
0 4095 0
0 4095 0
0 4095 0
0 4095 0
0 4095 105
0 4095 432
0 4095 784
0 4095 1158
0 4095 1553
0 4095 1964
0 4095 2406
0 4095 2882
0 4095 3371
0 4095 3853
0 4095 4095
0 4095 4095
210 50 56
235 53 84
257 55 122
279 56 175
296 55 251
313 52 350
327 48 466
340 42 604
350 34 761
360 25 941
367 15 1138
372 2 1366
374 0 1617
375 0 1896
373 0 2183
374 0 2470
379 0 2721
436 121 70
456 124 123
473 125 192
489 124 284
501 121 414
510 115 577
517 107 764
523 97 978
525 85 1216
527 72 1482
526 56 1770
522 38 2091
515 18 2449
506 0 2831
498 0 3233
491 0 3615
