3DLUTS/GC_VENOM_LUTS/Additional_Formats/3DL/GC_Venom_709/GC_Venom_Ayla_709.3dl
# Converted by Briz LUT Converter
0 128 256 384 512 640 768 896 1023
0 0 0
0 0 0
0 0 0
15 15 63
28 27 176
37 35 328
41 39 509
42 39 726
41 37 973
5 182 0
0 190 191
0 197 396
0 201 632
0 205 901
0 206 1203
0 206 1540
0 204 1915
0 201 2332
0 542 0
0 551 154
0 562 563
0 570 996
0 579 1459
0 588 1948
0 594 2455
0 600 2976
0 607 3504
0 1129 0
0 1129 60
0 1135 614
0 1144 1146
0 1159 1668
0 1177 2182
0 1196 2689
0 1217 3192
0 1241 3690
0 1796 0
0 1812 235
0 1834 806
0 1857 1352
0 1884 1886
0 1912 2410
0 1941 2927
0 1971 3438
0 2002 3944
0 2563 0
0 2584 510
0 2611 1086
0 2640 1638
0 2670 2176
9 2702 2703
40 2732 3221
72 2764 3734
105 2797 4095
179 3359 162
199 3380 818
226 3406 1393
252 3432 1942
281 3461 2478
310 3490 3003
339 3519 3520
368 3548 4030
397 3577 4095
466 4095 449
480 4095 1099
501 4095 1668
523 4095 2213
545 4095 2743
568 4095 3261
590 4095 3771
642 4095 4095
736 4095 4095
1043 4095 1029
1249 4095 1754
1482 4095 2351
1705 4095 2848
1922 4095 3262
2151 4095 3609
2367 4095 3884
2556 4095 4095
2743 4095 4095
27 13 13
62 25 65
93 32 155
120 36 278
143 36 438
163 33 631
180 27 853
194 19 1108
206 9 1396
182 199 0
180 199 200
178 198 460
174 196 750
169 193 1073
162 189 1436
154 182 1831
145 175 2264
135 167 2742
90 567 0
67 569 105
49 574 575
33 577 1061
20 582 1562
11 586 2073
6 592 2587
8 598 3092
17 609 3581
27 1141 0
32 1147 77
46 1161 640
63 1177 1179
83 1197 1707
104 1219 2225
129 1243 2737
155 1269 3243
182 1296 3745
232 1854 0
249 1871 294
273 1895 867
300 1922 1416
328 1950 1952
358 1980 2478
387 2009 2995
418 2040 3506
450 2072 4013
518 2636 0
539 2657 584
566 2685 1160
594 2713 1711
625 2743 2248
656 2774 2776
687 2806 3295
719 2838 3808
752 2870 4095
822 3429 232
841 3448 887
867 3473 1460
893 3500 2010
920 3527 2544
948 3555 3068
975 3582 3583
1001 3608 4089
1028 3634 4095
1093 4095 503
1106 4095 1152
1125 4095 1719
1144 4095 2261
1186 4095 2794
1263 4095 3311
1376 4095 3794
1525 4095 4095
1709 4095 4095
2075 4095 1672
2248 4095 2276
2435 4095 2760
2615 4095 3154
2775 4095 3466
2929 4095 3717
3088 4095 3915
3238 4095 4062
3382 4095 4095
190 36 36
233 35 147
274 32 287
310 26 458
344 17 661
376 6 898
405 0 1166
432 0 1467
458 0 1803
449 199 0
462 191 192
477 185 513
490 177 862
502 168 1245
515 159 1669
527 149 2128
536 138 2612
545 127 3131
529 583 0
524 579 61
523 580 582
525 583 1101
529 587 1618
538 596 2125
548 606 2622
560 619 3116
577 635 3607
601 1183 0
612 1193 124
630 1211 690
652 1233 1235
676 1257 1766
701 1283 2288
728 1309 2803
754 1335 3310
783 1364 3813
838 1927 0
857 1946 369
883 1972 943
910 1999 1494
938 2027 2029
969 2058 2556
1001 2089 3075
1033 2121 3588
1065 2154 4095
1133 2718 9
1153 2739 665
1181 2766 1241
1210 2795 1793
1240 2825 2331
1271 2856 2858
1301 2887 3376
1331 2916 3886
1362 2947 4095
1431 3505 308
1449 3523 961
1473 3547 1534
1498 3571 2081
1523 3596 2613
1547 3620 3134
1572 3646 3647
1597 3670 4095
1622 3695 4095
1683 4095 559
1708 4095 1224
1768 4095 1826
1857 4095 2399
1972 4095 2931
2119 4095 3411
2280 4095 3821
2432 4095 4095
2581 4095 4095
2861 4095 2311
2988 4095 2777
3111 4095 3134
3240 4095 3428
3364 4095 3661
3482 4095 3838
3601 4095 3971
3718 4095 4059
3830 4095 4095
436 28 28
488 18 199
539 6 390
587 0 609
633 0 861
679 0 1147
724 0 1468
767 0 1822
809 0 2215
823 183 0
852 169 170
887 157 554
920 145 969
949 132 1410
978 120 1884
1005 108 2386
1028 97 2903
1049 89 3434
1048 591 0
1048 587 42
1054 592 594
1062 600 1125
1072 610 1642
1087 625 2153
1105 643 2659
1125 663 3160
1147 685 3657
1180 1241 0
1195 1256 186
1217 1277 757
1241 1302 1304
1266 1327 1836
1292 1353 2359
1321 1382 2875
1351 1412 3386
1381 1442 3891
1439 2007 0
1457 2026 449
1484 2052 1024
1513 2081 1576
1543 2112 2114
1574 2143 2641
1606 2175 3161
1637 2205 3672
1670 2238 4095
1738 2803 94
1759 2824 750
1786 2851 1326
1814 2879 1877
1842 2907 2412
1871 2936 2938
1901 2966 3455
1930 2995 3965
1960 3025 4095
2026 3579 382
2042 3595 1034
2062 3615 1602
2085 3638 2148
2108 3661 2678
2131 3684 3198
2154 3707 3708
2177 3730 4095
2211 3749 4095
2344 4095 810
2422 4095 1531
2530 4095 2153
2652 4095 2699
2768 4095 3156
2881 4095 3536
3001 4095 3848
3117 4094 4094
3220 4080 4095
3399 4095 2858
3494 4095 3214
3587 4095 3481
3681 4095 3693
3776 4095 3855
3866 4095 3970
3954 4095 4045
4034 4095 4085
4085 4095 4095
766 0 0
830 0 229
894 0 472
960 0 746
1021 0 1051
1084 0 1392
1150 0 1774
1212 0 2188
1274 0 2640
1316 154 0
1361 135 136
1407 119 585
1453 105 1055
1491 92 1544
1525 82 2051
1554 74 2566
1577 71 3083
1593 73 3588
1585 611 0
1585 611 64
1596 622 624
1612 638 1162
1630 655 1687
1650 676 2204
1673 698 2714
1697 723 3220
1724 749 3721
1763 1311 0
1780 1328 259
1802 1350 829
1828 1376 1378
1855 1404 1913
1884 1432 2438
1914 1463 2956
1945 1493 3468
1975 1524 3973
2035 2091 0
2056 2112 535
2083 2139 1111
2113 2168 1663
2143 2198 2200
2173 2228 2727
2205 2260 3246
2237 2292 3759
2269 2325 4095
2336 2888 179
2356 2908 835
2380 2932 1407
2407 2959 1957
2435 2987 2492
2463 3015 3017
2491 3043 3533
2519 3071 4041
2546 3098 4095
2607 3648 451
2621 3661 1100
2640 3681 1668
2661 3702 2211
2682 3722 2739
2709 3741 3258
2749 3756 3757
2803 3770 4095
2868 3782 4095
3037 4095 1408
3111 4095 2067
3187 4095 2584
3270 4095 3022
3352 4092 3380
3426 4078 3663
3497 4067 3887
3572 4059 4059
3645 4054 4095
3768 4095 3360
3838 4095 3619
3907 4095 3808
3975 4095 3947
4039 4095 4040
4087 4095 4090
4095 4095 4095
4095 4095 4095
4095 4095 4095
1195 0 0
1273 0 240
1355 0 541
1442 0 874
1525 0 1239
1607 0 1639
1694 0 2082
1780 0 2561
1856 0 3064
1906 117 0
1955 96 98
2001 82 602
2041 72 1113
2071 66 1627
2092 67 2139
2104 75 2639
2115 86 3131
2127 98 3618
2130 649 0
2139 657 111
2155 674 676
2176 694 1219
2198 716 1749
2222 741 2269
2248 767 2783
2276 794 3291
2303 822 3794
2345 1386 0
2364 1405 336
2389 1430 909
2416 1458 1460
2446 1487 1996
2474 1515 2521
2505 1546 3040
2537 1578 3552
2570 1611 4060
2630 2179 0
2651 2200 623
2677 2226 1198
2706 2255 1750
2737 2285 2287
2768 2316 2815
2799 2348 3334
2830 2379 3846
2861 2410 4095
2925 2970 261
2943 2988 915
2967 3013 1488
2993 3038 2036
3019 3064 2570
3045 3090 3092
3070 3115 3604
3095 3141 4095
3120 3166 4095
3179 3712 515
3190 3724 1162
3209 3739 1740
3235 3752 2307
3267 3765 2848
3304 3776 3346
3353 3790 3791
3406 3805 4095
3455 3817 4095
3552 4095 2065
3595 4095 2596
3638 4079 2995
3681 4066 3318
3727 4058 3580
3774 4053 3787
3820 4051 3942
3869 4052 4052
3919 4056 4095
4002 4095 3820
4048 4095 3980
4088 4095 4079
4095 4095 4095
4095 4095 4095
4095 4095 4095
4095 4095 4095
4095 4095 4095
4095 4095 4095
1735 0 0
1838 0 237
1937 0 600
2046 0 995
2153 0 1425
2251 0 1883
2345 0 2372
2435 0 2889
2512 0 3421
2538 86 0
2569 71 72
2592 67 615
2604 72 1145
2613 81 1661
2623 91 2168
2639 107 2671
2657 125 3170
2677 145 3665
2691 707 0
2703 719 173
2724 740 742
2747 763 1288
2773 789 1821
2799 815 2344
2826 842 2858
2855 871 3368
2885 901 3872
2930 1469 0
2950 1489 420
2975 1514 993
3003 1542 1544
3033 1572 2082
3064 1603 2609
3096 1635 3128
3129 1667 3642
3161 1700 4095
3220 2266 54
3241 2288 711
3269 2315 1287
3297 2344 1838
3327 2373 2375
3357 2403 2901
3385 2431 3417
3415 2462 3928
3445 2492 4095
3507 3050 341
3524 3067 993
3546 3089 1564
3569 3112 2110
3592 3135 2641
3616 3159 3160
3640 3183 3672
3663 3206 4095
3686 3229 4095
3734 3764 655
3738 3768 1370
3748 3776 1991
3761 3787 2558
3777 3800 3060
3791 3812 3479
3804 3823 3824
3821 3838 4095
3839 3854 4095
3875 4072 2655
3889 4059 3050
3909 4053 3354
3931 4050 3592
3955 4050 3779
3982 4054 3918
4011 4061 4014
4040 4071 4071
4070 4084 4095
4095 4095 4083
4095 4095 4095
4095 4095 4095
4095 4095 4095
4095 4095 4095
4095 4095 4095
4095 4095 4095
4095 4095 4095
4095 4095 4095
2401 0 0
2526 0 221
2644 0 651
2756 0 1103
2865 0 1584
2959 0 2084
3041 0 2599
3110 0 3124
3161 0 3645
3116 85 0
3116 85 87
3123 92 642
3135 104 1177
3152 121 1701
3170 139 2216
3191 160 2724
3215 184 3229
3239 208 3728
3258 776 0
3275 792 245
3297 815 817
3323 840 1365
3348 866 1898
3377 894 2422
3406 923 2940
3437 954 3451
3468 986 3957
3515 1555 0
3535 1575 506
3562 1602 1082
3592 1632 1634
3622 1662 2172
3654 1694 2699
3684 1724 3217
3716 1756 3730
3749 1789 4095
3808 2356 143
3828 2376 799
3855 2402 1374
3881 2428 1923
3909 2457 2458
3937 2485 2983
3966 2514 3500
3995 2542 4009
4023 2570 4095
4081 3125 416
4095 3140 1066
4095 3158 1633
4095 3180 2178
4095 3202 2707
4095 3223 3225
4095 3246 3732
4095 3274 4095
4095 3307 4095
4095 3798 1144
4095 3803 1858
4095 3812 2423
4095 3821 2892
4095 3835 3289
4079 3850 3612
4067 3865 3865
4057 3881 4062
4051 3900 4095
4050 4053 3177
4048 4051 3469
4052 4054 3690
4059 4060 3856
4069 4070 3975
4081 4082 4053
4095 4095 4093
4095 4095 4095
4095 4095 4095
4095 4095 4095
4095 4095 4095
4095 4095 4095
4095 4095 4095
4095 4095 4095
4095 4095 4095
4095 4095 4095
4095 4095 4095
4095 4095 4095
3175 0 0
3296 0 196
3405 0 685
3502 0 1185
3584 0 1698
3643 0 2212
3681 0 2721
3698 0 3217
3710 0 3703
3644 118 0
3652 125 127
3666 140 690
3685 158 1231
3707 180 1760
3729 202 2279
3754 227 2792
3781 254 3299
3808 282 3802
3831 853 0
3848 869 323
3872 894 896
3899 921 1446
3928 950 1982
3958 980 2508
3988 1009 3025
4019 1040 3537
4051 1073 4044
4095 1644 0
4095 1666 597
4095 1693 1173
4095 1721 1723
4095 1751 2261
4095 1782 2788
4095 1814 3307
4095 1846 3820
4095 1878 4095
4095 2442 230
4095 2461 884
4095 2485 1457
4095 2511 2006
4095 2538 2540
4095 2565 3063
4095 2591 3577
4095 2618 4084
4095 2643 4095
4095 3193 484
4095 3206 1132
4095 3223 1699
4095 3244 2248
4095 3269 2788
4095 3300 3302
4095 3337 3771
4095 3382 4095
4095 3432 4095
4095 3829 1815
4095 3836 2397
4095 3849 2851
4095 3863 3211
4095 3878 3503
4095 3896 3737
4095 3916 3917
4095 3938 4048
4095 3962 4095
4095 4061 3659
4095 4069 3857
4095 4080 3994
4095 4094 4081
4095 4095 4095
4095 4095 4095
4095 4095 4095
4095 4095 4095
4095 4095 4095
4095 4095 4095
4095 4095 4095
4095 4095 4095
4095 4095 4095
4095 4095 4095
4095 4095 4095
4095 4095 4095
4095 4095 4095
4095 4095 4095
