3DLUTS/GC_VENOM_LUTS/Additional_Formats/3DL/GC_Venom_709/GC_Venom_Adara_709.3dl
# Converted by Briz LUT Converter
0 256 512 768 1023
0 0 0
0 0 0
32 40 291
37 56 1058
2 33 2317
0 1086 0
0 1081 781
0 1060 2004
0 1030 3340
0 978 4095
0 2253 0
0 2247 526
0 2226 1749
0 2196 3085
0 2144 4095
0 3436 0
0 3430 229
0 3409 1452
0 3379 2789
0 3327 4095
0 4095 0
0 4095 0
0 4095 989
0 4095 2325
0 4095 3915
592 20 34
856 0 510
1061 0 1380
1209 0 2598
1288 0 4095
1338 910 0
1332 905 605
1312 884 1828
1281 854 3164
1229 802 4095
1083 2077 0
1077 2071 350
1056 2050 1573
1026 2020 2909
974 1968 4095
786 3260 0
781 3254 53
760 3233 1276
730 3203 2613
678 3151 4095
323 4095 0
318 4095 0
297 4095 813
267 4095 2150
225 4095 3738
2456 0 0
2718 0 674
2888 0 1835
2976 0 3205
2979 0 4095
2861 786 0
2856 780 480
2835 759 1703
2805 729 3039
2753 677 4095
2606 1952 0
2601 1946 225
2580 1926 1448
2549 1895 2784
2498 1844 4095
2310 3135 0
2304 3129 0
2283 3109 1152
2253 3078 2488
2201 3027 4077
1847 4095 0
1854 4095 0
1890 4095 803
1964 4095 2177
2073 4095 3627
4095 0 0
4095 0 603
4095 0 1826
4095 0 3162
4095 0 4095
4095 676 0
4095 671 371
4095 650 1594
4095 620 2930
4095 568 4095
4072 1842 0
4067 1837 115
4046 1816 1339
4016 1786 2675
3964 1734 4095
3776 3025 0
3771 3020 0
3750 2999 1042
3719 2969 2379
3668 2917 3968
3350 4095 0
3389 4095 231
3440 4095 1573
3517 4056 2767
3621 4020 3746
4095 0 0
4095 0 503
4095 0 1726
4095 0 3062
4095 0 4095
4095 576 0
4095 571 271
4095 550 1494
4095 520 2830
4095 468 4095
4095 1742 0
4095 1737 15
4095 1716 1239
4095 1686 2575
4095 1634 4095
4095 2925 0
4095 2920 0
4095 2899 942
4095 2869 2279
4095 2817 3868
4095 4028 917
4095 4022 2233
4095 4034 3311
4095 4076 3983
4095 4095 4095
