3DLUTS/GC_VENOM_LUTS/Additional_Formats/3DL/GC_Venom_709/GC_Venom_Sakata_709.3dl
# Converted by Briz LUT Converter
0 64 128 192 256 320 384 448 512 576 640 704 768 832 896 960 1023
0 0 0
9 9 15
17 17 46
25 25 97
31 31 168
36 36 261
39 39 375
41 41 512
41 41 668
40 40 845
37 37 1042
33 33 1257
27 27 1489
20 20 1739
12 12 2003
2 2 2282
0 0 2573
40 135 40
38 142 142
33 147 264
27 151 405
20 153 565
12 153 742
3 152 936
0 150 1145
0 146 1369
0 141 1605
0 135 1854
0 128 2114
0 121 2384
0 112 2662
0 102 2947
0 92 3237
0 81 3533
0 323 0
0 324 135
0 325 325
0 323 528
0 320 744
0 315 970
0 310 1207
0 303 1451
0 297 1703
0 288 1960
0 280 2222
0 271 2487
0 262 2754
0 253 3021
0 243 3288
0 233 3552
0 224 3813
0 519 0
0 515 44
0 510 270
0 503 503
0 496 743
0 488 985
0 480 1231
0 472 1478
0 463 1725
0 455 1974
0 446 2223
0 438 2475
0 430 2727
0 422 2980
0 413 3233
0 405 3487
0 396 3742
0 696 0
0 690 0
0 683 190
0 676 428
0 668 668
0 661 912
0 653 1156
0 645 1402
0 636 1649
0 627 1898
0 618 2147
0 609 2397
0 600 2649
0 591 2901
0 583 3155
0 575 3410
0 568 3666
0 868 0
0 861 0
0 854 110
0 846 347
0 839 589
0 832 832
0 826 1079
0 819 1326
0 813 1576
0 806 1827
0 801 2080
0 799 2337
0 798 2596
0 800 2859
0 801 3123
0 805 3388
0 807 3654
0 1052 0
0 1051 0
0 1052 55
0 1054 303
0 1057 554
0 1061 808
0 1064 1064
0 1069 1324
0 1075 1585
0 1083 1850
0 1092 2118
0 1102 2387
0 1113 2659
0 1124 2930
0 1136 3205
0 1148 3479
0 1162 3757
0 1341 0
0 1353 0
0 1367 115
0 1378 372
0 1391 633
0 1404 896
0 1419 1164
0 1433 1433
0 1450 1706
0 1466 1979
0 1481 2252
0 1498 2529
0 1513 2804
0 1531 3083
0 1546 3360
0 1563 3640
0 1578 3918
0 1730 0
0 1750 3
0 1766 259
0 1785 523
0 1801 787
0 1819 1056
0 1835 1324
0 1852 1596
0 1868 1868
0 1882 2139
0 1897 2413
0 1910 2685
0 1923 2958
0 1933 3230
0 1945 3504
0 1955 3777
0 1965 4050
0 2147 0
0 2162 157
0 2176 412
0 2188 669
0 2201 930
0 2212 1192
0 2224 1456
1 2234 1721
10 2243 1986
19 2253 2253
27 2261 2519
36 2270 2787
43 2277 3055
52 2286 3325
59 2293 3594
67 2300 3864
74 2308 4095
20 2511 20
31 2523 260
40 2532 509
49 2541 764
57 2549 1020
67 2559 1280
74 2566 1540
81 2573 1802
90 2582 2067
97 2589 2331
105 2597 2597
112 2604 2864
120 2612 3132
126 2619 3399
132 2625 3668
140 2632 3938
146 2638 4095
97 2849 97
106 2858 335
115 2867 585
123 2875 837
131 2882 1093
138 2890 1352
145 2897 1612
153 2905 1874
160 2912 2137
167 2919 2402
173 2925 2666
180 2932 2932
186 2938 3199
192 2944 3466
199 2951 3735
205 2957 4003
211 2963 4095
165 3177 165
174 3186 404
181 3194 651
188 3201 903
196 3209 1159
203 3215 1416
210 3222 1677
216 3228 1937
223 3235 2200
228 3241 2463
234 3246 2727
241 3253 2993
246 3258 3258
252 3265 3526
257 3270 3793
263 3276 4062
268 3280 4095
225 3499 225
233 3507 463
240 3514 710
248 3521 963
253 3527 1217
260 3534 1474
266 3540 1733
271 3545 1993
277 3551 2255
282 3556 2517
289 3563 2782
293 3567 3046
299 3573 3312
303 3577 3577
308 3582 3844
313 3587 4095
317 3591 4095
279 3815 279
286 3822 515
293 3829 763
298 3834 1014
305 3841 1268
310 3846 1524
315 3851 1782
321 3857 2043
325 3862 2303
331 3867 2566
335 3871 2828
340 3876 3093
344 3881 3358
348 3884 3622
353 3889 3889
356 3892 4095
360 3896 4095
325 4095 325
332 4095 562
338 4095 808
343 4095 1058
348 4095 1312
352 4095 1567
357 4095 1825
360 4095 2082
365 4095 2343
368 4095 2603
370 4095 2864
373 4095 3126
373 4095 3387
374 4095 3649
374 4095 3911
374 4095 4095
374 4095 4095
360 4095 360
364 4095 594
367 4095 837
369 4095 1084
369 4095 1333
371 4095 1586
371 4095 1839
371 4095 2093
371 4095 2349
370 4095 2605
369 4095 2863
368 4095 3121
367 4095 3380
365 4095 3640
363 4095 3900
362 4095 4095
360 4095 4095
48 25 25
64 31 64
80 37 124
93 40 203
106 42 305
117 42 426
126 41 569
133 38 730
140 35 912
144 29 1111
147 23 1328
147 15 1561
147 6 1810
145 0 2072
142 0 2347
137 0 2634
131 0 2931
151 151 28
154 154 154
155 155 299
154 154 462
153 153 642
149 149 837
145 145 1047
139 139 1271
133 133 1507
125 125 1754
117 117 2011
108 108 2276
98 98 2548
87 87 2827
76 76 3109
64 64 3396
52 52 3685
123 324 0
116 322 116
107 319 319
98 314 534
87 308 760
77 302 996
66 294 1238
56 286 1487
45 278 1740
34 269 1998
23 260 2257
12 251 2517
2 241 2776
0 232 3033
0 223 3288
0 214 3541
0 205 3796
27 505 0
18 500 18
9 493 249
1 485 485
0 477 725
0 469 968
0 461 1213
0 453 1459
0 445 1707
0 437 1956
0 429 2206
0 420 2457
0 412 2709
0 403 2962
0 395 3215
0 385 3468
0 376 3722
0 678 0
0 672 0
0 666 172
0 658 410
0 650 650
0 642 892
0 633 1137
0 624 1382
0 615 1629
0 607 1878
0 598 2128
0 591 2379
0 583 2632
0 576 2886
0 568 3140
0 561 3396
0 555 3653
0 849 0
0 843 0
0 837 93
0 831 332
0 824 574
0 819 819
0 813 1065
0 808 1315
0 805 1569
0 805 1825
0 806 2085
0 808 2346
0 811 2610
0 814 2873
0 818 3139
0 823 3407
0 831 3678
0 1056 0
0 1060 0
0 1065 68
0 1068 317
0 1074 570
0 1080 827
0 1088 1088
0 1097 1352
0 1107 1618
0 1119 1887
0 1130 2156
0 1142 2427
0 1154 2699
0 1169 2975
0 1182 3251
0 1198 3530
0 1214 3809
0 1379 0
0 1394 0
0 1407 156
0 1423 416
0 1437 679
0 1455 947
0 1470 1216
0 1486 1486
12 1503 1759
28 1519 2032
45 1536 2308
60 1552 2582
78 1569 2860
93 1584 3136
109 1600 3415
125 1616 3693
139 1630 3970
38 1786 0
56 1803 56
75 1822 315
91 1838 576
109 1856 843
125 1872 1109
140 1887 1377
155 1903 1647
168 1915 1915
181 1928 2186
192 1939 2455
204 1951 2726
215 1962 2997
225 1972 3269
235 1983 3541
244 1991 3812
253 2000 4085
185 2189 0
199 2204 199
211 2216 451
224 2228 709
234 2239 968
244 2249 1228
254 2258 1491
261 2266 1753
271 2275 2018
278 2283 2283
287 2292 2550
294 2299 2817
303 2307 3085
310 2315 3354
317 2321 3622
325 2329 3893
331 2336 4095
280 2543 51
289 2552 289
299 2562 539
307 2570 792
315 2578 1048
324 2587 1308
331 2594 1568
340 2603 1831
347 2610 2094
355 2618 2360
362 2625 2625
368 2631 2891
376 2639 3158
382 2645 3426
389 2653 3695
395 2659 3964
403 2666 4095
353 2876 124
363 2885 363
371 2894 611
379 2901 864
387 2910 1121
394 2916 1378
402 2924 1639
408 2931 1900
416 2938 2163
422 2944 2427
428 2950 2691
435 2958 2958
441 2963 3224
447 2970 3492
453 2975 3759
459 2982 4028
464 2987 4095
419 3202 190
428 3211 428
435 3218 676
444 3227 929
450 3233 1183
457 3240 1442
463 3246 1700
469 3252 1961
476 3259 2224
481 3264 2486
488 3271 2751
493 3276 3016
499 3282 3282
504 3287 3548
509 3292 3815
515 3298 4084
519 3302 4095
479 3523 249
486 3530 486
493 3538 734
499 3544 985
506 3550 1240
512 3556 1497
517 3562 1755
524 3568 2016
529 3573 2277
535 3579 2540
539 3584 2803
544 3589 3067
549 3594 3333
554 3598 3598
559 3604 3866
563 3608 4095
568 3613 4095
530 3836 300
537 3844 537
543 3850 784
549 3855 1034
555 3862 1289
560 3867 1545
566 3872 1803
570 3877 2062
576 3882 2324
580 3887 2585
584 3891 2848
589 3896 3112
592 3899 3376
596 3903 3641
599 3906 3906
603 3909 4095
606 3912 4095
574 4095 344
581 4095 581
586 4095 826
591 4095 1077
595 4095 1329
600 4095 1584
603 4095 1841
606 4095 2098
608 4095 2357
609 4095 2615
611 4095 2875
611 4095 3134
611 4095 3395
611 4095 3655
610 4095 3917
610 4095 4095
608 4095 4095
600 4095 371
602 4095 602
605 4095 845
605 4095 1091
605 4095 1339
606 4095 1591
605 4095 1843
605 4095 2097
604 4095 2352
603 4095 2609
601 4095 2865
599 4095 3123
599 4095 3382
597 4095 3642
596 4095 3903
594 4095 4095
592 4095 4095
147 40 40
171 42 106
192 42 192
212 42 300
230 39 427
247 36 574
261 31 740
274 25 925
285 17 1126
294 9 1344
301 0 1577
306 0 1824
310 0 2084
311 0 2355
312 0 2637
311 0 2927
309 0 3227
306 154 6
314 153 153
319 150 319
322 147 501
324 141 698
324 135 909
324 128 1132
322 120 1367
318 112 1612
313 102 1865
308 91 2126
301 80 2393
294 69 2665
285 58 2941
277 46 3219
268 34 3499
259 23 3778
314 314 0
309 309 89
303 303 303
296 296 528
289 289 762
281 281 1003
273 273 1249
264 264 1499
255 255 1751
246 246 2004
237 237 2257
228 228 2509
219 219 2760
210 210 3013
202 202 3266
193 193 3521
185 185 3775
240 485 0
234 479 0
226 471 226
219 464 464
211 456 704
204 449 947
196 441 1192
188 433 1439
180 425 1687
172 417 1936
163 408 2186
155 400 2437
146 391 2688
136 381 2939
127 372 3192
118 363 3445
109 354 3700
165 658 0
159 652 0
151 644 151
143 636 388
135 628 628
126 619 870
118 611 1114
109 602 1360
102 595 1609
94 587 1858
87 581 2110
80 573 2362
73 567 2615
67 560 2870
62 555 3127
59 552 3387
58 551 3649
87 831 0
82 826 0
77 821 77
71 815 316
67 811 560
65 809 809
64 808 1061
66 810 1317
68 812 1575
71 815 1836
74 818 2096
79 823 2361
84 828 2626
92 836 2895
100 844 3166
110 854 3438
122 865 3713
71 1068 0
78 1075 0
84 1081 84
93 1090 338
103 1099 596
113 1110 857
125 1122 1122
136 1133 1387
149 1145 1656
161 1157 1925
175 1172 2198
189 1186 2471
206 1203 2748
221 1218 3024
236 1233 3301
253 1250 3581
268 1265 3860
170 1421 0
186 1437 0
204 1455 204
220 1472 465
237 1488 730
254 1506 998
270 1521 1267
288 1539 1539
303 1555 1810
321 1572 2085
336 1587 2359
353 1604 2635
369 1620 2911
383 1634 3186
398 1649 3463
410 1661 3738
422 1674 4014
330 1837 0
349 1856 109
366 1873 366
381 1888 626
397 1904 891
410 1917 1154
424 1931 1421
435 1942 1686
447 1955 1955
458 1965 2222
469 1976 2492
479 1986 2761
488 1995 3031
497 2004 3301
505 2012 3570
513 2021 3842
520 2028 4095
463 2227 0
475 2239 234
486 2250 486
495 2260 740
504 2268 997
513 2278 1257
521 2286 1518
530 2295 1782
538 2302 2045
547 2311 2311
554 2318 2577
561 2325 2843
569 2334 3112
576 2340 3379
584 2348 3650
590 2355 3919
598 2363 4095
546 2569 77
556 2579 316
565 2588 565
573 2596 818
582 2605 1076
590 2612 1334
598 2621 1595
605 2628 1856
612 2635 2120
619 2642 2384
626 2649 2649
634 2657 2916
640 2663 3182
647 2670 3451
653 2676 3719
659 2683 3988
665 2689 4095
618 2900 148
628 2910 388
635 2918 635
644 2926 889
651 2933 1144
659 2941 1403
665 2947 1662
671 2954 1923
679 2961 2186
684 2967 2449
691 2974 2715
697 2979 2979
704 2986 3247
709 2991 3513
714 2997 3780
721 3003 4049
726 3008 4095
683 3226 213
691 3233 450
699 3241 699
705 3248 950
712 3255 1205
719 3261 1463
724 3267 1721
731 3274 1983
737 3279 2244
743 3286 2508
748 3291 2771
753 3296 3036
759 3302 3302
764 3307 3568
770 3313 3836
774 3317 4095
780 3323 4095
739 3543 269
747 3551 507
754 3558 754
759 3563 1005
766 3570 1260
772 3576 1516
778 3582 1775
783 3587 2034
789 3593 2296
793 3598 2558
798 3602 2821
804 3608 3086
808 3612 3351
813 3617 3617
817 3621 3883
822 3626 4095
826 3630 4095
788 3854 318
796 3862 556
802 3868 802
808 3874 1053
813 3879 1307
819 3885 1563
824 3890 1821
828 3894 2080
833 3899 2341
836 3903 2601
841 3907 2864
844 3910 3127
848 3914 3391
850 3917 3655
853 3919 3919
855 3921 4095
855 3922 4095
831 4095 360
836 4095 595
841 4095 841
845 4095 1090
848 4095 1342
852 4095 1596
853 4095 1850
855 4095 2106
855 4095 2363
856 4095 2621
855 4095 2879
855 4095 3138
855 4095 3398
853 4095 3658
853 4095 3919
851 4095 4095
849 4095 4095
845 4095 375
847 4095 606
848 4095 848
848 4095 1093
848 4095 1342
847 4095 1592
847 4095 1844
845 4095 2097
844 4095 2352
843 4095 2608
841 4095 2865
841 4095 3124
839 4095 3382
838 4095 3642
836 4095 3903
834 4095 4095
834 4095 4095
298 42 42
326 39 133
354 36 246
378 31 378
402 26 530
422 18 700
441 10 887
456 1 1090
471 0 1308
482 0 1540
493 0 1785
500 0 2042
506 0 2309
511 0 2586
514 0 2871
515 0 3162
514 0 3459
500 146 0
509 142 142
517 136 325
524 130 524
528 122 735
531 114 958
531 104 1192
531 94 1434
528 83 1684
525 73 1942
521 61 2203
516 50 2470
509 38 2738
503 27 3009
495 16 3279
487 5 3548
