3DLUTS/GC_VENOM_LUTS/Additional_Formats/3DL/GC_Venom_709/GC_Venom_Adara_709.3dl
# Converted by Briz LUT Converter
0 64 128 192 256 320 384 448 512 576 640 704 768 832 896 960 1023
0 0 0
0 0 0
0 0 0
0 0 0
0 0 0
4 4 9
15 18 77
25 30 169
32 40 291
36 47 440
39 53 618
39 56 824
37 56 1058
32 55 1321
25 51 1614
15 44 1946
2 33 2317
38 132 64
39 150 128
37 166 222
33 179 342
28 191 488
21 200 657
12 207 851
2 212 1067
0 215 1307
0 217 1569
0 216 1853
0 214 2160
0 209 2488
0 203 2839
0 195 3215
0 182 3636
0 166 4095
0 432 16
0 446 153
0 456 336
0 464 545
0 469 777
0 473 1028
0 474 1298
0 475 1584
0 473 1886
0 470 2205
0 466 2538
0 460 2886
0 453 3248
0 444 3625
0 434 4021
0 420 4095
0 402 4095
0 769 0
0 777 51
0 781 291
0 783 553
0 782 832
0 781 1124
0 778 1426
0 774 1738
0 769 2057
0 763 2384
0 756 2716
0 748 3056
0 739 3402
0 730 3757
0 719 4095
0 705 4095
0 688 4095
0 1086 0
0 1089 0
0 1087 215
0 1085 492
0 1081 781
0 1077 1077
0 1072 1379
0 1066 1689
0 1060 2004
0 1054 2327
0 1046 2656
0 1038 2994
0 1030 3340
0 1020 3696
0 1010 4068
0 995 4095
0 978 4095
0 1377 0
0 1379 0
0 1378 154
0 1375 430
0 1372 719
0 1367 1015
0 1362 1318
0 1357 1627
0 1351 1942
0 1344 2265
0 1337 2594
0 1329 2933
0 1321 3278
0 1311 3634
0 1300 4007
0 1286 4095
0 1269 4095
0 1668 0
0 1671 0
0 1669 91
0 1667 367
0 1663 656
0 1658 952
0 1653 1255
0 1648 1565
0 1642 1879
0 1635 2202
0 1628 2531
0 1620 2870
0 1612 3216
0 1602 3571
0 1591 3944
0 1577 4095
0 1560 4095
0 1960 0
0 1962 0
0 1961 26
0 1958 303
0 1955 592
0 1950 888
0 1945 1191
0 1940 1500
0 1934 1815
0 1927 2138
0 1920 2467
0 1912 2805
0 1904 3151
0 1894 3507
0 1883 3880
0 1869 4095
0 1852 4095
0 2253 0
0 2255 0
0 2254 0
0 2251 237
0 2247 526
0 2243 821
0 2238 1124
0 2232 1434
0 2226 1749
0 2220 2072
0 2213 2401
0 2205 2739
0 2196 3085
0 2187 3441
0 2176 3813
0 2162 4095
0 2144 4095
0 2546 0
0 2549 0
0 2547 0
0 2545 168
0 2541 457
0 2536 752
0 2531 1055
0 2526 1365
0 2520 1680
0 2513 2003
0 2506 2332
0 2498 2670
0 2490 3016
0 2480 3372
0 2469 3744
0 2455 4095
0 2438 4095
0 2841 0
0 2844 0
0 2842 0
0 2839 96
0 2836 385
0 2831 681
0 2826 983
0 2821 1293
0 2815 1608
0 2808 1931
0 2801 2260
0 2793 2598
0 2785 2944
0 2775 3300
0 2764 3672
0 2750 4086
0 2733 4095
0 3137 0
0 3140 0
0 3139 0
0 3136 20
0 3132 309
0 3128 605
0 3123 908
0 3117 1217
0 3111 1532
0 3105 1855
0 3097 2184
0 3090 2523
0 3081 2869
0 3072 3224
0 3061 3597
0 3046 4011
0 3029 4095
0 3436 0
0 3438 0
0 3437 0
0 3434 0
0 3430 229
0 3426 525
0 3421 828
0 3415 1137
0 3409 1452
0 3403 1775
0 3396 2104
0 3388 2443
0 3379 2789
0 3370 3144
0 3359 3517
0 3345 3931
0 3327 4095
0 3739 0
0 3742 0
0 3740 0
0 3738 0
0 3734 136
0 3729 432
0 3725 735
0 3719 1044
0 3713 1359
0 3706 1682
0 3699 2011
0 3691 2349
0 3683 2695
0 3673 3051
0 3662 3424
0 3648 3837
0 3631 4095
0 4051 0
0 4054 0
0 4053 0
0 4050 0
0 4046 21
0 4042 317
0 4037 620
0 4031 930
0 4025 1245
0 4019 1568
0 4011 1897
0 4004 2235
0 3995 2581
0 3985 2937
0 3975 3309
0 3960 3723
0 3943 4095
0 4095 0
0 4095 0
0 4095 0
0 4095 0
0 4095 0
0 4095 190
0 4095 493
0 4095 803
0 4095 1118
0 4095 1441
0 4095 1770
0 4095 2108
0 4095 2454
0 4095 2810
0 4095 3182
0 4095 3596
0 4095 4043
0 4095 0
0 4095 0
0 4095 0
0 4095 0
0 4095 0
0 4095 62
0 4095 365
0 4095 674
0 4095 989
0 4095 1312
0 4095 1641
0 4095 1980
0 4095 2325
0 4095 2681
0 4095 3054
0 4095 3467
0 4095 3915
0 0 0
0 0 0
12 7 13
40 19 54
67 29 116
93 37 202
118 43 313
141 46 450
162 48 612
180 47 802
197 44 1017
211 39 1260
223 33 1528
232 24 1823
239 13 2147
241 0 2512
240 0 2917
210 161 54
226 172 139
240 181 260
251 187 409
260 191 582
267 193 779
272 194 998
275 193 1238
277 190 1500
277 185 1783
274 179 2085
271 172 2409
265 163 2752
257 152 3115
248 139 3502
234 123 3934
217 103 4095
262 423 0
265 431 99
264 436 301
261 438 528
256 438 778
251 437 1044
244 435 1327
237 431 1626
228 426 1937
219 420 2262
209 413 2599
198 405 2950
187 395 3311
174 385 3684
161 373 4075
144 358 4095
125 340 4095
186 728 0
185 733 0
181 734 226
175 733 496
169 730 781
163 726 1077
156 722 1380
150 716 1691
144 710 2006
137 704 2329
130 697 2658
122 689 2996
114 680 3342
104 671 3698
93 660 4071
79 646 4095
62 628 4095
109 1027 0
111 1030 0
110 1028 156
107 1026 433
103 1022 722
99 1017 1017
94 1013 1320
88 1007 1630
83 1001 1945
76 994 2268
69 987 2597
61 979 2935
52 971 3281
43 961 3637
32 950 4009
18 936 4095
0 919 4095
47 1318 0
49 1320 0
48 1319 94
45 1316 371
42 1312 660
37 1308 956
32 1303 1259
27 1298 1568
21 1292 1883
14 1285 2206
7 1278 2535
0 1270 2873
0 1261 3219
0 1252 3575
0 1241 3948
0 1227 4095
0 1210 4095
0 1609 0
0 1612 0
0 1610 32
0 1607 308
0 1604 597
0 1599 893
0 1594 1196
0 1589 1505
0 1583 1820
0 1576 2143
0 1569 2472
0 1561 2811
0 1553 3157
0 1543 3512
0 1532 3885
0 1518 4095
0 1501 4095
0 1901 0
0 1903 0
0 1902 0
0 1899 244
0 1895 533
0 1891 829
0 1886 1131
0 1881 1441
0 1875 1756
0 1868 2079
0 1861 2408
0 1853 2746
0 1844 3092
0 1835 3448
0 1824 3820
0 1810 4095
0 1793 4095
0 2193 0
0 2196 0
0 2194 0
0 2192 178
0 2188 466
0 2184 762
0 2179 1065
0 2173 1375
0 2167 1689
0 2161 2013
0 2153 2342
0 2146 2680
0 2137 3026
0 2128 3382
0 2117 3754
0 2102 4095
0 2085 4095
0 2487 0
0 2489 0
0 2488 0
0 2485 109
0 2482 397
0 2477 693
0 2472 996
0 2467 1306
0 2461 1621
0 2454 1944
0 2447 2273
0 2439 2611
0 2431 2957
0 2421 3313
0 2410 3685
0 2396 4095
0 2379 4095
0 2782 0
0 2784 0
0 2783 0
0 2780 37
0 2777 326
0 2772 621
0 2767 924
0 2762 1234
0 2756 1549
0 2749 1872
0 2742 2201
0 2734 2539
0 2725 2885
0 2716 3241
0 2705 3613
0 2691 4027
0 2674 4095
0 3078 0
0 3081 0
0 3079 0
0 3077 0
0 3073 250
0 3069 546
0 3064 849
0 3058 1158
0 3052 1473
0 3045 1796
0 3038 2125
0 3030 2464
0 3022 2809
0 3012 3165
0 3002 3538
0 2987 3951
0 2970 4095
0 3376 0
0 3379 0
0 3378 0
0 3375 0
0 3371 170
0 3367 466
0 3362 769
0 3356 1078
0 3350 1393
0 3344 1716
0 3336 2045
0 3328 2384
0 3320 2730
0 3310 3085
0 3300 3458
0 3285 3871
0 3268 4095
0 3680 0
0 3683 0
0 3681 0
0 3678 0
0 3675 77
0 3670 372
0 3665 675
0 3660 985
0 3654 1300
0 3647 1623
0 3640 1952
0 3632 2290
0 3624 2636
0 3614 2992
0 3603 3364
0 3589 3778
0 3572 4095
0 3992 0
0 3995 0
0 3993 0
0 3991 0
0 3987 0
0 3983 258
0 3978 561
0 3972 871
0 3966 1185
0 3959 1508
0 3952 1837
0 3944 2176
0 3936 2522
0 3926 2877
0 3915 3250
0 3901 3664
0 3884 4095
0 4095 0
0 4095 0
0 4095 0
0 4095 0
0 4095 0
0 4095 131
0 4095 434
0 4095 744
0 4095 1059
0 4095 1381
0 4095 1711
0 4095 2049
0 4095 2395
0 4095 2751
0 4095 3123
0 4095 3537
0 4095 3984
0 4095 0
0 4095 0
0 4095 0
0 4095 0
0 4095 0
0 4095 3
0 4095 306
0 4095 615
0 4095 930
0 4095 1253
0 4095 1582
0 4095 1920
0 4095 2266
0 4095 2622
0 4095 2995
0 4095 3408
0 4095 3856
67 20 22
112 28 51
156 35 101
199 39 174
240 41 272
280 41 394
317 40 541
352 36 713
384 30 909
414 23 1131
441 14 1378
466 3 1650
487 0 1946
506 0 2267
521 0 2616
532 0 3007
538 0 3439
464 168 23
492 173 130
516 176 277
538 176 451
556 175 651
572 172 871
586 168 1113
598 162 1375
607 155 1655
615 146 1955
620 137 2273
623 126 2609
624 114 2962
622 100 3333
618 85 3727
610 67 4095
598 45 4095
613 404 0
624 409 43
630 410 262
633 408 506
635 406 770
635 402 1049
634 397 1342
631 391 1649
627 384 1965
622 376 2294
616 368 2632
608 359 2981
600 349 3337
591 338 3703
580 327 4083
565 312 4095
548 295 4095
596 692 0
599 695 0
597 694 176
594 692 451
591 688 740
586 684 1036
581 679 1338
576 673 1648
570 667 1963
563 661 2286
556 653 2615
548 645 2953
539 637 3299
530 627 3655
519 617 4027
505 602 4095
488 585 4095
535 984 0
537 986 0
536 985 113
533 982 389
529 979 678
525 974 974
520 969 1277
514 964 1587
508 958 1901
502 951 2224
495 944 2553
487 936 2892
478 927 3238
469 918 3593
458 907 3966
443 893 4095
426 876 4095
473 1275 0
475 1277 0
474 1276 51
471 1273 328
467 1269 617
463 1265 912
458 1260 1215
453 1254 1525
447 1248 1840
440 1242 2163
433 1235 2492
425 1227 2830
416 1218 3176
407 1209 3532
396 1198 3904
382 1184 4095
365 1166 4095
410 1566 0
413 1568 0
411 1567 0
408 1564 265
405 1560 554
400 1556 850
395 1551 1153
390 1546 1462
384 1540 1777
377 1533 2100
370 1526 2429
362 1518 2767
354 1509 3113
344 1500 3469
333 1489 3842
319 1475 4095
302 1458 4095
346 1858 0
348 1860 0
347 1859 0
344 1856 201
340 1852 489
336 1848 785
331 1843 1088
325 1837 1398
320 1831 1713
313 1825 2036
306 1818 2365
298 1810 2703
289 1801 3049
280 1792 3405
269 1781 3777
255 1767 4095
237 1749 4095
279 2150 0
282 2153 0
280 2151 0
278 2149 134
274 2145 423
270 2140 719
265 2135 1022
259 2130 1331
253 2124 1646
247 2117 1969
239 2110 2298
231 2102 2637
223 2094 2983
213 2084 3338
203 2073 3711
188 2059 4095
171 2042 4095
210 2444 0
213 2446 0
212 2445 0
209 2442 65
205 2438 354
201 2434 650
196 2429 953
190 2424 1263
184 2418 1577
178 2411 1900
170 2404 2229
163 2396 2568
154 2387 2914
145 2378 3269
134 2367 3642
119 2353 4056
102 2336 4095
139 2739 0
141 2741 0
140 2740 0
137 2737 0
133 2733 282
129 2729 578
124 2724 881
118 2718 1191
112 2713 1505
106 2706 1828
99 2699 2158
91 2691 2496
82 2682 2842
73 2673 3198
62 2662 3570
47 2648 3984
30 2630 4095
63 3035 0
65 3037 0
64 3036 0
61 3033 0
58 3030 207
53 3025 503
48 3020 806
43 3015 1115
37 3009 1430
30 3002 1753
23 2995 2082
15 2987 2420
6 2979 2766
0 2969 3122
0 2958 3494
0 2944 3908
0 2927 4095
0 3333 0
0 3336 0
0 3334 0
0 3331 0
0 3328 127
0 3323 423
0 3318 726
0 3313 1035
0 3307 1350
0 3300 1673
0 3293 2002
0 3285 2340
0 3277 2686
0 3267 3042
0 3256 3415
0 3242 3828
0 3225 4095
0 3637 0
0 3639 0
0 3638 0
0 3635 0
0 3631 33
0 3627 329
0 3622 632
0 3617 942
0 3611 1257
0 3604 1580
0 3597 1909
0 3589 2247
0 3580 2593
0 3571 2949
0 3560 3321
0 3546 3735
0 3529 4095
0 3949 0
0 3951 0
0 3950 0
0 3947 0
0 3944 0
0 3939 215
0 3934 518
0 3929 827
0 3923 1142
0 3916 1465
0 3909 1794
0 3901 2133
0 3892 2478
0 3883 2834
0 3872 3207
0 3858 3620
0 3841 4068
0 4095 0
0 4095 0
0 4095 0
0 4095 0
0 4095 0
0 4095 88
0 4095 391
0 4095 700
0 4095 1015
0 4095 1338
0 4095 1667
0 4095 2006
0 4095 2352
0 4095 2707
0 4095 3080
0 4095 3493
0 4095 3941
0 4095 0
0 4095 0
0 4095 0
0 4095 0
0 4095 0
0 4095 0
0 4095 262
0 4095 572
0 4095 887
0 4095 1210
0 4095 1539
0 4095 1877
0 4095 2223
0 4095 2579
0 4095 2951
0 4095 3365
0 4095 3812
281 33 41
342 35 91
400 34 171
455 31 275
508 27 405
558 21 559
605 13 738
649 4 941
690 0 1167
727 0 1416
762 0 1689
793 0 1985
821 0 2303
846 0 2644
867 0 3012
882 0 3424
892 0 3875
790 154 0
827 156 102
858 153 274
886 150 472
911 144 694
933 137 936
952 130 1197
968 121 1476
982 111 1771
994 100 2084
1003 88 2412
1009 75 2757
1013 61 3117
1014 47 3491
1013 31 3887
1007 11 4095
