3DLUTS/GC_VENOM_LUTS/Additional_Formats/3DL/GC_Venom_709/GC_Venom_Hadria_709.3dl
# Converted by Briz LUT Converter
0 256 512 768 1023
0 0 0
31 44 98
41 72 436
28 76 1050
10 74 1707
0 488 198
0 503 605
0 471 1652
0 429 2888
0 420 3801
0 1477 0
0 1537 417
0 1547 1685
0 1553 3035
0 1596 3927
0 2918 0
0 2990 445
0 3008 1722
0 3020 3077
0 3066 3973
0 4095 266
32 4095 844
39 4095 2110
37 4095 3451
64 4095 4095
212 109 149
267 128 384
280 112 1023
268 76 1847
260 50 2502
377 531 184
387 549 669
350 518 1872
309 480 3201
313 485 4064
244 1663 29
311 1730 610
325 1744 1882
333 1752 3234
378 1798 4095
286 3129 71
357 3201 656
373 3216 1930
383 3226 3284
428 3271 4095
661 4095 446
713 4095 1012
748 4095 2284
876 4095 3595
1136 4095 4095
867 68 142
935 55 443
959 5 1238
969 0 2203
1007 0 2973
1413 463 78
1444 491 618
1424 471 1857
1410 457 3186
1438 485 4064
1438 1733 98
1507 1802 681
1524 1819 1957
1536 1830 3312
1582 1877 4095
1488 3206 148
1557 3275 731
1571 3290 2004
1578 3296 3354
1618 3337 4095
1906 4095 645
2094 4095 1382
2295 4095 2622
2549 4095 3668
2876 4095 4095
1979 0 0
2114 0 322
2201 0 1287
2272 0 2442
2364 0 3305
2872 342 0
2924 394 521
2931 401 1787
2934 404 3133
2975 445 4024
2996 1714 80
3067 1785 665
3084 1802 1940
3096 1814 3296
3143 1861 4095
3039 3181 122
3104 3246 701
3114 3256 1969
3115 3257 3315
3149 3291 4095
3466 4095 1611
3593 4095 2402
3707 4076 3305
3830 4059 3874
3967 4070 4070
3155 0 0
3318 0 230
3426 0 1365
3496 0 2668
3559 0 3559
3980 401 15
4045 466 593
4058 479 1864
4066 487 3216
4095 531 4095
4095 1810 175
4095 1881 761
4095 1899 2037
4095 1910 3391
4095 1954 4095
4095 3253 195
4095 3312 767
4095 3311 2025
4095 3303 3360
4095 3337 4095
4059 4059 3163
4071 4071 3713
4093 4093 4075
4095 4095 4095
4095 4095 4095
