3DLUTS/GC_VENOM_LUTS/Additional_Formats/3DL/GC_Venom_709/GC_Venom_Hadria_709.3dl
# Converted by Briz LUT Converter
0 128 256 384 512 640 768 896 1023
0 0 0
17 22 34
31 44 98
39 61 228
41 72 436
37 76 713
28 76 1050
18 74 1401
10 74 1707
61 260 203
59 273 312
51 278 493
30 270 825
4 254 1242
0 235 1698
0 216 2160
0 201 2570
0 195 2880
0 488 198
0 499 350
0 503 605
0 491 1074
0 471 1652
0 449 2270
0 429 2888
0 418 3424
0 420 3801
0 899 0
0 919 200
0 929 522
0 920 1089
0 905 1755
0 890 2433
0 880 3074
0 883 3600
0 902 3945
0 1477 0
0 1512 72
0 1537 417
0 1546 1002
0 1547 1685
0 1549 2379
0 1553 3035
0 1567 3572
0 1596 3927
0 2190 0
0 2229 58
0 2258 406
0 2270 995
0 2275 1681
0 2278 2378
0 2285 3036
0 2302 3575
0 2332 3932
0 2918 0
0 2958 95
0 2990 445
0 3003 1035
0 3008 1722
0 3012 2419
0 3020 3077
0 3036 3617
0 3066 3973
0 3614 0
0 3653 230
0 3684 579
0 3695 1167
0 3699 1853
0 3702 2549
0 3707 3205
0 3722 3742
0 3748 4095
0 4095 266
4 4095 498
32 4095 844
40 4095 1429
39 4095 2110
37 4095 2800
37 4095 3451
44 4095 3982
64 4095 4095
79 62 80
104 81 143
126 95 253
138 101 464
144 100 765
143 92 1121
137 81 1508
132 71 1880
130 65 2179
205 279 210
207 284 330
203 284 530
186 270 899
163 250 1360
136 227 1861
111 205 2373
91 189 2832
81 182 3172
177 505 185
177 514 351
170 517 628
148 505 1138
119 485 1764
89 463 2424
62 444 3070
46 434 3615
47 439 3982
4 936 14
24 956 229
35 968 559
30 963 1131
22 954 1804
14 947 2489
11 943 3137
20 952 3669
45 977 4020
0 1560 0
0 1597 158
0 1625 505
0 1635 1091
0 1638 1776
0 1640 2471
1 1645 3127
15 1660 3664
44 1689 4020
0 2285 0
0 2324 153
0 2355 503
0 2367 1092
0 2372 1779
1 2376 2476
8 2384 3134
23 2399 3672
54 2430 4030
0 3017 0
0 3057 194
21 3089 544
33 3101 1134
38 3106 1821
42 3110 2517
49 3117 3175
64 3132 3713
94 3162 4070
81 3710 91
120 3749 325
150 3778 674
161 3789 1261
164 3792 1946
165 3793 2640
169 3797 3295
182 3811 3831
209 3838 4095
343 4095 353
377 4095 582
402 4095 926
408 4095 1508
404 4095 2186
397 4095 2872
403 4095 3520
446 4095 4040
529 4095 4095
212 109 149
243 122 236
267 128 384
277 124 659
280 112 1023
276 95 1431
268 76 1847
261 60 2219
260 50 2502
351 290 212
357 293 344
357 291 565
344 275 976
324 253 1492
302 228 2048
280 204 2607
264 185 3099
259 178 3455
377 531 184
386 544 368
387 549 669
372 537 1213
350 518 1872
328 498 2554
309 480 3201
303 474 3727
313 485 4064
284 991 69
310 1017 290
330 1037 629
332 1039 1207
329 1036 1886
328 1035 2578
329 1037 3230
342 1049 3766
369 1076 4095
244 1663 29
281 1701 262
311 1730 610
321 1741 1197
325 1744 1882
327 1747 2578
333 1752 3234
348 1768 3773
378 1798 4095
244 2395 30
284 2435 265
316 2466 614
328 2479 1204
333 2483 1890
336 2487 2586
344 2495 3245
361 2511 3785
391 2542 4095
286 3129 71
326 3169 306
357 3201 656
370 3213 1245
373 3216 1930
376 3220 2627
383 3226 3284
398 3242 3823
428 3271 4095
414 3817 199
452 3855 432
480 3884 779
489 3893 1365
491 3895 2049
492 3895 2742
495 3899 3397
507 3911 3932
532 3936 4095
661 4095 446
693 4095 673
713 4095 1012
722 4095 1595
748 4095 2284
798 4095 2971
876 4095 3595
988 4095 4073
1136 4095 4095
447 120 180
483 125 283
509 123 456
518 109 775
518 88 1177
514 63 1616
508 38 2063
506 17 2461
511 4 2759
628 270 184
646 273 330
655 270 575
650 251 1029
637 225 1591
620 196 2192
605 169 2790
598 150 3314
604 145 3693
750 529 158
769 544 357
779 551 676
769 539 1241
753 522 1908
736 505 2584
724 493 3223
723 492 3745
740 509 4088
725 1030 108
757 1062 335
782 1087 679
790 1095 1263
790 1095 1945
791 1096 2639
796 1100 3294
809 1114 3831
837 1142 4095
714 1731 97
753 1770 330
783 1800 679
793 1810 1266
797 1814 1952
801 1818 2648
807 1824 3306
824 1841 3845
854 1871 4095
721 2469 104
761 2509 339
791 2539 688
804 2552 1277
809 2557 1964
814 2562 2661
821 2569 3320
838 2586 3859
868 2617 4095
762 3203 145
801 3242 379
831 3272 728
843 3284 1316
847 3288 2002
850 3291 2698
856 3297 3354
871 3311 3892
899 3340 4095
882 3883 265
919 3920 497
947 3948 843
956 3957 1429
956 3957 2111
955 3956 2802
956 3956 3454
965 3966 3987
987 3988 4095
1113 4095 497
1168 4095 751
1235 4095 1134
1303 4095 1747
1387 4095 2430
1491 4095 3080
1618 4095 3642
1772 4095 4050
1953 4095 4095
867 68 142
905 65 254
935 55 443
951 34 796
959 5 1238
964 0 1717
969 0 2203
983 0 2642
1007 0 2973
1166 191 95
1199 192 254
1222 185 520
1228 162 1010
1228 133 1616
1227 103 2263
1225 75 2898
1229 57 3438
1246 54 3811
1413 463 78
1434 481 289
1444 491 618
1437 484 1188
1424 471 1857
1414 461 2539
1410 457 3186
1416 463 3715
1438 485 4064
1436 1018 96
1470 1053 326
1498 1081 672
1508 1090 1258
1510 1092 1942
1512 1094 2637
1517 1099 3293
1532 1114 3831
1561 1143 4095
1438 1733 98
1477 1771 332
1507 1802 681
1520 1814 1270
1524 1819 1957
1528 1823 2654
1536 1830 3312
1552 1847 3851
1582 1877 4095
1448 2474 109
1489 2515 344
1520 2546 694
1533 2559 1284
1538 2564 1971
1542 2568 2668
1550 2575 3326
1566 2592 3865
1595 2620 4095
1488 3206 148
1527 3245 382
1557 3275 731
1568 3286 1318
1571 3290 2004
1573 3292 2698
1578 3296 3354
1591 3309 3890
1618 3337 4095
1601 3879 261
1636 3915 492
1662 3940 836
1668 3946 1418
1666 3945 2099
1662 3940 2787
1659 3937 3435
1669 3941 3962
1709 3956 4095
1906 4095 645
1997 4095 960
2094 4095 1382
2189 4095 1987
2295 4095 2622
2413 4095 3196
2549 4095 3668
2703 4095 3991
2876 4095 4095
1386 0 63
1434 0 183
1475 0 390
1503 0 778
1529 0 1267
1554 0 1800
1577 0 2336
1606 0 2809
1645 0 3157
1840 82 0
1889 82 150
1930 76 438
1950 52 966
1958 22 1609
1962 0 2283
1963 0 2932
1967 0 3465
1981 0 3810
2141 391 5
2163 413 222
2180 430 558
2181 432 1135
2175 426 1812
2171 422 2500
2173 423 3153
2184 435 3688
2210 461 4040
2210 997 75
2248 1034 307
2276 1063 654
2287 1073 1242
2290 1077 1927
2293 1079 2622
2299 1085 3279
2313 1099 3816
2343 1129 4095
2222 1720 86
2262 1760 321
2293 1791 671
2306 1804 1260
2311 1809 1947
2315 1814 2644
2321 1819 3301
2338 1836 3841
2369 1867 4095
2236 2465 100
2276 2506 335
2307 2537 685
2320 2549 1274
2324 2554 1961
2327 2557 2656
2333 2563 3313
2349 2579 3852
2379 2609 4095
2270 3193 135
2309 3231 368
2338 3260 716
2348 3271 1303
2350 3272 1986
2351 3273 2680
2354 3277 3334
2367 3289 3870
2393 3316 4095
2371 3853 235
2404 3886 463
2427 3910 805
2430 3912 1384
2425 3905 2063
2430 3894 2755
2448 3882 3397
2485 3878 3898
2546 3886 4095
2757 4095 1015
2849 4095 1374
2942 4095 1809
3031 4095 2369
3122 4095 2917
3226 4095 3388
3338 4095 3747
3451 4087 3974
3567 4081 4081
1979 0 0
2049 0 94
2114 0 322
2162 0 751
2201 0 1287
2238 0 1866
2272 0 2442
2310 0 2941
2364 0 3305
2598 0 0
2653 0 44
2695 0 353
2712 0 908
2712 0 1572
2701 0 2250
2688 0 2888
2685 0 3407
2697 0 3747
2872 342 0
2901 371 180
2924 394 521
2930 401 1105
2931 401 1787
2930 400 2479
2934 404 3133
2947 418 3670
2975 445 4024
2977 983 61
3016 1022 294
3045 1051 643
3057 1063 1231
3060 1066 1916
3063 1069 2611
3069 1075 3269
3085 1091 3808
3116 1122 4095
2996 1714 80
3036 1754 315
3067 1785 665
3079 1797 1253
3084 1802 1940
3088 1806 2637
3096 1814 3296
3112 1831 3835
3143 1861 4095
3010 2459 94
3050 2499 328
3080 2530 678
3091 2540 1265
3095 2545 1951
3099 2548 2647
3105 2554 3304
3120 2569 3842
3149 2598 4095
3039 3181 122
3076 3218 355
3104 3246 701
3112 3254 1286
3114 3256 1969
3113 3255 2662
3115 3257 3315
3125 3267 3848
3149 3291 4095
3121 3823 205
3150 3851 433
3173 3867 800
3181 3862 1412
3186 3847 2109
3196 3833 2787
3216 3822 3388
3250 3821 3838
3301 3833 4095
3466 4095 1611
3529 4095 1982
3593 4095 2402
3651 4094 2881
3707 4076 3305
3765 4064 3637
3830 4059 3874
3899 4062 4011
3967 4070 4070
2611 0 0
2694 0 8
2770 0 258
2826 0 727
2868 0 1307
2913 0 1929
2960 0 2548
3006 0 3077
3060 0 3445
3291 0 0
3330 0 0
3350 0 300
3343 0 869
3328 0 1536
3314 0 2215
3307 0 2858
3312 0 3387
3332 0 3733
3516 339 0
3552 375 183
3579 401 528
3588 410 1114
3589 412 1797
3591 413 2491
3595 418 3147
3610 432 3685
3639 461 4040
3642 1000 78
3682 1040 312
3711 1069 660
3722 1081 1249
3727 1085 1935
3731 1089 2632
3738 1096 3290
3755 1113 3829
3785 1143 4095
3666 1736 102
3706 1776 337
3736 1806 686
3749 1819 1275
3754 1825 1962
3759 1829 2659
3766 1836 3318
3782 1852 3857
3813 1883 4095
3677 2479 113
3716 2518 347
3747 2548 696
3758 2559 1284
3762 2563 1970
3764 2566 2665
3769 2571 3321
3783 2585 3858
3811 2612 4095
3698 3192 134
3735 3229 366
3762 3256 711
3769 3263 1295
3767 3261 1975
3765 3259 2665
3764 3258 3315
3770 3264 3845
3789 3284 4095
3750 3802 292
3772 3823 593
3784 3834 1013
3781 3828 1639
3773 3817 2309
3768 3809 2931
3770 3808 3457
3783 3817 3830
3807 3838 4034
3898 4069 2380
3925 4068 2727
3949 4065 3069
3972 4061 3422
3997 4060 3713
4026 4066 3915
4057 4077 4035
4091 4094 4092
4095 4095 4095
3155 0 0
3239 0 0
3318 0 230
3379 0 739
3426 0 1365
3463 0 2024
3496 0 2668
3527 0 3205
3559 0 3559
3736 0 0
3755 0 0
3769 0 317
3767 0 891
3760 0 1567
3753 0 2253
3752 0 2902
3763 0 3436
3789 0 3789
3980 401 15
4016 437 246
4045 466 593
4055 476 1180
4058 479 1864
4060 481 2560
4066 487 3216
4081 502 3755
4095 531 4095
4095 1071 149
4095 1111 383
4095 1142 733
4095 1154 1322
4095 1159 2009
4095 1163 2706
4095 1171 3364
4095 1187 3903
4095 1217 4095
4095 1810 175
4095 1850 411
4095 1881 761
4095 1894 1350
4095 1899 2037
4095 1903 2733
4095 1910 3391
4095 1924 3929
4095 1954 4095
4095 2550 184
4095 2589 418
4095 2618 766
4095 2629 1353
4095 2631 2038
4095 2633 2732
4095 2637 3387
4095 2649 3922
4095 2676 4095
4095 3253 195
4095 3287 424
4095 3312 767
4095 3316 1348
4095 3311 2025
4095 3305 2712
4095 3303 3360
4095 3312 3875
4095 3337 4095
4095 3820 678
4095 3838 1032
4095 3850 1476
4093 3849 2072
4068 3847 2671
4047 3849 3192
4032 3860 3610
4027 3880 3889
4029 3907 4029
4059 4059 3163
4064 4064 3454
4071 4071 3713
4080 4080 3932
4093 4093 4075
4095 4095 4095
4095 4095 4095
4095 4095 4095
4095 4095 4095
