3DLUTS/GC_VENOM_LUTS/Additional_Formats/3DL/GC_Venom_709/GC_Venom_Sakata_709.3dl
# Converted by Briz LUT Converter
0 128 256 384 512 640 768 896 1023
0 0 0
17 17 46
31 31 168
39 39 375
41 41 668
37 37 1042
27 27 1489
12 12 2003
0 0 2573
0 323 0
0 325 325
0 320 744
0 310 1207
0 297 1703
0 280 2222
0 262 2754
0 243 3288
0 224 3813
0 696 0
0 683 190
0 668 668
0 653 1156
0 636 1649
0 618 2147
0 600 2649
0 583 3155
0 568 3666
0 1052 0
0 1052 55
0 1057 554
0 1064 1064
0 1075 1585
0 1092 2118
0 1113 2659
0 1136 3205
0 1162 3757
0 1730 0
0 1766 259
0 1801 787
0 1835 1324
0 1868 1868
0 1897 2413
0 1923 2958
0 1945 3504
0 1965 4050
20 2511 20
40 2532 509
57 2549 1020
74 2566 1540
90 2582 2067
105 2597 2597
120 2612 3132
132 2625 3668
146 2638 4095
165 3177 165
181 3194 651
196 3209 1159
210 3222 1677
223 3235 2200
234 3246 2727
246 3258 3258
257 3270 3793
268 3280 4095
279 3815 279
293 3829 763
305 3841 1268
315 3851 1782
325 3862 2303
335 3871 2828
344 3881 3358
353 3889 3889
360 3896 4095
360 4095 360
367 4095 837
369 4095 1333
371 4095 1839
371 4095 2349
369 4095 2863
367 4095 3380
363 4095 3900
360 4095 4095
147 40 40
192 42 192
230 39 427
261 31 740
285 17 1126
301 0 1577
310 0 2084
312 0 2637
309 0 3227
314 314 0
303 303 303
289 289 762
273 273 1249
255 255 1751
237 237 2257
219 219 2760
202 202 3266
185 185 3775
165 658 0
151 644 151
135 628 628
118 611 1114
102 595 1609
87 581 2110
73 567 2615
62 555 3127
58 551 3649
71 1068 0
84 1081 84
103 1099 596
125 1122 1122
149 1145 1656
175 1172 2198
206 1203 2748
236 1233 3301
268 1265 3860
330 1837 0
366 1873 366
397 1904 891
424 1931 1421
447 1955 1955
469 1976 2492
488 1995 3031
505 2012 3570
520 2028 4095
546 2569 77
565 2588 565
582 2605 1076
598 2621 1595
612 2635 2120
626 2649 2649
640 2663 3182
653 2676 3719
665 2689 4095
683 3226 213
699 3241 699
712 3255 1205
724 3267 1721
737 3279 2244
748 3291 2771
759 3302 3302
770 3313 3836
780 3323 4095
788 3854 318
802 3868 802
813 3879 1307
824 3890 1821
833 3899 2341
841 3907 2864
848 3914 3391
853 3919 3919
855 3922 4095
845 4095 375
848 4095 848
848 4095 1342
847 4095 1844
844 4095 2352
841 4095 2865
839 4095 3382
836 4095 3903
834 4095 4095
495 31 31
558 19 284
612 2 612
656 0 1005
689 0 1455
714 0 1953
731 0 2487
739 0 3049
739 0 3628
755 273 0
747 258 258
734 241 734
717 224 1221
701 208 1715
685 192 2214
668 175 2717
651 158 3223
633 140 3731
611 611 0
598 598 105
585 585 585
572 572 1076
561 561 1575
557 557 2086
560 560 2609
566 566 3138
575 575 3673
616 1119 0
642 1146 149
670 1174 670
702 1205 1205
733 1237 1747
766 1269 2295
798 1302 2847
831 1334 3403
863 1366 3961
915 1928 0
941 1955 448
965 1979 965
986 2000 1489
1002 2016 2016
1019 2033 2549
1035 2049 3084
1051 2064 3623
1065 2079 4095
1089 2619 127
1107 2637 614
1122 2651 1122
1137 2667 1641
1151 2681 2165
1164 2694 2694
1177 2707 3227
1190 2719 3762
1202 2731 4095
1216 3265 253
1231 3281 738
1244 3294 1244
1257 3306 1760
1268 3317 2282
1279 3328 2808
1289 3338 3338
1298 3347 3870
1307 3356 4095
1315 3888 352
1328 3900 834
1337 3910 1337
1346 3918 1849
1351 3924 2366
1355 3928 2885
1356 3929 3406
1356 3929 3929
1355 3928 4095
1339 4095 375
1340 4095 846
1339 4095 1339
1337 4095 1841
1335 4095 2350
1334 4095 2864
1335 4095 3385
1336 4095 3909
1337 4095 4095
1000 0 0
1066 0 316
1121 0 714
1163 0 1163
1193 0 1650
1212 0 2167
1222 0 2703
1223 0 3248
1217 0 3792
1218 222 0
1205 209 209
1190 194 687
1175 179 1175
1159 163 1669
1142 145 2168
1124 127 2669
1105 109 3174
1088 92 3683
1073 570 0
1065 561 68
1062 559 559
1066 563 1066
1072 569 1583
1082 579 2108
1099 595 2644
1120 616 3188
1142 639 3737
1200 1200 0
1236 1236 239
1269 1269 765
1302 1302 1302
1336 1336 1846
1368 1368 2394
1398 1398 2944
1423 1423 3492
1446 1446 4041
1485 1996 19
1505 2015 508
1523 2033 1019
1540 2051 1540
1557 2067 2067
1572 2082 2598
1587 2098 3133
1602 2112 3670
1615 2125 4095
1636 2662 170
1653 2680 656
1668 2695 1165
1683 2709 1683
1696 2722 2206
1709 2735 2735
1720 2746 3266
1731 2757 3800
1742 2768 4095
1756 3302 289
1771 3316 774
1783 3329 1279
1795 3340 1795
1804 3350 2315
1814 3360 2840
1824 3369 3369
1833 3379 3902
1841 3387 4095
1846 3915 378
1855 3924 858
1860 3929 1356
1862 3931 1862
1863 3932 2374
1863 3932 2889
1861 3930 3407
1858 3928 3928
1854 3924 4095
1838 4095 370
1839 4095 841
1839 4095 1336
1841 4095 1841
1843 4095 2354
1845 4095 2871
1858 4095 3395
1885 4095 3917
1927 4095 4095
1592 0 0
1646 0 298
1685 0 743
1711 0 1223
1724 0 1724
1726 0 2238
1718 0 2752
1700 0 3259
1683 0 3767
1681 175 0
1668 162 162
1653 146 639
1636 129 1126
1619 112 1619
1602 95 2118
1587 81 2623
1573 66 3132
1561 54 3645
1571 557 0
1581 567 74
1592 578 578
1609 595 1099
1631 617 1631
1654 640 2169
1680 666 2715
1710 696 3268
1741 727 3825
1806 1296 0
1842 1332 335
1877 1366 863
1908 1397 1397
1934 1424 1934
1957 1447 2473
1980 1469 3015
1999 1489 3557
2014 1504 4095
2045 2045 68
2064 2064 557
2081 2081 1067
2098 2098 1587
2113 2113 2113
2128 2128 2643
2140 2140 3175
2154 2154 3712
2167 2167 4095
2188 2703 211
2204 2720 696
2218 2734 1204
2231 2747 1721
2243 2758 2243
2254 2770 2770
2266 2781 3301
2277 2792 3835
2287 2802 4095
2300 3335 322
2313 3348 805
2324 3359 1310
2335 3370 1824
2345 3380 2345
2354 3389 2869
2361 3397 3397
2368 3404 3927
2373 3408 4095
2368 3927 390
2372 3931 864
2373 3932 1359
2373 3931 1862
2371 3930 2371
2368 3927 2884
2365 3924 3401
2362 3921 3921
2359 3918 4095
2347 4095 368
2352 4095 844
2355 4095 1341
2366 4095 1858
2387 4095 2387
2419 4095 2917
2460 4095 3432
2508 4095 3921
2566 4095 4095
2197 0 0
2225 0 249
2236 0 720
2233 0 1209
2218 0 1702
2201 0 2201
2184 0 2704
2168 0 3210
2151 0 3719
2146 124 0
2132 110 110
2117 95 588
2104 81 1078
2090 68 1575
2079 56 2079
2074 52 2594
2076 54 3119
2082 59 3650
2117 588 0
2142 613 119
2167 637 637
2193 664 1168
2224 695 1709
2257 727 2257
2287 758 2807
2320 790 3362
2352 823 3921
2416 1390 0
2445 1419 423
2470 1445 941
2494 1468 1468
2514 1489 1999
2531 1505 2531
2547 1521 3067
2563 1537 3606
2578 1552 4095
2606 2091 114
2625 2109 602
2641 2125 1111
2655 2140 1629
2669 2154 2154
2683 2168 2683
2696 2181 3216
2709 2193 3752
2721 2206 4095
2740 2740 248
2755 2755 732
2768 2768 1238
2780 2780 1754
2792 2792 2277
2803 2803 2803
2814 2814 3334
2824 2824 3867
2832 2832 4095
2844 3363 350
2857 3376 833
2867 3387 1338
2876 3396 1850
2884 3404 2369
2891 3410 2891
2894 3414 3414
2894 3414 3937
2894 3414 4095
2883 3926 389
2884 3927 860
2883 3926 1353
2881 3924 1855
2879 3922 2363
2876 3919 2876
2875 3918 3395
2875 3918 3918
2876 3919 4095
2873 4095 388
2890 4095 897
2914 4095 1435
2943 4095 1977
2974 4095 2506
3013 4095 3013
3060 4095 3488
3114 4095 3918
3177 4095 4095
2746 0 0
2735 0 193
2720 0 671
2704 0 1159
2688 0 1653
2672 0 2152
2654 0 2654
2636 0 3159
2618 0 3667
2617 75 0
2607 65 65
2597 55 548
2593 51 1048
2596 54 1561
2602 59 2082
2610 68 2610
2626 84 3149
2647 105 3696
2705 656 0
2738 689 196
2772 723 723
2805 756 1259
2837 788 1802
2870 821 2351
2903 854 2903
2933 884 3456
2958 909 4007
3006 1460 0
3029 1484 487
3048 1502 999
3065 1519 1519
3081 1536 2046
3097 1552 2578
3113 1567 3113
3127 1582 3651
3142 1596 4095
3168 2133 156
3185 2149 642
3200 2165 1151
3214 2179 1669
3228 2193 2193
3241 2206 2721
3253 2218 3253
3265 2230 3788
3275 2240 4095
3293 2773 280
3308 2788 765
3320 2801 1271
3332 2812 1786
3343 2823 2308
3353 2833 2833
3362 2843 3362
3371 2852 3894
3380 2860 4095
3389 3389 376
3400 3400 857
3408 3408 1359
3413 3413 1867
3414 3414 2379
3415 3415 2895
3414 3414 3414
3412 3412 3936
3409 3409 4095
3395 3918 381
3395 3918 851
3394 3917 1345
3394 3917 1848
3395 3918 2359
3397 3920 2877
3398 3922 3398
3402 3922 3922
3409 3924 4095
3426 4095 569
3443 4095 1119
3462 4095 1670
3486 4095 2205
3514 4095 2710
3546 4095 3173
3586 4095 3586
3634 4095 3937
3691 4095 4095
3221 0 0
3208 0 143
3193 0 621
3177 0 1108
3159 0 1601
3142 0 2099
3125 0 2602
3110 0 3110
3095 0 3621
3109 44 0
3115 49 49
3121 56 549
3131 66 1063
3147 82 1589
3169 103 2126
3191 126 2668
3217 151 3217
3246 181 3773
3319 747 0
3355 783 290
3389 817 817
3422 850 1354
3453 881 1895
3480 907 2437
3503 930 2980
3525 953 3525
3544 972 4070
3579 1511 45
3599 1530 534
3617 1548 1044
3633 1564 1564
3649 1580 2091
3664 1595 2621
3678 1610 3155
3691 1623 3691
3704 1635 4095
3729 2171 194
3746 2187 680
3760 2202 1188
3774 2215 1705
3787 2228 2228
3798 2239 2755
3809 2251 3286
3820 2262 3820
3831 2272 4095
3847 2804 311
3861 2818 795
3873 2830 1300
3884 2841 1815
3893 2850 2335
3903 2860 2860
3912 2869 3388
3919 2876 3919
3926 2883 4095
3929 3406 392
3933 3409 866
3935 3412 1362
3936 3413 1867
3935 3412 2376
3933 3409 2890
3930 3407 3407
3927 3404 3927
3923 3400 4095
3910 3910 372
3913 3913 847
3917 3917 1344
3920 3920 1851
3922 3922 2371
3924 3924 2897
3926 3926 3421
3927 3927 3927
3924 3924 4095
3914 4095 948
3916 4095 1516
3918 4095 2059
3924 4095 2566
3936 4095 3025
3952 4095 3424
3975 4095 3754
4005 4095 4005
4043 4095 4095
3696 0 0
3681 0 90
3665 0 567
3649 0 1055
3635 0 1551
3622 0 2053
3610 0 2560
3604 0 3078
3606 0 3606
3648 57 0
3667 76 76
3690 99 592
3714 122 1119
3740 148 1655
3770 179 2201
3802 211 2753
3833 242 3307
3865 273 3865
3938 840 0
3973 874 381
4001 902 902
4025 927 1430
4048 950 1964
4069 970 2500
4086 987 3036
4095 1002 3575
4095 1018 4095
4095 1555 89
4095 1574 577
4095 1591 1087
4095 1606 1606
4095 1621 2131
4095 1634 2660
4095 1647 3193
4095 1660 3729
4095 1673 4095
4095 2207 230
4095 2222 715
4095 2236 1222
4095 2248 1738
4095 2260 2260
4095 2271 2787
4095 2282 3317
4095 2292 3851
4095 2302 4095
4095 2833 339
4095 2844 821
4095 2856 1326
4095 2866 1840
4095 2874 2359
4095 2882 2882
4095 2888 3408
4095 2892 3935
4095 2892 4095
4095 3405 391
4095 3407 863
4095 3406 1356
4095 3404 1859
4095 3403 2367
4095 3399 2880
4095 3397 3397
4095 3395 3918
4095 3395 4095
4095 3912 374
4095 3917 863
4095 3920 1385
4095 3924 1923
4095 3926 2457
4095 3924 2974
4095 3921 3465
4095 3920 3920
4095 3919 4095
4095 4095 1551
4095 4095 2112
4095 4095 2626
4095 4095 3082
4095 4095 3469
4095 4095 3777
4095 4095 4000
4095 4095 4095
4095 4095 4095
