3DLUTS/GC_VENOM_LUTS/Additional_Formats/3DL/GC_Venom_709/GC_Venom_Damyan_709.3dl
# Converted by Briz LUT Converter
0 64 128 192 256 320 384 448 512 576 640 704 768 832 896 960 1023
25 756 858
28 762 954
31 767 1060
34 772 1179
36 775 1318
37 776 1479
37 777 1654
36 775 1839
34 774 2035
31 771 2239
28 768 2450
24 764 2668
20 759 2891
16 755 3116
11 751 3342
7 747 3567
3 742 3784
45 919 888
51 924 984
55 929 1089
59 933 1208
62 936 1344
63 937 1505
62 936 1679
61 935 1865
58 932 2059
55 929 2263
52 926 2474
48 922 2692
44 918 2915
39 913 3140
35 909 3366
31 905 3591
27 901 3808
64 1079 907
70 1084 1003
75 1089 1109
79 1093 1227
81 1096 1364
82 1096 1524
82 1096 1699
80 1095 1884
78 1093 2079
76 1091 2284
73 1088 2495
70 1085 2714
66 1081 2937
63 1077 3163
59 1073 3389
55 1070 3616
52 1067 3833
75 1245 918
82 1251 1015
87 1256 1121
92 1261 1240
95 1264 1377
96 1266 1539
97 1266 1714
97 1266 1901
96 1265 2097
94 1264 2302
93 1263 2516
91 1260 2735
89 1258 2959
86 1255 3187
84 1254 3415
82 1252 3643
81 1251 3862
76 1427 919
83 1434 1016
90 1441 1124
96 1447 1244
101 1452 1384
104 1455 1546
107 1458 1724
109 1459 1912
109 1460 2110
110 1461 2318
110 1460 2532
110 1461 2754
110 1460 2980
110 1460 3210
109 1460 3440
109 1459 3669
110 1460 3891
74 1632 917
84 1642 1017
92 1650 1126
101 1659 1249
107 1665 1390
112 1670 1554
116 1674 1733
119 1677 1923
122 1680 2122
123 1681 2331
125 1683 2547
125 1683 2769
126 1684 2997
126 1684 3226
126 1684 3456
126 1684 3687
127 1685 3908
82 1857 925
92 1867 1025
102 1877 1136
110 1885 1258
117 1892 1399
123 1898 1565
127 1902 1744
131 1906 1934
133 1908 2133
136 1911 2343
137 1912 2559
138 1913 2782
139 1914 3009
140 1915 3240
140 1915 3471
140 1915 3701
142 1917 3923
88 2088 931
99 2099 1032
109 2109 1142
118 2118 1266
125 2126 1407
131 2131 1573
136 2136 1753
139 2140 1943
143 2143 2143
145 2145 2353
147 2148 2570
148 2149 2792
150 2150 3020
151 2151 3251
151 2152 3482
153 2153 3713
154 2154 3935
94 2326 936
104 2337 1037
115 2348 1149
124 2356 1272
131 2364 1413
138 2370 1580
142 2375 1759
147 2380 1951
150 2383 2151
153 2386 2361
155 2388 2578
157 2390 2801
158 2391 3029
159 2392 3260
161 2394 3491
162 2394 3722
164 2397 3945
98 2568 941
110 2579 1043
120 2589 1154
129 2599 1277
137 2607 1420
143 2613 1586
149 2619 1766
153 2623 1957
157 2627 2158
160 2630 2368
162 2632 2585
164 2634 2808
166 2635 3036
167 2637 3268
168 2638 3499
170 2640 3731
172 2642 3953
104 2813 947
115 2824 1048
126 2835 1160
136 2844 1284
143 2852 1426
150 2859 1593
155 2864 1773
160 2869 1964
164 2873 2164
167 2876 2375
170 2879 2592
171 2880 2815
174 2882 3044
175 2884 3275
177 2886 3507
178 2887 3738
180 2889 3961
110 3059 953
122 3071 1055
133 3082 1167
142 3091 1291
151 3100 1434
157 3106 1600
163 3112 1781
168 3116 1971
172 3121 2173
175 3123 2382
177 3126 2599
180 3128 2824
181 3130 3052
183 3132 3284
184 3133 3515
186 3135 3747
188 3137 3969
118 3306 961
130 3318 1063
140 3329 1174
151 3339 1299
159 3347 1441
166 3354 1608
171 3359 1788
176 3364 1980
180 3368 2180
182 3371 2390
186 3374 2608
187 3375 2831
190 3378 3060
191 3379 3291
193 3381 3523
194 3382 3754
196 3384 3977
130 3553 973
141 3564 1074
152 3576 1186
162 3585 1310
170 3594 1453
177 3600 1619
182 3606 1799
187 3610 1990
191 3614 2191
194 3617 2401
196 3619 2618
198 3622 2842
199 3623 3070
201 3625 3302
202 3626 3533
204 3627 3765
206 3629 3987
143 3797 986
155 3809 1088
165 3819 1199
175 3830 1324
183 3838 1466
190 3844 1632
195 3849 1812
199 3854 2003
203 3857 2204
206 3860 2413
209 3863 2631
210 3864 2854
212 3866 3083
213 3867 3313
214 3868 3545
215 3869 3775
216 3871 3997
172 4035 1014
182 4045 1115
193 4057 1227
203 4066 1351
211 4074 1493
217 4080 1659
222 4085 1839
226 4089 2030
229 4092 2230
232 4095 2440
234 4095 2657
236 4095 2880
237 4095 3108
238 4095 3339
239 4095 3569
239 4095 3800
241 4095 4022
214 4095 1057
226 4095 1158
235 4095 1269
245 4095 1393
253 4095 1535
258 4095 1700
263 4095 1881
267 4095 2071
270 4095 2271
272 4095 2480
275 4095 2697
275 4095 2920
277 4095 3147
277 4095 3378
278 4095 3608
278 4095 3839
281 4095 4059
314 723 826
320 730 923
325 735 1029
330 740 1148
332 742 1285
333 743 1446
333 743 1620
332 742 1806
330 740 2000
327 737 2205
324 734 2416
319 729 2634
316 726 2857
311 721 3082
307 717 3307
302 712 3533
298 708 3749
340 885 854
346 890 949
351 895 1055
354 899 1173
357 902 1310
357 902 1470
357 901 1644
356 900 1830
353 897 2024
351 895 2229
347 891 2440
344 888 2658
339 884 2880
335 880 3106
331 875 3332
326 870 3557
323 867 3775
359 1044 873
366 1050 969
370 1055 1075
375 1060 1193
377 1062 1330
378 1063 1490
378 1063 1665
376 1061 1851
375 1060 2046
373 1058 2251
371 1056 2463
367 1052 2682
364 1049 2905
360 1045 3131
357 1042 3358
354 1039 3585
352 1037 3803
373 1212 886
379 1218 982
385 1224 1089
389 1229 1208
393 1233 1346
395 1235 1508
396 1236 1683
397 1236 1871
396 1236 2067
395 1235 2273
394 1233 2486
393 1232 2707
391 1231 2932
389 1229 3160
388 1228 3389
386 1226 3617
386 1226 3838
377 1398 890
385 1406 988
392 1413 1097
400 1421 1218
405 1426 1358
408 1429 1521
411 1432 1699
413 1434 1887
415 1436 2086
416 1437 2294
417 1438 2510
417 1438 2732
417 1438 2959
418 1439 3188
417 1438 3418
418 1439 3648
418 1439 3869
382 1610 895
391 1619 994
401 1629 1105
409 1637 1227
415 1643 1368
421 1649 1533
424 1653 1712
428 1656 1902
430 1659 2101
432 1661 2311
433 1662 2526
434 1662 2748
435 1663 2976
435 1663 3206
436 1664 3437
436 1664 3667
437 1666 3889
391 1836 904
401 1847 1004
411 1856 1115
419 1865 1238
427 1872 1379
432 1877 1544
437 1882 1724
440 1885 1914
443 1889 2114
445 1891 2323
447 1893 2540
448 1894 2763
449 1894 2990
450 1896 3221
450 1896 3451
452 1897 3683
453 1898 3904
399 2069 912
409 2080 1012
419 2090 1123
428 2099 1247
435 2106 1388
442 2112 1554
446 2117 1734
451 2121 1925
453 2124 2124
456 2127 2335
458 2129 2551
459 2130 2774
461 2132 3002
462 2132 3233
463 2134 3464
464 2135 3695
466 2137 3917
404 2307 918
415 2318 1018
426 2329 1130
435 2338 1253
443 2346 1396
449 2352 1561
454 2358 1742
458 2361 1932
462 2365 2133
465 2368 2343
467 2370 2559
469 2372 2783
470 2373 3011
472 2375 3243
473 2376 3474
474 2378 3705
476 2379 3927
409 2549 923
421 2561 1025
431 2571 1136
441 2582 1260
449 2589 1402
456 2596 1569
461 2601 1749
466 2606 1940
469 2609 2140
472 2612 2350
475 2615 2568
476 2617 2791
479 2619 3020
480 2620 3251
482 2622 3483
483 2623 3713
485 2625 3937
416 2795 929
427 2806 1030
438 2818 1143
448 2827 1266
457 2836 1409
463 2842 1575
469 2848 1756
473 2852 1947
476 2856 2147
480 2859 2358
482 2861 2575
485 2864 2799
486 2865 3027
488 2867 3259
489 2868 3490
491 2870 3722
493 2872 3944
423 3042 936
435 3054 1038
445 3064 1150
456 3075 1274
464 3083 1416
471 3090 1583
476 3095 1763
480 3099 1954
485 3104 2155
487 3106 2365
490 3110 2583
492 3111 2807
494 3114 3035
496 3115 3266
497 3116 3498
499 3118 3730
500 3120 3952
431 3290 945
443 3301 1046
454 3313 1158
463 3322 1282
472 3331 1425
479 3337 1591
484 3342 1771
489 3347 1963
492 3351 2163
496 3354 2374
498 3357 2591
501 3359 2815
502 3360 3043
503 3362 3274
505 3363 3506
506 3365 3737
509 3367 3960
442 3536 955
454 3548 1058
465 3558 1169
475 3569 1294
483 3577 1435
490 3583 1602
495 3589 1782
499 3593 1973
503 3597 2174
506 3600 2384
509 3603 2602
510 3604 2825
512 3606 3053
513 3607 3284
514 3608 3515
516 3610 3747
517 3611 3969
456 3781 969
467 3792 1070
478 3803 1183
487 3812 1306
496 3820 1448
502 3827 1615
507 3831 1794
512 3836 1986
515 3840 2186
518 3843 2396
520 3845 2613
522 3847 2837
523 3848 3064
524 3849 3295
526 3850 3526
526 3851 3757
528 3853 3980
483 4017 996
495 4028 1098
505 4038 1209
514 4048 1333
522 4056 1475
528 4061 1641
534 4067 1821
537 4071 2011
541 4075 2212
543 4077 2421
546 4079 2639
547 4080 2861
548 4081 3089
549 4082 3320
549 4083 3550
550 4084 3781
551 4085 4003
526 4095 1039
536 4095 1140
546 4095 1251
556 4095 1374
563 4095 1516
569 4095 1682
574 4095 1861
578 4095 2052
580 4095 2251
583 4095 2461
585 4095 2677
586 4095 2900
586 4095 3128
589 4095 3357
596 4095 3588
606 4095 3816
623 4095 4034
834 630 734
840 636 829
846 642 936
849 645 1054
852 648 1191
853 649 1351
852 648 1526
851 647 1711
849 645 1906
846 642 2110
842 638 2321
839 635 2539
834 630 2761
830 626 2987
825 621 3212
821 617 3437
817 613 3654
859 790 759
865 796 855
870 800 960
874 804 1078
876 806 1215
876 807 1375
876 806 1550
875 805 1735
873 803 1930
870 800 2134
867 797 2346
863 793 2563
859 789 2786
855 785 3012
851 781 3238
847 778 3464
844 774 3681
879 950 779
885 956 874
890 961 980
894 965 1099
897 968 1236
898 969 1397
898 969 1572
898 969 1758
896 967 1953
895 966 2159
892 963 2371
890 961 2590
887 958 2814
883 954 3040
881 952 3268
878 949 3495
876 947 3714
894 1120 793
901 1127 891
907 1133 998
912 1138 1117
917 1143 1256
919 1145 1417
921 1146 1594
921 1147 1781
922 1147 1979
921 1147 2185
921 1147 2400
920 1146 2621
919 1145 2846
918 1144 3075
917 1142 3304
916 1142 3533
916 1142 3754
904 1311 804
913 1320 902
920 1327 1011
928 1335 1132
933 1340 1272
938 1345 1437
941 1348 1615
945 1352 1805
946 1353 2003
948 1355 2212
949 1356 2428
949 1356 2650
950 1357 2877
950 1357 3106
950 1357 3337
950 1357 3567
951 1358 3789
913 1528 812
923 1537 912
933 1547 1023
941 1555 1145
948 1563 1287
953 1567 1452
958 1572 1631
961 1575 1821
963 1578 2020
965 1580 2229
966 1581 2445
968 1582 2668
968 1582 2895
969 1583 3126
969 1584 3356
970 1585 3587
971 1585 3808
924 1755 823
934 1766 924
944 1775 1034
953 1785 1158
960 1792 1299
966 1798 1465
970 1802 1644
975 1806 1835
977 1809 2034
979 1811 2243
981 1813 2460
982 1814 2683
984 1815 2911
984 1816 3141
986 1817 3373
986 1818 3603
988 1819 3825
933 1989 832
943 2000 932
954 2010 1044
962 2019 1167
971 2027 1309
976 2033 1475
982 2038 1655
985 2042 1845
988 2045 2045
991 2048 2255
993 2050 2472
995 2052 2696
996 2053 2923
998 2054 3155
998 2055 3385
1000 2056 3617
1002 2058 3839
939 2228 838
951 2240 940
961 2250 1051
971 2260 1175
978 2267 1317
985 2274 1484
990 2279 1663
994 2283 1854
998 2287 2055
1000 2289 2264
1003 2292 2482
1005 2294 2705
1007 2296 2934
1008 2297 3164
1009 2298 3396
1010 2299 3627
1012 2301 3849
946 2472 845
957 2483 946
968 2494 1058
977 2503 1182
986 2512 1325
992 2518 1491
998 2524 1671
1002 2528 1862
1005 2531 2062
1009 2535 2273
1011 2537 2490
1014 2540 2714
1015 2541 2942
1017 2543 3174
1018 2544 3405
1019 2545 3636
1022 2548 3859
952 2718 851
964 2730 954
975 2740 1065
985 2750 1190
993 2758 1332
999 2765 1498
1005 2770 1679
1009 2774 1869
1014 2779 2070
1016 2782 2280
1019 2785 2498
1021 2786 2722
1023 2789 2950
1025 2790 3181
1026 2791 3412
1028 2793 3645
1029 2795 3867
960 2965 859
971 2977 961
983 2988 1073
992 2997 1197
1001 3006 1339
1007 3012 1506
1012 3017 1686
1018 3023 1878
1021 3026 2078
1025 3030 2289
1027 3032 2506
1030 3035 2730
1031 3036 2958
1032 3037 3189
1034 3039 3421
1035 3040 3652
1038 3043 3875
968 3213 867
980 3225 969
990 3235 1081
1000 3245 1205
1009 3253 1348
1015 3260 1514
1021 3266 1695
1025 3270 1885
1030 3274 2086
1032 3277 2296
1035 3280 2514
1037 3281 2737
1039 3283 2966
1040 3285 3197
1041 3286 3428
1043 3288 3660
1045 3289 3882
979 3459 879
991 3470 980
1002 3482 1092
1011 3491 1216
1019 3499 1358
1026 3506 1525
1031 3511 1704
1036 3516 1896
1039 3519 2096
1043 3523 2307
1045 3524 2523
1047 3526 2747
1048 3528 2975
1049 3529 3206
1051 3531 3438
1052 3531 3668
1054 3534 3891
992 3703 891
1004 3714 993
1014 3725 1104
1023 3734 1228
1032 3742 1370
1038 3748 1536
1043 3754 1717
1047 3758 1907
1051 3762 2108
1054 3764 2318
1056 3766 2534
1058 3768 2758
1058 3769 2985
1060 3771 3217
1061 3771 3447
1062 3773 3679
1063 3774 3900
1019 3938 918
1030 3949 1019
1040 3959 1130
1050 3969 1255
1057 3977 1396
1064 3983 1563
1068 3988 1742
1073 3992 1933
1076 3995 2133
1078 3997 2342
1080 4000 2559
1081 4001 2782
1083 4002 3010
1083 4002 3240
1084 4004 3471
1084 4004 3701
1086 4005 3923
1060 4095 959
1071 4095 1060
1081 4095 1172
1090 4095 1294
1098 4095 1437
1103 4095 1602
1108 4095 1782
1112 4095 1972
1115 4095 2172
1117 4095 2381
1119 4095 2597
1126 4095 2822
1135 4095 3049
1148 4095 3280
1163 4095 3508
1184 4095 3733
1207 4095 3945
1192 580 683
1199 586 779
1203 591 885
1207 594 1003
1210 597 1140
1210 597 1300
1210 597 1475
1208 596 1660
1206 594 1855
1203 591 2059
1200 587 2270
1196 583 2488
1191 579 2710
1187 575 2936
1183 570 3161
1179 566 3387
1175 562 3603
1217 739 708
1222 744 803
1227 748 909
1231 753 1027
1233 755 1163
1234 756 1324
1234 755 1499
1233 755 1684
1231 752 1879
1228 750 2083
1225 747 2295
1221 743 2513
1218 740 2737
1214 736 2962
1211 732 3189
1206 728 3415
