3DLUTS/GC_VENOM_LUTS/Additional_Formats/3DL/GC_Venom_709/GC_Venom_Nirnasha_709.3dl
# Converted by Briz LUT Converter
0 256 512 768 1023
0 0 0
25 31 189
27 37 710
6 17 1535
0 0 2602
0 775 0
0 770 867
0 763 1874
0 757 2883
0 751 3892
0 1729 0
0 1721 810
0 1715 1818
0 1709 2827
0 1705 3838
0 2760 0
0 2777 806
0 2799 1842
0 2823 2881
0 2848 3921
0 4042 0
5 4066 1026
26 4088 2062
47 4095 3098
64 4095 4095
420 41 51
513 11 667
578 0 1524
621 0 2553
644 0 3678
700 798 0
694 792 889
689 787 1898
684 782 2908
678 776 3917
644 1750 0
640 1745 834
637 1743 1846
636 1742 2860
638 1744 3876
695 2862 0
721 2888 917
748 2915 1958
777 2944 3002
806 2973 4046
911 4095 93
929 4095 1125
944 4095 2156
955 4095 3181
962 4095 4095
1480 0 0
1591 0 832
1655 0 1838
1679 0 2874
1676 0 3886
1710 780 0
1704 774 870
1698 768 1879
1692 761 2887
1685 754 3894
1662 1739 0
1664 1740 829
1670 1747 1850
1680 1756 2874
1693 1770 3902
1802 2939 0
1832 2968 996
1861 2997 2040
1888 3024 3082
1912 3049 4095
1983 4095 133
1990 4095 1154
2015 4095 2193
2082 4095 3206
2196 4095 4095
2756 0 0
2755 0 825
2750 0 1835
2744 0 2843
2737 0 3851
2770 744 0
2763 737 834
2756 730 1841
2749 723 2848
2743 717 3857
2757 1738 0
2771 1752 841
2787 1768 1872
2809 1789 2907
2832 1813 3946
2965 3005 19
2990 3031 1059
3013 3053 2096
3035 3075 3133
3056 3096 4095
3094 4095 324
3131 4095 1455
3194 4055 2494
3291 4014 3365
3424 3981 3990
3830 0 0
3823 0 788
3817 0 1797
3812 0 2806
3808 0 3817
3836 704 0
3830 698 794
3825 693 1805
3822 690 2816
3822 690 3831
3892 1769 0
3916 1792 881
3942 1819 1922
3970 1847 2964
3998 1874 4007
4095 3055 69
4095 3076 1104
4095 3095 2137
4095 3110 3167
4095 3121 4095
3996 4003 1351
3966 3974 2436
3951 3958 3277
3958 3964 3807
3988 3992 3998
