3DLUTS/GC_VENOM_LUTS/Additional_Formats/3DL/GC_Venom_709/GC_Venom_Vlasta_709.3dl
# Converted by Briz LUT Converter
0 256 512 768 1023
0 0 0
25 25 120
39 39 457
36 36 985
19 19 1693
0 769 0
0 736 1133
0 719 2436
0 703 3677
0 691 4095
0 1946 0
0 1896 1004
0 1875 2318
0 1863 3526
0 1857 4095
0 3148 0
0 3101 881
0 3084 2198
0 3076 3411
0 3074 4095
0 4095 0
0 4095 776
0 4095 2095
0 4095 3306
0 4095 4095
325 65 65
379 39 625
428 6 1298
467 0 2120
496 0 3089
520 814 0
463 758 1184
438 732 2494
422 717 3698
412 707 4095
360 1973 0
310 1924 1031
291 1905 2347
281 1895 3558
276 1890 4095
244 3186 0
199 3140 920
182 3124 2239
174 3115 3450
172 3113 4095
140 4095 0
93 4095 814
76 4095 2132
68 4095 3344
64 4095 4095
1199 0 0
1293 0 962
1394 0 1941
1493 0 3033
1588 0 4095
1738 771 0
1685 717 1144
1662 694 2456
1647 679 3661
1639 672 4095
1597 1949 0
1550 1901 1009
1531 1882 2325
1522 1873 3536
1519 1870 4095
1490 3169 0
1444 3124 903
1428 3108 2222
1421 3100 3435
1418 3097 4095
1384 4095 0
1338 4095 798
1374 4095 2148
1495 4095 3345
1701 4095 4095
2643 0 0
2783 0 1136
2933 0 2389
3042 0 3651
3099 0 4095
3061 708 0
3009 656 1083
2987 635 2396
2976 623 3604
2969 617 4095
2935 1901 0
2888 1854 962
2872 1838 2280
2862 1829 3492
2860 1826 4095
2834 3128 0
2787 3081 861
2771 3065 2180
2763 3058 3392
2760 3055 4095
2806 4095 0
2860 4095 1286
2986 4095 2571
3168 4083 3522
3387 4055 4095
4095 0 0
4095 0 1150
4095 0 2460
4095 0 3662
4095 0 4095
4095 632 0
4095 583 1009
4095 562 2324
4095 552 3533
4095 547 4095
4095 1839 0
4095 1792 900
4095 1776 2219
4095 1768 3431
4095 1765 4095
4095 3067 0
4095 3021 801
4095 3003 2118
4095 2995 3330
4095 2992 4095
3999 4082 1274
3980 4040 2682
4001 4037 3527
4049 4062 3978
4095 4095 4095
