3DLUTS/GC_VENOM_LUTS/Additional_Formats/3DL/GC_Venom_709/GC_Venom_Vlasta_709.3dl
# Converted by Briz LUT Converter
0 64 128 192 256 320 384 448 512 576 640 704 768 832 896 960 1023
0 0 0
6 6 10
13 13 33
20 20 72
25 25 120
30 30 186
34 34 262
37 37 353
39 39 457
39 39 574
39 39 698
38 38 835
36 36 985
33 33 1143
29 29 1318
25 25 1497
19 19 1693
53 121 53
47 122 176
42 123 289
37 124 410
31 125 541
24 125 680
17 125 831
9 123 989
0 121 1161
0 118 1338
0 115 1529
0 110 1724
0 106 1935
0 100 2149
0 95 2380
0 88 2615
0 81 2863
0 287 0
0 279 234
0 276 437
0 272 637
0 270 842
0 266 1052
0 263 1270
0 259 1492
0 254 1722
0 249 1962
0 244 2206
0 239 2464
0 233 2727
0 227 3004
0 221 3283
0 215 3573
0 207 3865
0 498 0
0 486 194
0 479 480
0 474 757
0 469 1031
0 464 1308
0 459 1586
0 455 1871
0 450 2159
0 446 2457
0 442 2758
0 438 3065
0 435 3378
0 430 3689
0 427 4007
0 422 4095
0 419 4095
0 769 0
0 755 91
0 747 454
0 741 797
0 736 1133
0 730 1462
0 727 1790
0 722 2113
0 719 2436
0 715 2753
0 711 3068
0 707 3375
0 703 3677
0 700 3973
0 697 4095
0 694 4095
0 691 4095
0 1083 0
0 1061 0
0 1048 395
0 1038 771
0 1029 1127
0 1022 1469
0 1014 1799
0 1009 2122
0 1003 2436
0 999 2745
0 994 3048
0 991 3346
0 987 3640
0 983 3930
0 981 4095
0 978 4095
0 977 4095
0 1368 0
0 1346 0
0 1332 349
0 1322 726
0 1314 1082
0 1306 1424
0 1300 1756
0 1294 2078
0 1290 2393
0 1285 2702
0 1282 3006
0 1278 3304
0 1274 3598
0 1272 3889
0 1269 4095
0 1268 4095
0 1266 4095
0 1655 0
0 1633 0
0 1621 307
0 1611 684
0 1602 1041
0 1596 1384
0 1589 1715
0 1585 2038
0 1580 2353
0 1577 2663
0 1573 2967
0 1569 3266
0 1567 3561
0 1564 3851
0 1563 4095
0 1561 4095
0 1560 4095
0 1946 0
0 1925 0
0 1913 269
0 1903 646
0 1896 1004
0 1889 1346
0 1884 1679
0 1879 2002
0 1875 2318
0 1871 2627
0 1869 2932
0 1866 3231
0 1863 3526
0 1862 3818
0 1859 4095
0 1859 4095
0 1857 4095
0 2243 0
0 2221 0
0 2209 234
0 2200 612
0 2192 969
0 2187 1313
0 2181 1645
0 2177 1969
0 2173 2285
0 2170 2595
0 2167 2899
0 2164 3199
0 2163 3495
0 2161 3786
0 2160 4074
0 2159 4095
0 2159 4095
0 2541 0
0 2520 0
0 2509 202
0 2500 579
0 2493 938
0 2487 1281
0 2483 1614
0 2478 1938
0 2474 2254
0 2472 2565
0 2469 2869
0 2467 3170
0 2465 3465
0 2464 3757
0 2463 4045
0 2462 4095
0 2462 4095
0 2843 0
0 2823 0
0 2811 172
0 2803 551
0 2796 908
0 2791 1253
0 2786 1585
0 2781 1908
0 2778 2226
0 2775 2536
0 2774 2842
0 2771 3141
0 2770 3438
0 2769 3729
0 2767 4017
0 2767 4095
0 2766 4095
0 3148 0
0 3127 0
0 3116 145
0 3108 522
0 3101 881
0 3096 1225
0 3091 1557
0 3087 1882
0 3084 2198
0 3082 2510
0 3079 2814
0 3078 3115
0 3076 3411
0 3075 3703
0 3074 3992
0 3073 4095
0 3074 4095
0 3454 0
0 3434 0
0 3422 117
0 3414 496
0 3408 854
0 3402 1198
0 3398 1532
0 3394 1856
0 3392 2173
0 3389 2483
0 3387 2789
0 3385 3089
0 3383 3385
0 3383 3678
0 3382 3966
0 3382 4095
0 3381 4095
0 3762 0
0 3741 0
0 3730 91
0 3722 470
0 3715 828
0 3710 1173
0 3706 1506
0 3703 1831
0 3699 2147
0 3696 2457
0 3695 2763
0 3692 3063
0 3692 3360
0 3690 3652
0 3690 3941
0 3689 4095
0 3689 4095
0 4069 0
0 4049 0
0 4038 66
0 4030 444
0 4024 803
0 4018 1147
0 4014 1480
0 4010 1804
0 4007 2121
0 4005 2432
0 4002 2737
0 4001 3038
0 3999 3334
0 3998 3626
0 3997 3915
0 3996 4095
0 3997 4095
0 4095 0
0 4095 0
0 4095 39
0 4095 418
0 4095 776
0 4095 1120
0 4095 1454
0 4095 1777
0 4095 2095
0 4095 2405
0 4095 2711
0 4095 3011
0 4095 3306
0 4095 3599
0 4095 3887
0 4095 4095
0 4095 4095
36 27 27
44 31 66
53 36 118
60 40 180
67 43 257
73 45 345
78 46 448
82 45 558
85 44 682
87 42 817
88 39 961
89 36 1121
88 31 1286
88 26 1469
86 20 1655
83 13 1858
80 6 2063
110 146 54
105 142 212
101 141 353
97 140 500
92 137 652
88 135 815
82 132 984
76 128 1165
69 124 1351
61 119 1550
53 113 1755
45 107 1974
36 101 2198
26 94 2436
16 86 2677
5 78 2926
0 69 3189
75 308 0
57 298 246
43 291 474
29 287 699
15 281 925
1 276 1155
0 270 1390
0 264 1631
0 258 1882
0 252 2138
0 246 2407
0 239 2678
0 233 2960
0 225 3244
0 218 3540
0 210 3839
0 204 4095
0 522 0
0 506 189
0 498 500
0 490 796
0 484 1091
0 478 1385
0 473 1684
0 468 1986
0 464 2293
0 459 2603
0 454 2912
0 450 3227
0 444 3540
0 440 3857
0 436 4095
0 432 4095
0 428 4095
0 798 0
0 781 82
0 771 463
0 763 822
0 756 1169
0 751 1508
0 745 1840
0 741 2168
0 735 2487
0 730 2800
0 726 3107
0 721 3405
0 718 3700
0 714 3989
0 712 4095
0 708 4095
0 707 4095
0 1099 0
0 1076 0
0 1063 410
0 1052 785
0 1044 1142
0 1036 1483
0 1030 1815
0 1023 2136
0 1019 2452
0 1014 2760
0 1009 3063
0 1006 3362
0 1002 3655
0 1000 3946
0 997 4095
0 995 4095
0 992 4095
0 1383 0
0 1361 0
0 1347 364
0 1338 742
0 1329 1098
0 1322 1440
0 1316 1771
0 1311 2095
0 1306 2409
0 1302 2718
0 1298 3022
0 1294 3320
0 1292 3616
0 1289 3906
0 1287 4095
0 1285 4095
0 1284 4095
0 1672 0
0 1649 0
0 1637 324
0 1627 701
0 1620 1058
0 1613 1401
0 1607 1733
0 1602 2055
0 1598 2371
0 1594 2681
0 1590 2984
0 1588 3284
0 1585 3578
0 1583 3870
0 1581 4095
0 1580 4095
0 1578 4095
0 1964 0
0 1943 0
0 1930 287
0 1922 665
0 1914 1022
0 1908 1365
0 1902 1697
0 1898 2021
0 1893 2336
0 1890 2646
0 1887 2951
0 1884 3250
0 1883 3546
0 1880 3836
0 1879 4095
0 1878 4095
0 1877 4095
0 2261 0
0 2240 0
0 2228 253
0 2219 631
0 2212 989
0 2206 1332
0 2201 1665
0 2196 1988
0 2192 2304
0 2190 2614
0 2187 2919
0 2185 3219
0 2182 3514
0 2182 3807
0 2180 4094
0 2179 4095
0 2178 4095
0 2561 0
0 2540 0
0 2528 222
0 2520 600
0 2513 958
0 2507 1301
0 2502 1634
0 2498 1957
0 2495 2275
0 2492 2585
0 2490 2890
0 2487 3190
0 2486 3486
0 2484 3777
0 2483 4065
0 2483 4095
0 2482 4095
0 2864 0
0 2843 0
0 2832 193
0 2823 571
0 2816 928
0 2811 1273
0 2806 1605
0 2803 1930
0 2799 2246
0 2797 2558
0 2794 2862
0 2792 3162
0 2791 3459
0 2789 3750
0 2789 4039
0 2788 4095
0 2788 4095
0 3168 0
0 3148 0
0 3137 165
0 3129 544
0 3122 902
0 3116 1246
0 3113 1579
0 3108 1903
0 3106 2220
0 3103 2531
0 3101 2836
0 3099 3136
0 3097 3432
0 3097 3725
0 3096 4013
0 3096 4095
0 3095 4095
0 3476 0
0 3455 0
0 3443 138
0 3436 518
0 3429 876
0 3424 1220
0 3419 1553
0 3416 1878
0 3413 2194
0 3410 2505
0 3408 2811
0 3406 3110
0 3406 3407
0 3404 3699
0 3404 3988
0 3403 4095
0 3402 4095
0 3783 0
0 3762 0
0 3752 113
0 3743 492
0 3737 851
0 3732 1194
0 3727 1527
0 3724 1852
0 3720 2168
0 3718 2480
0 3716 2785
0 3715 3086
0 3713 3381
0 3712 3673
0 3711 3962
0 3711 4095
0 3711 4095
0 4090 0
0 4071 0
0 4059 87
0 4052 466
0 4045 824
0 4039 1168
0 4036 1502
0 4031 1826
0 4029 2143
0 4026 2453
0 4024 2759
0 4022 3059
0 4020 3355
0 4020 3647
0 4019 3936
0 4019 4095
0 4018 4095
0 4095 0
0 4095 0
0 4095 60
0 4095 440
0 4095 797
0 4095 1142
0 4095 1475
0 4095 1800
0 4095 2116
0 4095 2426
0 4095 2732
0 4095 3031
0 4095 3328
0 4095 3620
0 4095 3908
0 4095 4095
0 4095 4095
99 49 49
110 50 124
119 51 201
129 52 291
138 51 389
146 50 501
153 47 621
159 44 753
164 40 899
169 36 1051
173 30 1219
176 24 1393
179 17 1581
180 10 1774
181 1 1982
181 0 2193
181 0 2421
205 160 46
200 153 239
198 149 408
196 144 577
194 140 753
191 134 934
188 129 1125
184 123 1322
180 116 1532
176 109 1746
171 102 1974
165 93 2205
159 85 2446
152 76 2696
145 66 2952
138 57 3224
130 46 3500
202 319 0
185 305 247
172 297 501
161 289 747
149 281 992
139 274 1244
128 267 1498
117 260 1762
105 252 2029
94 245 2305
82 237 2583
71 229 2872
59 221 3164
48 213 3470
37 206 3779
26 198 4095
15 191 4095
115 532 0
89 515 173
70 504 506
53 497 825
37 489 1139
22 484 1454
7 477 1768
0 471 2081
0 466 2398
0 459 2712
0 455 3029
0 449 3344
0 445 3659
0 440 3969
0 436 4095
0 432 4095
0 428 4095
0 813 0
0 792 67
0 782 464
0 772 833
0 765 1187
0 757 1529
0 750 1862
0 744 2186
0 739 2500
0 734 2809
0 729 3111
0 726 3410
0 721 3703
0 719 3993
0 715 4095
0 713 4095
0 710 4095
0 1102 0
0 1080 3
0 1067 413
0 1057 790
0 1047 1145
0 1041 1488
0 1034 1819
0 1028 2141
0 1023 2456
0 1018 2764
0 1014 3068
0 1010 3366
0 1008 3661
0 1004 3951
0 1003 4095
0 1000 4095
0 998 4095
0 1388 0
0 1365 0
0 1353 370
0 1343 747
0 1335 1104
0 1328 1446
0 1322 1777
0 1316 2100
0 1311 2415
0 1308 2725
0 1304 3028
0 1301 3327
0 1298 3622
0 1296 3913
0 1293 4095
0 1291 4095
0 1290 4095
0 1677 0
0 1656 0
0 1643 330
0 1634 708
0 1626 1065
0 1620 1408
0 1614 1739
0 1609 2062
0 1605 2378
0 1601 2687
0 1598 2992
0 1595 3291
0 1593 3587
0 1590 3877
0 1589 4095
0 1587 4095
0 1586 4095
0 1972 0
0 1950 0
0 1939 295
0 1929 672
0 1922 1030
0 1915 1373
0 1910 1705
0 1906 2028
0 1901 2344
0 1898 2654
0 1895 2958
0 1893 3259
0 1891 3554
0 1889 3845
0 1888 4095
0 1886 4095
0 1886 4095
0 2269 0
0 2249 0
0 2236 261
0 2228 640
0 2220 997
0 2214 1340
0 2210 1673
0 2205 1996
0 2202 2313
0 2198 2623
0 2196 2928
0 2194 3228
0 2192 3523
0 2190 3815
0 2189 4095
0 2189 4095
0 2187 4095
0 2570 0
0 2549 0
0 2538 231
0 2529 609
0 2522 967
0 2517 1311
0 2511 1643
0 2508 1968
0 2504 2284
0 2502 2595
0 2499 2899
0 2497 3199
0 2496 3496
0 2494 3787
0 2494 4076
0 2492 4095
0 2493 4095
0 2873 0
0 2853 0
0 2842 203
0 2833 580
0 2827 939
0 2821 1283
0 2817 1616
0 2812 1940
0 2809 2257
0 2807 2567
0 2804 2872
0 2803 3173
0 2801 3468
0 2800 3761
0 2799 4049
0 2799 4095
0 2798 4095
0 3179 0
0 3159 0
0 3147 175
0 3139 554
0 3132 912
0 3128 1257
0 3123 1589
0 3119 1914
0 3116 2231
0 3113 2541
0 3112 2847
0 3109 3147
0 3109 3443
0 3107 3735
0 3107 4024
0 3106 4095
0 3105 4095
0 3486 0
0 3465 0
0 3455 150
0 3446 528
0 3440 887
0 3435 1231
0 3430 1563
0 3427 1888
0 3423 2205
0 3421 2516
0 3419 2821
0 3418 3122
0 3416 3418
0 3414 3709
0 3414 3999
0 3413 4095
0 3414 4095
0 3793 0
0 3774 0
0 3762 124
0 3754 502
0 3748 861
0 3742 1205
0 3738 1538
0 3734 1862
0 3732 2180
0 3729 2490
0 3727 2795
0 3725 3096
0 3723 3392
0 3723 3684
0 3722 3973
0 3722 4095
0 3721 4095
0 4095 0
0 4081 0
0 4070 97
0 4062 477
0 4055 835
0 4051 1179
0 4046 1512
0 4043 1837
0 4039 2153
0 4036 2464
0 4035 2769
0 4032 3069
0 4031 3366
0 4030 3658
0 4029 3947
0 4029 4095
0 4028 4095
0 4095 0
0 4095 0
0 4095 72
0 4095 450
0 4095 809
0 4095 1152
0 4095 1485
0 4095 1809
0 4095 2126
0 4095 2437
0 4095 2741
0 4095 3042
0 4095 3338
0 4095 3629
0 4095 3918
0 4095 4095
0 4095 4095
196 62 62
206 59 172
219 56 277
230 53 389
241 50 511
251 45 645
261 40 786
270 34 941
278 28 1103
286 20 1279
292 12 1460
299 4 1655
304 0 1854
309 0 2069
313 0 2287
317 0 2523
320 0 2762
334 166 30
331 155 257
331 147 450
332 140 644
331 133 840
332 125 1044
332 117 1254
332 109 1474
330 100 1698
329 91 1931
327 81 2172
324 71 2419
322 61 2680
319 50 2946
316 40 3227
313 28 3510
