3DLUTS/GC_VENOM_LUTS/Additional_Formats/3DL/GC_Venom_709/GC_Venom_Damyan_709.3dl
# Converted by Briz LUT Converter
0 128 256 384 512 640 768 896 1023
25 756 858
31 767 1060
36 775 1318
37 777 1654
34 774 2035
28 768 2450
20 759 2891
11 751 3342
3 742 3784
64 1079 907
75 1089 1109
81 1096 1364
82 1096 1699
78 1093 2079
73 1088 2495
66 1081 2937
59 1073 3389
52 1067 3833
76 1427 919
90 1441 1124
101 1452 1384
107 1458 1724
109 1460 2110
110 1460 2532
110 1460 2980
109 1460 3440
110 1460 3891
82 1857 925
102 1877 1136
117 1892 1399
127 1902 1744
133 1908 2133
137 1912 2559
139 1914 3009
140 1915 3471
142 1917 3923
94 2326 936
115 2348 1149
131 2364 1413
142 2375 1759
150 2383 2151
155 2388 2578
158 2391 3029
161 2394 3491
164 2397 3945
104 2813 947
126 2835 1160
143 2852 1426
155 2864 1773
164 2873 2164
170 2879 2592
174 2882 3044
177 2886 3507
180 2889 3961
118 3306 961
140 3329 1174
159 3347 1441
171 3359 1788
180 3368 2180
186 3374 2608
190 3378 3060
193 3381 3523
196 3384 3977
143 3797 986
165 3819 1199
183 3838 1466
195 3849 1812
203 3857 2204
209 3863 2631
212 3866 3083
214 3868 3545
216 3871 3997
214 4095 1057
235 4095 1269
253 4095 1535
263 4095 1881
270 4095 2271
275 4095 2697
277 4095 3147
278 4095 3608
281 4095 4059
834 630 734
846 642 936
852 648 1191
852 648 1526
849 645 1906
842 638 2321
834 630 2761
825 621 3212
817 613 3654
879 950 779
890 961 980
897 968 1236
898 969 1572
896 967 1953
892 963 2371
887 958 2814
881 952 3268
876 947 3714
904 1311 804
920 1327 1011
933 1340 1272
941 1348 1615
946 1353 2003
949 1356 2428
950 1357 2877
950 1357 3337
951 1358 3789
924 1755 823
944 1775 1034
960 1792 1299
970 1802 1644
977 1809 2034
981 1813 2460
984 1815 2911
986 1817 3373
988 1819 3825
939 2228 838
961 2250 1051
978 2267 1317
990 2279 1663
998 2287 2055
1003 2292 2482
1007 2296 2934
1009 2298 3396
1012 2301 3849
952 2718 851
975 2740 1065
993 2758 1332
1005 2770 1679
1014 2779 2070
1019 2785 2498
1023 2789 2950
1026 2791 3412
1029 2795 3867
968 3213 867
990 3235 1081
1009 3253 1348
1021 3266 1695
1030 3274 2086
1035 3280 2514
1039 3283 2966
1041 3286 3428
1045 3289 3882
992 3703 891
1014 3725 1104
1032 3742 1370
1043 3754 1717
1051 3762 2108
1056 3766 2534
1058 3769 2985
1061 3771 3447
1063 3774 3900
1060 4095 959
1081 4095 1172
1098 4095 1437
1108 4095 1782
1115 4095 2172
1119 4095 2597
1135 4095 3049
1163 4095 3508
1207 4095 3945
1534 533 636
1545 544 838
1551 550 1093
1551 550 1428
1548 546 1807
1542 540 2223
1534 533 2664
1525 524 3115
1517 516 3557
1580 854 682
1592 866 885
1601 874 1142
1603 877 1480
1603 877 1863
1601 874 2282
1597 871 2727
1594 868 3184
1591 865 3631
1623 1233 725
1642 1252 935
1657 1267 1199
1666 1276 1543
1672 1282 1932
1675 1285 2357
1676 1286 2806
1677 1287 3266
1678 1288 3718
1652 1686 754
1673 1707 966
1689 1724 1231
1700 1734 1577
1707 1742 1967
1712 1746 2394
1714 1748 2844
1716 1750 3306
1719 1753 3759
1671 2163 773
1693 2185 986
1711 2203 1253
1723 2215 1599
1731 2223 1991
1736 2228 2418
1739 2231 2869
1742 2234 3332
1746 2238 3786
1686 2655 789
1709 2677 1002
1727 2696 1269
1740 2708 1616
1748 2716 2007
1753 2721 2435
1757 2725 2887
1760 2728 3350
1764 2732 3804
1702 3150 805
1725 3172 1018
1743 3191 1285
1755 3203 1632
1763 3210 2022
1768 3216 2450
1772 3219 2902
1775 3222 3364
1778 3225 3818
1725 3638 827
1747 3660 1040
1764 3678 1306
1775 3688 1651
1782 3696 2042
1787 3700 2469
1790 3703 2920
1791 3705 3381
1794 3707 3834
1790 4095 892
1811 4095 1104
1827 4095 1369
1845 4095 1723
1871 4095 2126
1903 4095 2562
1944 4095 3010
1995 4095 3451
2057 4095 3858
2142 460 563
2153 470 764
2159 476 1019
2160 477 1354
2156 474 1734
2151 468 2151
2143 460 2591
2135 452 3043
2128 446 3487
2194 787 615
2208 800 820
2218 810 1078
2223 815 1417
2225 817 1803
2224 817 2224
2223 815 2671
2222 814 3130
2222 814 3581
2257 1185 677
2277 1205 888
2292 1221 1152
2302 1230 1497
2308 1236 1886
2311 1239 2311
2313 1241 2761
2314 1242 3222
2316 1244 3675
2291 1643 711
2312 1664 923
2329 1682 1189
2340 1692 1534
2347 1699 1925
2352 1704 2352
2355 1707 2803
2357 1710 3265
2360 1713 3719
2313 2124 734
2336 2146 947
2354 2164 1214
2365 2175 1559
2373 2183 1951
2379 2189 2379
2383 2193 2831
2386 2196 3294
2389 2200 3748
2330 2617 751
2353 2639 964
2370 2657 1230
2382 2669 1577
2391 2677 1969
2397 2683 2397
2401 2687 2849
2404 2690 3312
2408 2694 3766
2346 3112 766
2368 3133 979
2385 3151 1245
2397 3163 1592
2405 3171 1983
2411 3177 2411
2414 3180 2863
2417 3183 3325
2420 3186 3778
2365 3597 786
2387 3619 998
2404 3636 1264
2415 3647 1610
2422 3654 2000
2427 3658 2427
2429 3661 2877
2430 3662 3338
2432 3664 3791
2432 4049 861
2464 4063 1098
2498 4071 1395
2533 4069 1772
2571 4063 2184
2613 4052 2613
2659 4039 3040
2711 4026 3446
2770 4014 3809
2682 405 508
2693 416 710
2700 422 965
2701 423 1301
2698 420 1681
2693 416 2099
2687 410 2541
2681 403 2994
2676 398 3440
2745 743 571
2761 759 778
2774 771 1039
2780 777 1380
2784 782 1768
2787 784 2192
2787 785 2641
2787 785 3101
2788 786 3552
2824 1158 650
2844 1178 861
2860 1193 1125
2870 1203 1470
2876 1210 1860
2880 1214 2286
2883 1216 2736
2884 1218 3198
2887 1220 3651
2862 1620 688
2883 1641 900
2900 1658 1165
2912 1669 1512
2920 1677 1903
2925 1683 2330
2928 1686 2782
2931 1689 3244
2934 1692 3698
2887 2103 713
2909 2125 926
2927 2143 1192
2939 2155 1539
2948 2163 1931
2954 2169 2359
2958 2173 2811
2961 2176 3274
2964 2180 3728
2904 2596 730
2927 2619 944
2945 2637 1210
2958 2649 1558
2966 2658 1949
2972 2664 2377
2976 2668 2829
2979 2671 3292
2981 2673 3745
2919 3090 745
2941 3112 958
2959 3130 1225
2971 3142 1571
2979 3150 1962
2984 3155 2390
2987 3158 2841
2989 3160 3302
2991 3162 3755
2937 3574 763
2958 3595 975
2975 3612 1240
2986 3623 1586
2993 3630 1976
2997 3634 2402
2998 3635 2852
3001 3635 3313
3008 3635 3759
3025 4001 967
3062 4009 1239
3098 4012 1559
3131 4008 1939
3165 4001 2340
3200 3991 2743
3238 3981 3133
3281 3973 3491
3329 3967 3801
3165 367 470
3176 378 673
3184 386 929
3186 388 1265
3185 387 1648
3182 384 2067
3178 380 2511
3173 375 2966
3171 373 3414
3244 721 549
3262 739 758
3277 754 1022
3286 763 1365
3291 768 1754
3294 771 2179
3296 772 2629
3296 773 3089
3298 774 3541
3333 1146 639
3354 1167 850
3371 1184 1115
3381 1194 1461
3388 1201 1851
3393 1206 2277
3396 1208 2728
3397 1210 3190
3399 1212 3642
3375 1613 680
3397 1634 893
3415 1652 1159
3427 1664 1506
3435 1672 1898
3440 1678 2325
3444 1681 2777
3446 1683 3239
3449 1687 3693
3403 2098 708
3426 2121 922
3444 2139 1188
3456 2151 1535
3465 2160 1927
3471 2166 2355
3474 2169 2806
3477 2172 3270
3481 2176 3724
3421 2592 726
3444 2615 940
3462 2633 1207
3474 2645 1554
3483 2654 1945
3488 2659 2372
3491 2662 2824
3494 2665 3287
3497 2668 3740
3435 3085 740
3457 3107 953
3474 3125 1219
3486 3136 1565
3493 3143 1955
3497 3148 2382
3500 3151 2833
3502 3153 3295
3505 3155 3748
3450 3566 755
3470 3587 967
3487 3603 1231
3497 3613 1577
3502 3618 1973
3506 3621 2409
3508 3621 2863
3511 3621 3315
3517 3624 3740
3525 3960 1226
3551 3966 1515
3576 3969 1840
3597 3966 2209
3618 3962 2582
3641 3958 2947
3666 3955 3288
3695 3954 3589
3728 3957 3837
3573 353 456
3586 366 660
3595 375 918
3599 379 1256
3600 380 1641
3599 379 2062
3597 377 2508
3594 374 2965
3594 374 3415
3672 727 555
3691 746 766
3707 762 1030
3716 771 1374
3722 777 1763
3726 781 2189
3727 782 2638
3728 783 3099
3730 785 3551
3767 1158 651
3788 1179 863
3805 1196 1128
3816 1207 1474
3824 1215 1865
3828 1219 2290
3831 1222 2742
3833 1224 3204
3836 1227 3657
3813 1628 696
3835 1650 909
3853 1668 1175
3864 1680 1522
3872 1688 1913
3878 1693 2340
3881 1697 2792
3884 1700 3255
3888 1704 3709
3842 2115 725
3865 2138 939
3883 2156 1206
3894 2168 1552
3903 2176 1944
3909 2182 2372
3913 2186 2824
3916 2189 3287
3920 2193 3741
3860 2609 743
3882 2632 957
3901 2650 1223
3912 2661 1569
3920 2669 1961
3925 2675 2388
3929 2678 2840
3932 2681 3302
3935 2684 3756
3872 3100 755
3893 3122 968
3910 3139 1233
3921 3149 1578
3928 3157 1969
3933 3161 2396
3935 3164 2846
3937 3165 3308
3939 3167 3760
3883 3578 767
3900 3597 989
3912 3612 1276
3916 3620 1647
3915 3626 2060
3910 3630 2497
3904 3633 2937
3896 3636 3360
3890 3642 3745
3877 3941 1617
3888 3948 1907
3897 3952 2225
3904 3955 2570
3911 3957 2908
3920 3960 3223
3931 3966 3505
3946 3975 3739
3965 3988 3917
3923 360 464
3937 375 670
3949 387 930
3956 394 1271
3958 396 1657
3960 397 2080
3960 398 2529
3960 398 2989
3961 398 3440
4040 753 581
4060 772 792
4076 788 1056
4086 798 1401
4091 804 1790
4095 808 2216
4095 810 2666
4095 812 3128
4095 814 3580
4095 1188 681
4095 1210 893
4095 1227 1158
4095 1238 1504
4095 1245 1895
4095 1250 2322
4095 1254 2774
4095 1256 3236
4095 1260 3690
4095 1661 729
4095 1683 942
4095 1700 1208
4095 1712 1555
4095 1721 1946
4095 1727 2374
4095 1731 2826
4095 1734 3289
4095 1738 3744
4095 2149 759
4095 2172 973
4095 2189 1239
4095 2201 1586
4095 2210 1978
4095 2216 2406
4095 2220 2858
4095 2223 3321
4095 2227 3775
4095 2642 776
4095 2664 989
4095 2682 1256
4095 2694 1602
4095 2702 1994
4095 2707 2421
4095 2711 2872
4095 2713 3335
4095 2715 3787
4095 3131 785
4095 3152 998
4095 3169 1263
4095 3180 1609
4095 3187 1999
4095 3191 2425
4095 3193 2875
4095 3194 3336
4095 3196 3786
4095 3602 876
4095 3621 1136
4095 3636 1451
4095 3647 1834
4095 3654 2242
4095 3661 2658
4095 3669 3065
4095 3678 3443
4095 3690 3775
4089 3944 2109
4085 3954 2400
4079 3963 2701
4072 3972 3011
4066 3981 3301
4062 3994 3557
4061 4009 3766
4064 4028 3925
4073 4052 4030
4095 377 480
4095 394 688
4095 408 950
4095 416 1293
4095 421 1682
4095 424 2107
4095 425 2556
4095 426 3016
4095 427 3468
4095 782 610
4095 801 821
4095 818 1086
4095 828 1431
4095 835 1821
4095 839 2247
4095 842 2698
4095 844 3160
4095 847 3613
4095 1221 714
4095 1242 926
4095 1260 1192
4095 1272 1538
4095 1280 1929
4095 1285 2357
4095 1289 2809
4095 1291 3271
4095 1295 3725
4095 1696 764
4095 1718 977
4095 1737 1244
4095 1749 1591
4095 1757 1983
4095 1763 2411
4095 1767 2863
4095 1770 3325
4095 1773 3779
4095 2185 795
4095 2207 1009
4095 2226 1275
4095 2238 1622
4095 2246 2014
4095 2252 2442
4095 2256 2894
4095 2258 3355
4095 2261 3809
4095 2677 811
4095 2699 1024
4095 2717 1291
4095 2729 1637
4095 2736 2028
4095 2741 2455
4095 2744 2906
4095 2745 3367
4095 2748 3820
4095 3163 818
4095 3184 1030
4095 3201 1295
4095 3211 1640
4095 3218 2030
4095 3222 2460
4095 3226 2913
4095 3232 3370
4095 3242 3803
4095 3632 1125
4095 3652 1409
4095 3669 1732
4095 3682 2109
4095 3695 2494
4095 3706 2871
4095 3721 3230
4095 3738 3553
4095 3759 3824
4095 3965 2687
4095 3980 2968
4095 3996 3243
4095 4012 3504
4095 4030 3730
4095 4052 3913
4095 4078 4042
4095 4095 4095
4095 4095 4095
