3DLUTS/GC_VENOM_LUTS/Additional_Formats/3DL/GC_Venom_709/GC_Venom_Gituku_709.3dl
# Converted by Briz LUT Converter
0 128 256 384 512 640 768 896 1023
0 0 0
17 19 40
30 37 124
39 50 258
44 59 440
44 64 661
42 67 921
37 66 1223
29 62 1572
15 259 109
0 271 354
0 280 658
0 287 1015
0 290 1415
0 293 1860
0 297 2337
0 299 2844
0 298 3379
0 725 0
0 733 456
0 737 957
0 737 1480
0 736 2006
0 735 2519
0 736 2999
0 737 3470
0 738 3942
0 1220 0
0 1219 454
0 1217 979
0 1215 1507
0 1213 2029
0 1214 2533
0 1216 3012
0 1220 3485
0 1224 3960
0 1711 0
0 1712 478
0 1712 1005
0 1712 1536
0 1714 2060
0 1717 2567
0 1722 3048
0 1728 3524
0 1734 4002
0 2227 11
0 2231 528
0 2234 1058
0 2237 1592
0 2242 2119
0 2248 2629
0 2257 3114
0 2266 3593
0 2276 4075
0 2776 91
0 2784 611
0 2791 1146
0 2799 1684
0 2808 2215
0 2818 2730
0 2831 3218
0 2844 3701
0 2857 4095
0 3363 208
6 3374 731
16 3384 1268
26 3394 1809
37 3405 2343
50 3418 2859
64 3432 3349
79 3447 3834
92 3460 4095
130 3968 343
142 3980 867
152 3991 1404
162 4001 1945
173 4011 2478
184 4023 2994
198 4036 3483
211 4049 3966
223 4062 4095
93 49 63
122 59 162
146 65 310
166 67 505
184 66 747
198 61 1032
211 55 1352
220 46 1711
228 34 2120
243 290 90
243 295 403
242 298 777
239 299 1208
234 298 1680
228 296 2176
223 293 2679
216 290 3197
210 285 3729
211 745 0
203 744 450
196 742 971
191 739 1499
189 736 2020
187 735 2522
188 736 2999
190 738 3471
192 740 3944
207 1223 0
206 1222 457
205 1221 983
204 1220 1512
204 1219 2035
205 1220 2540
208 1224 3019
212 1228 3493
216 1232 3968
235 1720 0
238 1722 488
239 1723 1017
241 1725 1549
243 1727 2074
247 1731 2582
253 1737 3064
259 1744 3540
266 1750 4018
291 2245 29
296 2250 547
301 2255 1079
306 2260 1614
312 2265 2143
319 2273 2654
330 2283 3140
339 2293 3619
350 2304 4095
383 2806 121
392 2816 643
401 2824 1179
410 2833 1718
419 2843 2250
430 2854 2765
443 2867 3254
457 2880 3737
471 2894 4095
508 3402 247
520 3413 770
531 3424 1308
541 3434 1849
552 3446 2383
564 3457 2898
578 3471 3388
592 3486 3873
607 3500 4095
644 4008 382
655 4019 906
665 4029 1443
675 4039 1983
685 4049 2516
695 4058 3029
707 4071 3518
720 4084 4000
732 4095 4095
279 69 100
320 69 259
358 66 470
392 59 731
423 49 1037
453 36 1386
483 23 1774
510 7 2203
533 0 2670
582 307 56
602 308 441
616 305 882
626 300 1367
632 293 1877
637 287 2394
642 282 2901
644 278 3407
645 273 3912
659 751 0
657 749 452
654 746 976
651 743 1504
649 741 2025
649 741 2528
650 742 3005
652 744 3477
655 746 3951
671 1231 0
672 1232 467
671 1231 993
671 1231 1523
671 1231 2047
673 1233 2553
676 1236 3032
681 1241 3506
686 1246 3983
708 1737 0
711 1739 506
713 1742 1035
716 1744 1568
719 1747 2094
723 1752 2602
730 1758 3085
737 1766 3562
746 1774 4042
773 2271 56
780 2278 574
785 2283 1107
792 2290 1644
798 2296 2174
806 2304 2686
818 2316 3173
830 2328 3655
842 2340 4095
877 2844 159
887 2855 682
896 2864 1219
906 2874 1759
915 2883 2290
927 2895 2806
941 2909 3296
955 2923 3780
970 2938 4095
1008 3446 291
1020 3457 815
1030 3468 1352
1040 3477 1892
1051 3488 2426
1063 3501 2942
1077 3515 3432
1092 3529 3916
1106 3543 4095
1142 4050 425
1153 4061 947
1161 4069 1483
1169 4078 2022
1178 4087 2554
1188 4095 3068
1203 4095 3555
1237 4095 4031
1297 4095 4095
566 64 112
620 56 334
673 44 611
725 29 943
775 12 1323
820 0 1738
867 0 2189
914 0 2683
955 0 3215
1024 311 16
1049 306 459
1067 299 948
1079 291 1465
1088 283 1991
1092 276 2507
1096 274 2998
1098 274 3474
1099 275 3946
1114 756 0
1113 755 458
1111 753 983
1108 751 1512
1107 749 2033
1106 749 2536
1109 751 3015
1112 754 3487
1115 758 3962
1133 1244 0
1134 1245 480
1135 1245 1008
1135 1245 1538
1135 1246 2061
1138 1249 2568
1143 1254 3049
1149 1259 3524
1155 1265 4002
1178 1757 11
1182 1761 527
1185 1764 1058
1187 1767 1590
1191 1771 2117
1197 1776 2627
1205 1785 3111
1215 1794 3590
1224 1803 4071
1254 2303 87
1262 2310 607
1268 2316 1140
1275 2324 1678
1283 2332 2209
1293 2342 2723
1305 2354 3211
1319 2367 3694
1332 2381 4095
1368 2886 201
1378 2897 724
1388 2906 1261
1398 2916 1801
1409 2927 2335
1421 2939 2851
1435 2954 3341
1450 2969 3825
1465 2983 4095
1502 3490 335
1513 3502 859
1524 3512 1397
1534 3523 1937
1545 3533 2471
1557 3545 2987
1570 3559 3476
1584 3573 3960
1598 3586 4095
1631 4090 465
1641 4095 987
1650 4095 1522
1658 4095 2061
1683 4095 2600
1728 4095 3117
1795 4095 3590
1883 4095 4027
1988 4092 4095
961 38 103
1035 23 393
1105 4 741
1174 0 1145
1241 0 1596
1304 0 2080
1360 0 2576
1409 0 3093
1451 0 3630
1515 305 0
1535 298 464
1546 290 979
1550 283 1507
1549 279 2030
1548 278 2532
1549 279 3009
1550 280 3480
1552 282 3953
1568 765 0
1567 764 467
1565 762 992
1563 761 1521
1563 760 2043
1564 761 2548
1567 764 3027
1571 768 3501
1575 772 3976
1595 1260 0
1595 1260 495
1596 1262 1024
1598 1263 1555
1600 1265 2080
1603 1268 2588
1609 1274 3069
1616 1281 3546
1623 1288 4024
1647 1781 35
1651 1785 551
1655 1789 1083
1660 1794 1618
1665 1799 2146
1672 1806 2657
1682 1816 3142
1692 1826 3622
1703 1837 4095
1734 2337 122
1743 2346 643
1751 2355 1179
1760 2363 1717
1769 2372 2250
1780 2383 2764
1793 2396 3253
1807 2410 3737
1820 2423 4095
1857 2930 245
1868 2941 768
1879 2952 1306
1889 2962 1847
1900 2973 2381
1913 2986 2897
1927 3000 3388
1941 3014 3871
1955 3028 4095
1993 3536 381
2005 3547 905
2015 3558 1442
2024 3567 1982
2035 3578 2515
2046 3589 3030
2058 3601 3518
2071 3614 4001
2083 3626 4095
2117 4095 505
2136 4095 1045
2169 4095 1612
2218 4095 2178
2283 4095 2719
2363 4095 3210
2463 4084 3639
2581 4072 4010
2715 4060 4095
1475 0 78
1567 0 438
1653 0 859
1728 0 1327
1793 0 1826
1849 0 2339
1897 0 2847
1935 0 3360
1964 0 3878
2004 298 0
2007 295 465
2005 292 989
2001 289 1517
1999 287 2037
1999 286 2540
2000 288 3018
2002 290 3489
2004 292 3963
2021 775 0
2021 775 478
2020 774 1005
2019 774 1535
2019 774 2057
2021 775 2563
2025 780 3043
2029 784 3517
2033 788 3992
2055 1277 0
2057 1280 515
2059 1282 1044
2061 1284 1577
2064 1287 2102
2069 1291 2611
2076 1298 3093
2082 1305 3569
2090 1312 4049
2117 1808 62
2123 1814 580
2128 1820 1113
2134 1825 1649
2141 1832 2179
2149 1840 2691
2159 1850 3176
2170 1862 3657
2182 1874 4095
2216 2377 162
2226 2387 684
2236 2396 1220
2245 2405 1760
2255 2416 2293
2266 2427 2808
2279 2440 3297
2293 2454 3781
2308 2468 4095
2346 2976 291
2358 2988 815
2369 2999 1353
2379 3009 1894
2389 3019 2427
2401 3031 2943
2415 3046 3433
2430 3060 3917
2444 3075 4095
2481 3581 426
2492 3592 950
2502 3602 1486
2511 3611 2026
2519 3619 2557
2529 3630 3071
2541 3642 3559
2554 3654 4040
2575 3664 4095
2646 4095 695
2692 4095 1285
2750 4095 1870
2820 4094 2427
2903 4078 2931
3002 4064 3368
3110 4053 3721
3218 4044 4000
3329 4037 4095
2092 0 43
2178 0 468
2251 0 942
2311 0 1450
2358 0 1973
2395 0 2493
2421 0 2992
2436 0 3480
2441 0 3959
2457 304 0
2456 303 472
2453 300 997
2451 298 1526
2449 296 2047
2449 296 2550
2451 298 3028
2453 300 3500
2456 303 3975
2475 789 0
2476 790 493
2476 790 1020
2476 790 1550
2477 791 2074
2478 792 2579
2483 797 3060
2488 802 3535
2494 808 4012
2517 1299 22
2520 1302 537
2523 1305 1067
2526 1308 1601
2530 1312 2127
2534 1316 2636
2542 1324 3119
2551 1333 3597
2560 1342 4078
2589 1840 94
2597 1847 613
2603 1854 1147
2609 1860 1684
2617 1868 2214
2627 1877 2728
2638 1889 3216
2651 1902 3698
2664 1915 4095
2700 2420 205
2711 2431 728
2721 2441 1265
2729 2449 1804
2740 2460 2337
2752 2472 2853
2766 2486 3343
2781 2501 3828
2796 2516 4095
2834 3024 339
2845 3035 862
2856 3046 1400
2866 3055 1940
2876 3066 2474
2889 3078 2990
2902 3092 3480
2916 3106 3963
2930 3120 4095
2966 3626 470
2975 3635 992
2984 3643 1528
2992 3651 2066
3000 3660 2598
3014 3668 3114
3035 3676 3596
3062 3685 4050
3097 3694 4095
3185 4095 1146
3238 4092 1739
3301 4076 2304
3372 4061 2808
3444 4048 3229
3520 4040 3566
3603 4036 3824
3686 4036 4010
3767 4039 4095
2724 0 6
2785 0 479
2831 0 988
2863 0 1515
2879 0 2040
2884 0 2547
2885 0 3024
2886 0 3494
2888 0 3967
2905 313 0
2904 312 482
2903 311 1008
2901 309 1537
2899 307 2058
2900 308 2562
2902 311 3041
2906 314 3514
2910 318 3989
2930 805 0
2932 807 510
2932 807 1037
2932 807 1568
2934 809 2093
2937 812 2600
2943 818 3081
2949 824 3557
2955 831 4035
2980 1323 46
2985 1328 563
2987 1331 1093
2991 1334 1627
2996 1339 2155
3003 1346 2666
3012 1355 3150
3022 1365 3630
3032 1375 4095
3064 1876 130
3072 1884 650
3079 1891 1185
3087 1899 1723
3096 1908 2255
3107 1919 2769
3120 1932 3258
3133 1945 3741
3147 1959 4095
3183 2465 249
3194 2475 772
3205 2486 1310
3215 2496 1851
3226 2507 2385
3238 2520 2901
3253 2534 3391
3268 2549 3876
3281 2563 4095
3319 3070 385
3331 3082 909
3341 3092 1446
3351 3102 1987
3361 3112 2520
3373 3124 3036
3386 3137 3525
3400 3151 4008
3411 3162 4095
3445 3666 511
3454 3675 1033
3462 3682 1582
3471 3686 2141
3482 3691 2685
3497 3698 3190
3517 3708 3637
3543 3721 4033
3572 3737 4095
3644 4072 1829
3682 4058 2364
3723 4048 2832
3768 4041 3232
3817 4038 3549
3867 4040 3783
3918 4046 3944
3973 4056 4046
4029 4071 4095
3306 0 0
3330 0 482
3337 0 1005
3333 0 1532
3331 0 2052
3330 0 2555
3331 0 3032
3333 0 3504
3335 0 3978
3354 325 0
3353 324 494
3352 323 1020
3351 322 1549
3351 322 2072
3352 323 2577
3355 327 3057
3360 331 3531
3364 335 4007
3386 824 14
3387 825 528
3389 827 1057
3391 829 1589
3393 831 2115
3397 835 2623
3404 842 3105
3411 849 3582
3418 856 4061
3444 1350 73
3449 1356 590
3455 1361 1123
3460 1366 1658
3466 1372 2187
3474 1380 2699
3484 1390 3186
3495 1401 3666
3506 1412 4095
3540 1915 169
3549 1924 690
3558 1933 1226
3567 1942 1766
3577 1952 2299
3588 1963 2814
3602 1977 3303
3615 1990 3786
3629 2004 4095
3667 2511 296
3679 2523 820
3690 2534 1358
3700 2544 1899
3711 2556 2433
3724 2568 2949
3738 2582 3439
3751 2596 3922
3766 2610 4095
3803 3117 432
3815 3128 956
3824 3138 1493
3834 3148 2033
3843 3157 2565
3853 3167 3079
3865 3179 3567
3878 3192 4049
3889 3204 4095
3913 3702 618
3912 3707 1194
3909 3711 1777
3905 3717 2342
3902 3727 2863
3901 3739 3319
3906 3759 3703
3912 3782 4016
3921 3807 4095
3945 4047 2584
3960 4043 3019
3977 4043 3371
3997 4047 3650
4022 4055 3857
4052 4069 3998
4083 4088 4077
4095 4095 4095
4095 4095 4095
