3DLUTS/GC_VENOM_LUTS/Additional_Formats/3DL/GC_Venom_709/GC_Venom_Glendin_709.3dl
# Converted by Briz LUT Converter
0 64 128 192 256 320 384 448 512 576 640 704 768 832 896 960 1023
0 0 0
10 10 10
21 21 21
32 32 32
43 43 43
54 54 54
65 65 65
76 76 76
86 86 86
96 96 96
105 105 105
115 115 115
125 125 125
135 135 135
144 144 144
154 154 154
164 164 164
56 56 56
65 65 65
75 75 75
85 85 85
94 94 94
104 104 104
114 114 114
124 124 124
134 134 134
144 144 144
154 154 154
164 164 164
175 175 175
186 186 186
198 198 198
209 209 209
221 221 221
104 104 104
114 114 114
125 125 125
136 136 136
148 148 148
159 159 159
171 171 171
183 183 183
195 195 195
209 209 209
224 224 224
240 240 240
256 256 256
273 273 273
290 290 290
308 308 308
328 328 328
174 174 174
190 190 190
206 206 206
223 223 223
239 239 239
258 258 258
277 277 277
298 298 298
321 321 321
345 345 345
370 370 370
394 394 394
420 420 420
444 444 444
470 470 470
496 496 496
521 521 521
319 319 319
343 343 343
368 368 368
393 393 393
419 419 419
444 444 444
470 470 470
496 496 496
522 522 522
549 549 549
574 574 574
602 602 602
628 628 628
655 655 655
682 682 682
709 709 709
736 736 736
523 523 523
550 550 550
576 576 576
604 604 604
630 630 630
657 657 657
685 685 685
711 711 711
739 739 739
766 766 766
795 795 795
822 822 822
851 851 851
878 878 878
906 906 906
935 935 935
963 963 963
743 743 743
771 771 771
799 799 799
826 826 826
854 854 854
883 883 883
911 911 911
940 940 940
968 968 968
998 998 998
1026 1026 1026
1055 1055 1055
1084 1084 1084
1113 1113 1113
1142 1142 1142
1171 1171 1171
1201 1201 1201
974 974 974
1004 1004 1004
1032 1032 1032
1062 1062 1062
1090 1090 1090
1119 1119 1119
1149 1149 1149
1178 1178 1178
1209 1209 1209
1238 1238 1238
1268 1268 1268
1297 1297 1297
1328 1328 1328
1357 1357 1357
1387 1387 1387
1418 1418 1418
1447 1447 1447
1216 1216 1216
1245 1245 1245
1276 1276 1276
1306 1306 1306
1335 1335 1335
1366 1366 1366
1395 1395 1395
1426 1426 1426
1456 1456 1456
1487 1487 1487
1517 1517 1517
1547 1547 1547
1578 1578 1578
1608 1608 1608
1639 1639 1639
1669 1669 1669
1700 1700 1700
1465 1465 1465
1496 1496 1496
1526 1526 1526
1556 1556 1556
1587 1587 1587
1617 1617 1617
1648 1648 1648
1678 1678 1678
1710 1710 1710
1740 1740 1740
1770 1770 1770
1801 1801 1801
1832 1832 1832
1863 1863 1863
1893 1893 1893
1925 1925 1925
1955 1955 1955
1719 1719 1719
1749 1749 1749
1780 1780 1780
1811 1811 1811
1841 1841 1841
1873 1873 1873
1903 1903 1903
1934 1934 1934
1964 1964 1964
1996 1996 1996
2026 2026 2026
2056 2056 2056
2087 2087 2087
2117 2117 2117
2149 2149 2149
2179 2179 2179
2210 2210 2210
1974 1974 1974
2004 2004 2004
2035 2035 2035
2065 2065 2065
2097 2097 2097
2127 2127 2127
2158 2158 2158
2188 2188 2188
2219 2219 2219
2248 2248 2248
2278 2278 2278
2309 2309 2309
2339 2339 2339
2370 2370 2370
2399 2399 2399
2430 2430 2430
2459 2459 2459
2226 2226 2226
2257 2257 2257
2287 2287 2287
2318 2318 2318
2347 2347 2347
2378 2378 2378
2407 2407 2407
2437 2437 2437
2467 2467 2467
2496 2496 2496
2526 2526 2526
2555 2555 2555
2585 2585 2585
2614 2614 2614
2644 2644 2644
2672 2672 2672
2701 2701 2701
2474 2474 2474
2503 2503 2503
2533 2533 2533
2562 2562 2562
2592 2592 2592
2621 2621 2621
2650 2650 2650
2679 2679 2679
2708 2708 2708
2736 2736 2736
2764 2764 2764
2794 2794 2794
2822 2822 2822
2851 2851 2851
2878 2878 2878
2907 2907 2907
2934 2934 2934
2713 2713 2713
2742 2742 2742
2770 2770 2770
2799 2799 2799
2827 2827 2827
2855 2855 2855
2883 2883 2883
2910 2910 2910
2938 2938 2938
2965 2965 2965
2994 2994 2994
3020 3020 3020
3048 3048 3048
3075 3075 3075
3102 3102 3102
3128 3128 3128
3155 3155 3155
2942 2942 2942
2969 2969 2969
2997 2997 2997
3023 3023 3023
3051 3051 3051
3077 3077 3077
3103 3103 3103
3130 3130 3130
3156 3156 3156
3183 3183 3183
3209 3209 3209
3236 3236 3236
3261 3261 3261
3287 3287 3287
3312 3312 3312
3337 3337 3337
3363 3363 3363
3157 3157 3157
3184 3184 3184
3209 3209 3209
3236 3236 3236
3261 3261 3261
3286 3286 3286
3311 3311 3311
3335 3335 3335
3360 3360 3360
3383 3383 3383
3408 3408 3408
3431 3431 3431
3454 3454 3454
3477 3477 3477
3499 3499 3499
3520 3520 3520
3540 3540 3540
17 17 17
29 29 29
39 39 39
50 50 50
61 61 61
71 71 71
81 81 81
91 91 91
101 101 101
110 110 110
120 120 120
130 130 130
140 140 140
149 149 149
159 159 159
169 169 169
179 179 179
70 70 70
80 80 80
90 90 90
99 99 99
109 109 109
119 119 119
129 129 129
139 139 139
149 149 149
160 160 160
171 171 171
183 183 183
195 195 195
206 206 206
218 218 218
231 231 231
245 245 245
121 121 121
133 133 133
144 144 144
156 156 156
168 168 168
181 181 181
195 195 195
209 209 209
225 225 225
241 241 241
258 258 258
275 275 275
293 293 293
312 312 312
334 334 334
357 357 357
381 381 381
208 208 208
224 224 224
242 242 242
261 261 261
283 283 283
306 306 306
329 329 329
355 355 355
379 379 379
404 404 404
429 429 429
455 455 455
480 480 480
506 506 506
532 532 532
558 558 558
585 585 585
377 377 377
403 403 403
429 429 429
455 455 455
481 481 481
506 506 506
533 533 533
559 559 559
586 586 586
612 612 612
640 640 640
666 666 666
693 693 693
721 721 721
747 747 747
775 775 775
802 802 802
588 588 588
615 615 615
642 642 642
669 669 669
696 696 696
724 724 724
751 751 751
779 779 779
807 807 807
835 835 835
863 863 863
890 890 890
919 919 919
947 947 947
976 976 976
1004 1004 1004
1034 1034 1034
811 811 811
839 839 839
867 867 867
896 896 896
924 924 924
952 952 952
982 982 982
1010 1010 1010
1040 1040 1040
1068 1068 1068
1098 1098 1098
1127 1127 1127
1155 1155 1155
1186 1186 1186
1214 1214 1214
1245 1245 1245
1274 1274 1274
1046 1046 1046
1075 1075 1075
1104 1104 1104
1134 1134 1134
1163 1163 1163
1193 1193 1193
1222 1222 1222
1252 1252 1252
1282 1282 1282
1312 1312 1312
1342 1342 1342
1371 1371 1371
1402 1402 1402
1431 1431 1431
1462 1462 1462
1492 1492 1492
1523 1523 1523
1290 1290 1290
1319 1319 1319
1350 1350 1350
1379 1379 1379
1410 1410 1410
1440 1440 1440
1471 1471 1471
1501 1501 1501
1532 1532 1532
1562 1562 1562
1592 1592 1592
1623 1623 1623
1653 1653 1653
1685 1685 1685
1715 1715 1715
1746 1746 1746
1776 1776 1776
1540 1540 1540
1571 1571 1571
1601 1601 1601
1633 1633 1633
1663 1663 1663
1694 1694 1694
1724 1724 1724
1755 1755 1755
1786 1786 1786
1816 1816 1816
1847 1847 1847
1877 1877 1877
1909 1909 1909
1939 1939 1939
1970 1970 1970
2001 2001 2001
2032 2032 2032
1795 1795 1795
1825 1825 1825
1857 1857 1857
1887 1887 1887
1918 1918 1918
1949 1949 1949
1980 1980 1980
2010 2010 2010
2040 2040 2040
2071 2071 2071
2101 2101 2101
2133 2133 2133
2163 2163 2163
2194 2194 2194
2224 2224 2224
2255 2255 2255
2285 2285 2285
2049 2049 2049
2081 2081 2081
2111 2111 2111
2142 2142 2142
2172 2172 2172
2203 2203 2203
2233 2233 2233
2262 2262 2262
2293 2293 2293
2323 2323 2323
2354 2354 2354
2383 2383 2383
2414 2414 2414
2443 2443 2443
2473 2473 2473
2503 2503 2503
2532 2532 2532
2302 2302 2302
2331 2331 2331
2362 2362 2362
2391 2391 2391
2422 2422 2422
2451 2451 2451
2480 2480 2480
2510 2510 2510
2539 2539 2539
2569 2569 2569
2598 2598 2598
2628 2628 2628
2657 2657 2657
2686 2686 2686
2715 2715 2715
2744 2744 2744
2772 2772 2772
2546 2546 2546
2576 2576 2576
2605 2605 2605
2635 2635 2635
2663 2663 2663
2692 2692 2692
2721 2721 2721
2749 2749 2749
2778 2778 2778
2806 2806 2806
2835 2835 2835
2863 2863 2863
2891 2891 2891
2919 2919 2919
2946 2946 2946
2974 2974 2974
3001 3001 3001
2783 2783 2783
2811 2811 2811
2840 2840 2840
2867 2867 2867
2895 2895 2895
2922 2922 2922
2950 2950 2950
2978 2978 2978
3005 3005 3005
3033 3033 3033
3059 3059 3059
3087 3087 3087
3113 3113 3113
3139 3139 3139
3166 3166 3166
3192 3192 3192
3219 3219 3219
3007 3007 3007
3035 3035 3035
3061 3061 3061
3088 3088 3088
3115 3115 3115
3141 3141 3141
3168 3168 3168
3193 3193 3193
3220 3220 3220
3245 3245 3245
3272 3272 3272
3297 3297 3297
3322 3322 3322
3347 3347 3347
3371 3371 3371
3396 3396 3396
3419 3419 3419
3220 3220 3220
3245 3245 3245
3271 3271 3271
3296 3296 3296
3320 3320 3320
3344 3344 3344
3368 3368 3368
3392 3392 3392
3415 3415 3415
3439 3439 3439
3461 3461 3461
3483 3483 3483
3505 3505 3505
3525 3525 3525
3546 3546 3546
3566 3566 3566
3587 3587 3587
36 36 36
46 46 46
57 57 57
66 66 66
76 76 76
86 86 86
96 96 96
105 105 105
115 115 115
125 125 125
135 135 135
145 145 145
154 154 154
164 164 164
174 174 174
185 185 185
196 196 196
85 85 85
95 95 95
104 104 104
114 114 114
124 124 124
135 135 135
146 146 146
157 157 157
168 168 168
180 180 180
192 192 192
204 204 204
216 216 216
230 230 230
245 245 245
261 261 261
277 277 277
142 142 142
153 153 153
166 166 166
180 180 180
194 194 194
210 210 210
226 226 226
243 243 243
260 260 260
278 278 278
297 297 297
319 319 319
342 342 342
365 365 365
391 391 391
415 415 415
440 440 440
246 246 246
268 268 268
290 290 290
314 314 314
339 339 339
363 363 363
389 389 389
413 413 413
439 439 439
465 465 465
491 491 491
517 517 517
542 542 542
569 569 569
595 595 595
622 622 622
648 648 648
440 440 440
465 465 465
491 491 491
517 517 517
543 543 543
570 570 570
597 597 597
624 624 624
651 651 651
678 678 678
705 705 705
732 732 732
760 760 760
787 787 787
815 815 815
843 843 843
871 871 871
653 653 653
680 680 680
708 708 708
735 735 735
764 764 764
791 791 791
819 819 819
847 847 847
875 875 875
903 903 903
931 931 931
960 960 960
989 989 989
1018 1018 1018
1046 1046 1046
1076 1076 1076
1104 1104 1104
880 880 880
909 909 909
937 937 937
966 966 966
994 994 994
1024 1024 1024
1052 1052 1052
1082 1082 1082
1111 1111 1111
1140 1140 1140
1170 1170 1170
1199 1199 1199
1229 1229 1229
1258 1258 1258
1288 1288 1288
1318 1318 1318
1348 1348 1348
1118 1118 1118
1147 1147 1147
1177 1177 1177
1206 1206 1206
1237 1237 1237
1266 1266 1266
1296 1296 1296
1326 1326 1326
1355 1355 1355
1386 1386 1386
1416 1416 1416
1447 1447 1447
1476 1476 1476
1507 1507 1507
1537 1537 1537
1568 1568 1568
1598 1598 1598
1364 1364 1364
1395 1395 1395
1424 1424 1424
1455 1455 1455
1485 1485 1485
1516 1516 1516
1546 1546 1546
1576 1576 1576
1607 1607 1607
1637 1637 1637
1669 1669 1669
1699 1699 1699
1730 1730 1730
1760 1760 1760
1791 1791 1791
1822 1822 1822
1852 1852 1852
1617 1617 1617
1647 1647 1647
1678 1678 1678
1708 1708 1708
1740 1740 1740
1770 1770 1770
1801 1801 1801
1831 1831 1831
1862 1862 1862
1893 1893 1893
1923 1923 1923
1955 1955 1955
1985 1985 1985
2016 2016 2016
2046 2046 2046
2076 2076 2076
2108 2108 2108
1871 1871 1871
1903 1903 1903
1933 1933 1933
1964 1964 1964
1994 1994 1994
2025 2025 2025
2056 2056 2056
2086 2086 2086
2117 2117 2117
2147 2147 2147
2178 2178 2178
2208 2208 2208
2239 2239 2239
2269 2269 2269
2298 2298 2298
2329 2329 2329
2359 2359 2359
2126 2126 2126
2156 2156 2156
2187 2187 2187
2217 2217 2217
2247 2247 2247
2278 2278 2278
2307 2307 2307
2338 2338 2338
2367 2367 2367
2398 2398 2398
2427 2427 2427
2458 2458 2458
2487 2487 2487
2516 2516 2516
2547 2547 2547
2575 2575 2575
2606 2606 2606
2375 2375 2375
2406 2406 2406
2435 2435 2435
2465 2465 2465
2495 2495 2495
2524 2524 2524
2554 2554 2554
2582 2582 2582
2612 2612 2612
2641 2641 2641
2671 2671 2671
2699 2699 2699
2728 2728 2728
2757 2757 2757
2785 2785 2785
2814 2814 2814
2842 2842 2842
2619 2619 2619
2647 2647 2647
2677 2677 2677
2705 2705 2705
2733 2733 2733
2762 2762 2762
2790 2790 2790
2819 2819 2819
2847 2847 2847
2876 2876 2876
2903 2903 2903
2931 2931 2931
2959 2959 2959
2986 2986 2986
3014 3014 3014
3041 3041 3041
3069 3069 3069
2851 2851 2851
2880 2880 2880
2907 2907 2907
2934 2934 2934
2962 2962 2962
2989 2989 2989
3017 3017 3017
3043 3043 3043
3071 3071 3071
3097 3097 3097
3124 3124 3124
3151 3151 3151
3177 3177 3177
3204 3204 3204
3229 3229 3229
3256 3256 3256
3281 3281 3281
3073 3073 3073
3099 3099 3099
3125 3125 3125
3152 3152 3152
3178 3178 3178
3204 3204 3204
3230 3230 3230
3256 3256 3256
3281 3281 3281
3306 3306 3306
3332 3332 3332
3356 3356 3356
3380 3380 3380
3404 3404 3404
3428 3428 3428
3451 3451 3451
3475 3475 3475
3280 3280 3280
3305 3305 3305
3329 3329 3329
3352 3352 3352
3377 3377 3377
3400 3400 3400
3424 3424 3424
3446 3446 3446
3468 3468 3468
3489 3489 3489
3510 3510 3510
3531 3531 3531
3551 3551 3551
3572 3572 3572
3592 3592 3592
3612 3612 3612
3631 3631 3631
52 52 52
62 62 62
71 71 71
81 81 81
91 91 91
100 100 100
110 110 110
120 120 120
130 130 130
140 140 140
150 150 150
160 160 160
170 170 170
181 181 181
192 192 192
204 204 204
215 215 215
100 100 100
110 110 110
120 120 120
131 131 131
142 142 142
153 153 153
165 165 165
177 177 177
189 189 189
201 201 201
215 215 215
230 230 230
246 246 246
262 262 262
279 279 279
295 295 295
