3DLUTS/GC_VENOM_LUTS/Additional_Formats/3DL/GC_Venom_709/GC_Venom_Nirnasha_709.3dl
# Converted by Briz LUT Converter
0 128 256 384 512 640 768 896 1023
0 0 0
15 18 56
25 31 189
29 37 408
27 37 710
19 29 1087
6 17 1535
0 0 2043
0 0 2602
0 312 0
0 313 361
0 312 798
0 309 1273
0 303 1776
0 298 2299
0 294 2832
0 289 3364
0 286 3886
0 775 0
0 773 362
0 770 867
0 767 1371
0 763 1874
0 760 2378
0 757 2883
0 754 3387
0 751 3892
0 1249 0
0 1247 345
0 1244 849
0 1241 1354
0 1238 1858
0 1236 2363
0 1233 2867
0 1229 3371
0 1226 3875
0 1729 0
0 1725 307
0 1721 810
0 1718 1314
0 1715 1818
0 1712 2323
0 1709 2827
0 1707 3332
0 1705 3838
0 2215 0
0 2214 268
0 2214 776
0 2215 1284
0 2216 1792
0 2219 2303
0 2223 2814
0 2227 3325
0 2233 3838
0 2760 0
0 2768 290
0 2777 806
0 2788 1324
0 2799 1842
0 2810 2361
0 2823 2881
0 2836 3401
0 2848 3921
0 3390 0
0 3405 390
0 3419 912
0 3434 1434
0 3449 1956
0 3463 2478
0 3477 2999
0 3491 3521
0 3504 4040
0 4042 0
0 4054 507
5 4066 1026
16 4077 1544
26 4088 2062
37 4095 2580
47 4095 3098
56 4095 3614
64 4095 4095
129 42 51
165 44 217
194 39 464
215 29 786
232 14 1177
243 0 1629
249 0 2132
251 0 2676
249 0 3254
274 329 0
269 324 374
264 319 857
260 315 1360
256 311 1873
252 308 2386
250 305 2892
247 303 3397
245 301 3902
272 790 0
268 785 374
265 782 879
262 779 1383
259 776 1887
256 774 2392
253 771 2897
251 769 3402
249 766 3907
255 1264 0
251 1261 358
248 1258 863
245 1255 1367
242 1251 1871
238 1248 2375
235 1244 2879
231 1241 3383
228 1237 3887
214 1740 0
211 1737 318
208 1734 823
205 1731 1327
202 1729 1832
200 1727 2338
199 1725 2844
197 1724 3349
196 1723 3856
183 2237 0
184 2238 292
187 2241 803
190 2245 1314
195 2249 1825
200 2254 2338
207 2261 2852
213 2268 3366
221 2276 3881
222 2809 0
233 2820 342
244 2832 860
256 2844 1380
269 2857 1901
282 2870 2421
296 2884 2942
309 2897 3462
324 2912 3984
331 3455 0
346 3470 455
360 3484 977
374 3499 1499
388 3512 2020
401 3525 2540
413 3538 3060
426 3550 3580
437 3562 4095
441 4095 44
452 4095 562
462 4095 1080
472 4095 1597
482 4095 2114
489 4095 2629
498 4095 3145
505 4095 3660
511 4095 4095
420 41 51
469 28 325
513 11 667
549 0 1070
578 0 1524
602 0 2021
621 0 2553
635 0 3108
644 0 3678
688 334 0
691 330 381
690 327 884
688 324 1389
686 322 1894
683 319 2399
681 317 2904
677 314 3408
673 310 3911
700 798 0
697 795 384
694 792 889
692 790 1393
689 787 1898
687 785 2403
684 782 2908
682 779 3412
678 776 3917
684 1273 0
681 1270 368
677 1267 872
674 1263 1376
670 1260 1880
667 1256 2383
663 1252 2886
659 1248 3390
656 1245 3895
644 1750 0
641 1747 329
640 1745 834
638 1744 1340
637 1743 1846
636 1742 2353
636 1742 2860
636 1742 3368
638 1744 3876
629 2263 0
634 2267 321
639 2272 834
646 2279 1348
652 2286 1862
660 2294 2377
669 2303 2894
680 2314 3411
691 2324 3930
695 2862 0
708 2875 396
721 2888 917
735 2902 1438
748 2915 1958
762 2929 2480
777 2944 3002
791 2959 3524
806 2973 4046
813 3516 0
827 3530 515
840 3543 1036
852 3555 1555
864 3568 2075
876 3580 2594
887 3591 3113
898 3602 3632
909 3613 4095
911 4095 93
921 4095 610
929 4095 1125
937 4095 1641
944 4095 2156
950 4095 2669
955 4095 3181
959 4095 3692
962 4095 4095
870 1 11
935 0 372
991 0 785
1039 0 1244
1077 0 1738
1106 0 2256
1128 0 2792
1143 0 3334
1153 0 3874
1189 326 0
1187 324 374
1184 321 879
1182 319 1384
1179 316 1888
1175 311 2391
1171 308 2895
1169 305 3400
1166 302 3904
1193 791 0
1191 789 378
1189 787 883
1186 784 1388
1184 782 1893
1180 778 2396
1177 775 2901
1174 772 3405
1171 769 3909
1175 1265 0
1172 1261 359
1168 1258 863
1165 1254 1367
1161 1250 1870
1158 1247 2374
1155 1244 2879
1152 1241 3384
1149 1239 3889
1139 1746 0
1138 1744 326
1137 1744 833
1137 1743 1339
1137 1744 1847
1139 1745 2356
1142 1748 2866
1145 1752 3377
1150 1756 3888
1147 2280 0
1154 2288 342
1161 2295 856
1170 2304 1373
1181 2314 1890
1192 2325 2408
1203 2337 2927
1216 2349 3447
1229 2362 3968
1236 2902 0
1250 2916 437
1264 2930 958
1278 2944 1480
1293 2959 2002
1307 2974 2524
1322 2988 3046
1336 3003 3567
1350 3016 4089
1354 3556 34
1366 3568 554
1378 3580 1073
1390 3592 1592
1401 3603 2110
1412 3614 2628
1422 3624 3146
1433 3635 3664
1442 3644 4095
1439 4095 119
1447 4095 634
1453 4095 1148
1458 4095 1660
1462 4095 2171
1465 4095 2681
1476 4095 3190
1500 4095 3693
1537 4095 4095
1480 0 0
1542 0 366
1591 0 832
1628 0 1327
1655 0 1838
1673 0 2358
1679 0 2874
1678 0 3381
1676 0 3886
1706 314 0
1703 311 362
1699 308 866
1696 304 1369
1693 301 1873
1690 298 2378
1687 295 2882
1684 292 3387
1682 290 3892
1710 780 0
1708 777 367
1704 774 870
1701 771 1375
1698 768 1879
1695 764 2383
1692 761 2887
1688 757 3391
1685 754 3894
1690 1250 0
1685 1246 344
1682 1242 848
1679 1239 1352
1677 1237 1857
1674 1234 2362
1673 1232 2867
1671 1231 3373
1670 1229 3879
1662 1739 0
1662 1739 320
1664 1740 829
1666 1743 1339
1670 1747 1850
1674 1751 2361
1680 1756 2874
1686 1763 3388
1693 1770 3902
1695 2299 0
1705 2309 363
1716 2320 881
1727 2331 1400
1740 2344 1920
1753 2357 2440
1766 2370 2961
1780 2384 3482
1793 2396 4002
1802 2939 0
1817 2953 474
1832 2968 996
1846 2983 1518
1861 2997 2040
1874 3011 2561
1888 3024 3082
1900 3036 3601
1912 3049 4095
1914 3586 64
1925 3597 583
1936 3608 1101
1947 3619 1619
1957 3629 2136
1967 3639 2653
1975 3647 3169
1983 3655 3684
1991 3663 4095
1983 4095 133
1987 4095 644
1990 4095 1154
1997 4095 1672
2015 4095 2193
2042 4095 2707
2082 4095 3206
2132 4095 3680
2196 4095 4095
2138 0 0
2177 0 341
2203 0 840
2215 0 1346
2214 0 1852
2212 0 2357
2210 0 2862
2207 0 3366
2204 0 3871
2232 296 0
2229 293 344
2226 290 848
2223 287 1353
2221 285 1857
2218 282 2362
2216 280 2867
2214 278 3372
2211 275 3877
2238 763 0
2235 760 349
2231 757 853
2228 753 1357
2224 750 1861
2221 746 2365
2218 743 2869
2214 739 3372
2210 735 3875
2216 1232 0
2213 1229 327
2211 1226 832
2209 1224 1338
2207 1223 1843
2206 1222 2349
2206 1221 2856
2205 1221 3363
2206 1221 3871
2202 1735 0
2206 1739 320
2210 1743 831
2215 1748 1344
2222 1755 1858
2230 1762 2373
2237 1769 2887
2246 1778 3403
2256 1789 3921
2263 2323 0
2275 2335 389
2288 2348 909
2302 2361 1430
2315 2375 1951
2329 2389 2472
2343 2402 2993
2357 2417 3515
2372 2432 4037
2381 2974 0
2395 2988 510
2409 3002 1031
2423 3016 1552
2435 3028 2071
2447 3040 2591
2459 3052 3110
2470 3064 3628
2482 3075 4095
2482 3611 89
2492 3621 606
2502 3631 1123
2511 3639 1639
2518 3647 2154
2526 3654 2669
2532 3660 3182
2537 3665 3694
2541 3669 4095
2530 4095 148
2542 4095 687
2559 4095 1230
2584 4095 1768
2617 4095 2292
2660 4095 2790
2714 4084 3257
2778 4061 3678
2855 4039 4047
2756 0 0
2757 0 320
2755 0 825
2753 0 1330
2750 0 1835
2747 0 2339
2744 0 2843
2740 0 3346
2737 0 3851
2766 278 0
2764 275 326
2761 273 831
2759 271 1336
2757 268 1841
2754 266 2346
2750 262 2850
2747 259 3354
2744 256 3858
2770 744 0
2767 740 330
2763 737 834
2760 734 1337
2756 730 1841
2752 726 2344
2749 723 2848
2746 720 3353
2743 717 3857
2751 1215 0
2749 1214 312
2748 1212 818
2748 1212 1325
2748 1212 1832
2748 1212 2339
2749 1213 2848
2752 1216 3358
2755 1219 3869
2757 1738 0
2764 1745 326
2771 1752 841
2779 1759 1355
2787 1768 1872
2798 1779 2389
2809 1789 2907
2820 1801 3426
2832 1813 3946
2843 2351 0
2857 2365 419
2871 2379 940
2885 2392 1461
2899 2406 1983
2914 2421 2505
2929 2436 3027
2943 2450 3549
2958 2465 4070
2965 3005 19
2978 3018 539
2990 3031 1059
3001 3042 1577
3013 3053 2096
3024 3065 2615
3035 3075 3133
3046 3086 3651
3056 3096 4095
3053 3629 107
3061 3637 622
3068 3644 1137
3075 3650 1650
3079 3655 2162
3084 3659 2674
3086 3662 3184
3089 3661 3690
3093 3660 4095
3094 4095 324
3109 4095 896
3131 4095 1455
3160 4077 1991
3194 4055 2494
3239 4033 2955
3291 4014 3365
3353 3996 3713
3424 3981 3990
3297 0 0
3294 0 303
3291 0 808
3288 0 1312
3284 0 1815
3281 0 2319
3278 0 2823
3275 0 3328
3273 0 3833
3303 261 0
3301 258 309
3298 256 814
3295 253 1318
3292 249 1822
3289 246 2326
3286 243 2830
3282 240 3334
3279 236 3838
3305 724 0
3301 720 309
3297 716 813
3294 713 1317
3291 710 1821
3288 707 2325
3286 704 2830
3284 702 3336
3282 701 3841
3292 1201 0
3293 1202 300
3292 1201 807
3294 1203 1316
3296 1205 1826
3300 1209 2337
3304 1213 2848
3309 1218 3361
3316 1225 3875
3323 1749 0
3332 1758 340
3342 1768 856
3353 1779 1374
3364 1790 1893
3376 1802 2413
3389 1815 2933
3403 1828 3454
3416 1842 3975
3429 2381 0
3443 2395 450
3458 2410 972
3472 2425 1494
3487 2439 2016
3502 2454 2538
3515 2467 3059
3529 2481 3580
3542 2493 4095
3545 3031 45
3557 3042 563
3568 3054 1082
3579 3065 1600
3590 3075 2118
3600 3086 2636
3610 3095 3153
3619 3104 3669
3626 3111 4095
3619 3640 118
3624 3645 630
3628 3649 1141
3631 3652 1652
3630 3652 2166
3629 3650 2680
3626 3648 3187
3624 3645 3674
3621 3642 4095
3608 4070 718
3614 4048 1301
3626 4027 1853
3643 4009 2363
3665 3992 2822
3694 3977 3220
3729 3967 3548
3771 3961 3799
3820 3961 3968
3830 0 0
3826 0 284
3823 0 788
3820 0 1292
3817 0 1797
3814 0 2302
3812 0 2806
3810 0 3312
3808 0 3817
3837 244 0
3833 240 291
3830 237 795
3827 234 1299
3824 230 1803
3820 227 2307
3817 223 2811
3813 220 3315
3810 216 3819
3836 704 0
3832 701 290
3830 698 794
3827 695 1299
3825 693 1805
3824 692 2310
3822 690 2816
3821 690 3323
3822 690 3831
3834 1193 0
3837 1196 295
3840 1200 806
3844 1204 1317
3849 1209 1829
3856 1215 2343
3864 1223 2858
3871 1230 3373
3880 1239 3889
3892 1769 0
3904 1780 361
3916 1792 881
3929 1805 1401
3942 1819 1922
3956 1832 2443
3970 1847 2964
3983 1860 3485
3998 1874 4007
4012 2415 0
4027 2430 484
4041 2444 1006
4055 2458 1527
4069 2471 2048
4082 2484 2568
4094 2497 3088
4095 2508 3606
4095 2519 4095
4095 3055 69
4095 3066 586
4095 3076 1104
4095 3086 1621
4095 3095 2137
4095 3102 2652
4095 3110 3167
4095 3116 3680
4095 3121 4095
4095 3643 121
4095 3643 641
4095 3641 1172
4095 3639 1707
4095 3637 2233
4095 3634 2740
4093 3633 3220
4070 3636 3664
4049 3642 4062
3996 4003 1351
3980 3987 1920
3966 3974 2436
3956 3964 2892
3951 3958 3277
3952 3958 3585
3958 3964 3807
3971 3975 3943
3988 3992 3998
