3DLUTS/GC_VENOM_LUTS/Additional_Formats/3DL/GC_Venom_709/GC_Venom_Gituku_709.3dl
# Converted by Briz LUT Converter
0 64 128 192 256 320 384 448 512 576 640 704 768 832 896 960 1023
0 0 0
9 10 15
17 19 40
24 28 75
30 37 124
35 44 183
39 50 258
42 55 341
44 59 440
44 62 545
44 64 661
44 66 787
42 67 921
40 67 1069
37 66 1223
33 65 1394
29 62 1572
47 114 91
47 122 155
46 128 230
44 134 320
41 139 421
37 143 536
32 146 661
27 149 801
20 150 948
13 151 1105
6 152 1273
0 152 1447
0 152 1636
0 151 1833
0 150 2047
0 148 2267
0 146 2502
15 259 109
8 265 223
0 271 354
0 276 498
0 280 658
0 284 830
0 287 1015
0 289 1209
0 290 1415
0 292 1634
0 293 1860
0 296 2096
0 297 2337
0 299 2588
0 299 2844
0 299 3108
0 298 3379
0 462 68
0 471 241
0 477 431
0 484 637
0 488 853
0 493 1084
0 495 1323
0 498 1570
0 500 1823
0 501 2078
0 502 2336
0 503 2588
0 504 2844
0 505 3097
0 506 3356
0 505 3612
0 505 3871
0 725 0
0 729 219
0 733 456
0 735 703
0 737 957
0 737 1216
0 737 1480
0 737 1743
0 736 2006
0 736 2267
0 735 2519
0 736 2762
0 736 2999
0 737 3234
0 737 3470
0 737 3704
0 738 3942
0 982 0
0 983 193
0 981 450
0 980 712
0 978 974
0 977 1238
0 975 1502
0 973 1762
0 973 2022
0 972 2277
0 972 2526
0 972 2766
0 974 3003
0 974 3237
0 975 3474
0 977 3710
0 977 3948
0 1220 0
0 1220 195
0 1219 454
0 1218 716
0 1217 979
0 1216 1244
0 1215 1507
0 1214 1769
0 1213 2029
0 1214 2285
0 1214 2533
0 1216 2775
0 1216 3012
0 1219 3248
0 1220 3485
0 1221 3721
0 1224 3960
0 1462 0
0 1463 204
0 1462 463
0 1462 726
0 1461 989
0 1461 1254
0 1461 1519
0 1460 1781
0 1461 2042
0 1461 2297
0 1462 2547
0 1464 2789
0 1466 3027
0 1468 3263
0 1470 3501
0 1473 3738
0 1475 3977
0 1711 0
0 1711 218
0 1712 478
0 1712 741
0 1712 1005
0 1712 1271
0 1712 1536
0 1713 1799
0 1714 2060
0 1715 2318
0 1717 2567
0 1719 2809
0 1722 3048
0 1724 3285
0 1728 3524
0 1731 3761
0 1734 4002
0 1965 0
0 1967 239
0 1967 499
0 1968 763
0 1969 1028
0 1970 1294
0 1972 1561
0 1972 1824
0 1974 2087
0 1976 2343
0 1978 2594
0 1982 2837
0 1985 3077
0 1989 3315
0 1992 3554
0 1997 3793
0 2000 4033
0 2227 11
0 2229 266
0 2231 528
0 2232 792
0 2234 1058
0 2236 1326
0 2237 1592
0 2240 1857
0 2242 2119
0 2245 2378
0 2248 2629
0 2252 2873
0 2257 3114
0 2261 3352
0 2266 3593
0 2271 3832
0 2276 4075
0 2496 46
0 2499 302
0 2502 564
0 2504 830
0 2508 1097
0 2510 1365
0 2513 1633
0 2516 1898
0 2520 2163
0 2524 2422
0 2528 2674
0 2533 2920
0 2538 3161
0 2545 3401
0 2550 3642
0 2557 3883
0 2562 4095
0 2776 91
0 2780 348
0 2784 611
0 2788 878
0 2791 1146
0 2796 1416
0 2799 1684
0 2804 1951
0 2808 2215
0 2812 2475
0 2818 2730
0 2823 2975
0 2831 3218
0 2837 3458
0 2844 3701
0 2850 3942
0 2857 4095
0 3066 146
0 3070 403
0 3076 668
0 3080 935
0 3085 1205
0 3089 1474
0 3094 1744
0 3099 2011
0 3104 2277
0 3109 2538
0 3115 2791
0 3122 3039
0 3129 3281
4 3137 3523
10 3143 3765
18 3151 4008
24 3158 4095
0 3363 208
1 3369 467
6 3374 731
12 3380 1000
16 3384 1268
22 3390 1540
26 3394 1809
32 3400 2077
37 3405 2343
43 3411 2604
50 3418 2859
56 3424 3105
64 3432 3349
71 3439 3590
79 3447 3834
86 3454 4075
92 3460 4095
62 3665 275
68 3671 533
74 3677 799
79 3682 1067
85 3688 1337
89 3693 1607
94 3698 1877
100 3703 2145
105 3708 2411
112 3715 2673
117 3721 2927
125 3728 3174
132 3735 3417
139 3743 3659
146 3750 3901
153 3756 4095
161 3764 4095
130 3968 343
137 3975 602
142 3980 867
148 3986 1136
152 3991 1404
157 3995 1675
162 4001 1945
167 4005 2212
173 4011 2478
178 4016 2739
184 4023 2994
190 4029 3240
198 4036 3483
204 4043 3723
211 4049 3966
218 4056 4095
223 4062 4095
34 27 33
46 35 62
57 43 102
67 49 156
76 55 220
84 59 298
91 62 385
97 64 485
102 66 596
106 66 716
109 66 849
112 65 987
115 64 1140
116 61 1299
117 59 1474
117 55 1653
116 50 1843
111 133 103
114 138 181
117 143 274
118 146 378
119 149 497
119 151 627
118 152 768
116 152 922
114 151 1085
111 151 1263
108 150 1448
105 149 1645
101 147 1848
96 145 2063
91 141 2285
86 138 2518
80 134 2771
116 276 101
113 281 233
109 285 380
104 288 543
98 290 718
91 291 907
85 293 1110
78 294 1324
71 295 1553
63 296 1788
56 297 2031
48 296 2273
41 297 2523
34 296 2776
27 295 3038
19 293 3303
12 291 3572
69 485 47
62 490 237
54 495 444
45 498 663
36 501 895
27 502 1136
17 502 1385
9 503 1641
0 503 1899
0 503 2161
0 502 2418
0 503 2672
0 503 2923
0 503 3174
0 503 3426
0 502 3675
0 502 3925
0 736 0
0 739 207
0 740 453
0 741 707
0 740 966
0 739 1229
0 738 1494
0 736 1757
0 736 2018
0 734 2273
0 734 2522
0 734 2761
0 734 2998
0 735 3232
0 735 3468
0 737 3704
0 737 3941
0 982 0
0 981 191
0 980 449
0 979 711
0 977 973
0 976 1238
0 974 1501
0 974 1763
0 972 2022
0 972 2277
0 972 2525
0 972 2766
0 974 3003
0 975 3238
0 976 3475
0 977 3711
0 979 3950
0 1220 0
0 1220 195
0 1219 454
0 1218 716
0 1218 980
0 1216 1244
0 1216 1509
0 1215 1770
0 1215 2031
0 1215 2286
0 1216 2536
0 1217 2776
0 1218 3014
0 1221 3250
0 1222 3487
0 1225 3724
0 1226 3962
0 1464 0
0 1464 205
0 1464 465
0 1464 728
0 1464 991
0 1464 1257
0 1463 1521
0 1464 1784
0 1464 2045
0 1465 2302
0 1466 2551
0 1467 2792
0 1470 3031
0 1472 3267
0 1475 3506
0 1477 3742
0 1480 3983
0 1714 0
0 1715 221
0 1716 482
0 1715 745
0 1717 1010
0 1716 1275
1 1718 1542
1 1718 1804
3 1719 2066
4 1720 2323
5 1722 2572
8 1725 2815
11 1728 3054
15 1732 3292
18 1734 3530
21 1738 3769
24 1741 4009
19 1970 0
21 1972 244
22 1973 505
24 1975 770
24 1976 1034
26 1977 1302
27 1978 1567
28 1980 1831
30 1981 2093
32 1983 2351
35 1986 2602
38 1989 2845
43 1994 3086
46 1997 3323
51 2002 3563
54 2005 3802
59 2010 4043
48 2234 19
50 2236 274
53 2239 536
55 2241 801
57 2243 1067
59 2245 1334
61 2247 1602
63 2249 1866
66 2252 2129
69 2255 2388
73 2258 2640
78 2264 2885
82 2268 3125
88 2273 3364
92 2278 3605
98 2284 3845
103 2289 4087
86 2506 56
90 2510 313
92 2513 575
96 2517 842
99 2519 1108
102 2523 1378
105 2526 1646
108 2529 1911
112 2533 2176
116 2537 2435
121 2542 2689
126 2547 2933
133 2554 3176
138 2559 3415
145 2566 3657
151 2572 3898
156 2577 4095
134 2790 105
138 2794 362
143 2799 626
147 2802 893
151 2807 1161
155 2810 1430
158 2814 1699
163 2819 1966
167 2823 2231
173 2829 2492
178 2834 2746
185 2841 2992
191 2847 3234
198 2854 3475
205 2861 3718
212 2867 3959
219 2875 4095
191 3082 162
197 3088 421
202 3092 684
207 3098 953
211 3102 1221
216 3107 1492
221 3111 1761
225 3116 2028
231 3122 2295
236 3127 2555
243 3134 2810
249 3140 3056
257 3148 3300
264 3155 3541
271 3161 3783
278 3169 4026
285 3176 4095
256 3382 227
261 3387 484
267 3393 750
272 3398 1018
277 3403 1287
282 3408 1558
287 3413 1827
293 3419 2096
298 3424 2361
305 3430 2623
310 3436 2878
318 3444 3125
325 3451 3368
332 3457 3608
340 3465 3852
346 3472 4094
354 3480 4095
323 3684 294
330 3691 553
335 3696 818
340 3701 1086
346 3706 1356
350 3711 1626
356 3717 1897
361 3722 2164
367 3728 2430
372 3733 2691
379 3740 2946
385 3746 3192
392 3753 3435
400 3761 3677
406 3767 3919
414 3775 4095
420 3781 4095
392 3988 362
397 3993 621
402 3998 885
408 4004 1154
412 4008 1422
418 4014 1693
422 4018 1963
428 4024 2231
432 4029 2496
438 4035 2757
444 4040 3011
450 4047 3257
457 4053 3500
463 4059 3740
470 4066 3983
476 4072 4095
483 4079 4095
93 49 63
107 54 106
122 59 162
134 62 230
146 65 310
157 66 402
166 67 505
176 67 621
184 66 747
192 64 886
198 61 1032
205 59 1189
211 55 1352
216 51 1524
220 46 1711
224 40 1905
228 34 2120
199 147 109
207 150 203
212 152 311
217 154 432
221 154 565
224 153 711
228 153 873
230 151 1044
233 150 1231
234 147 1424
235 145 1628
236 141 1834
236 138 2050
237 135 2282
237 130 2524
237 127 2783
236 122 3047
243 290 90
243 292 238
243 295 403
243 296 583
242 298 777
241 299 987
239 299 1208
238 299 1441
234 298 1680
232 297 1928
228 296 2176
226 295 2427
223 293 2679
219 291 2934
216 290 3197
213 287 3459
210 285 3729
241 501 25
238 505 231
234 506 451
229 507 684
225 508 927
219 507 1177
214 507 1435
209 506 1695
204 505 1959
199 503 2220
196 503 2478
193 502 2728
190 501 2975
189 502 3219
188 501 3462
188 502 3702
188 502 3940
211 745 0
207 745 198
203 744 450
199 744 710
196 742 971
194 741 1236
191 739 1499
190 738 1761
189 736 2020
188 735 2274
187 735 2522
187 735 2762
188 736 2999
189 736 3233
190 738 3471
191 738 3706
192 740 3944
202 983 0
201 982 192
200 981 451
198 980 712
198 979 975
196 978 1239
195 977 1504
194 975 1764
193 975 2024
193 974 2280
193 974 2528
194 976 2769
195 977 3006
197 979 3242
198 979 3478
200 981 3715
201 982 3953
207 1223 0
207 1223 198
206 1222 457
206 1222 720
205 1221 983
205 1221 1248
204 1220 1512
204 1220 1775
204 1219 2035
204 1219 2290
205 1220 2540
206 1221 2780
208 1224 3019
210 1225 3254
212 1228 3493
214 1230 3729
216 1232 3968
219 1468 0
219 1469 210
219 1469 470
219 1469 732
219 1469 997
219 1469 1262
220 1469 1528
219 1469 1790
219 1469 2050
221 1471 2307
222 1472 2557
225 1474 2799
227 1477 3037
230 1480 3275
232 1482 3513
235 1485 3750
238 1488 3990
235 1720 0
237 1722 228
238 1722 488
239 1723 753
239 1723 1017
240 1725 1284
241 1725 1549
241 1725 1811
243 1727 2074
244 1728 2330
247 1731 2582
249 1734 2824
253 1737 3064
256 1740 3300
259 1744 3540
263 1747 3778
266 1750 4018
260 1979 0
262 1981 253
264 1983 514
265 1984 778
267 1985 1044
268 1986 1311
269 1988 1577
271 1990 1841
272 1991 2103
275 1994 2362
278 1997 2613
282 2001 2857
286 2005 3096
291 2010 3335
295 2013 3575
299 2018 3814
304 2023 4056
291 2245 29
294 2248 285
296 2250 547
299 2253 813
301 2255 1079
303 2257 1347
306 2260 1614
308 2262 1879
312 2265 2143
315 2268 2401
319 2273 2654
324 2277 2898
330 2283 3140
334 2288 3379
339 2293 3619
345 2299 3860
350 2304 4095
332 2521 71
336 2524 327
340 2528 590
343 2531 856
346 2534 1124
350 2538 1393
352 2541 1661
357 2545 1927
360 2549 2191
366 2554 2452
370 2559 2705
377 2565 2951
382 2570 3193
388 2576 3432
395 2583 3675
401 2589 3916
408 2596 4095
383 2806 121
389 2812 380
392 2816 643
396 2820 910
401 2824 1179
405 2828 1448
410 2833 1718
414 2837 1984
419 2843 2250
424 2847 2511
430 2854 2765
436 2860 3011
443 2867 3254
450 2874 3495
457 2880 3737
465 2888 3980
471 2894 4095
443 3102 182
448 3107 439
454 3112 705
459 3117 972
463 3121 1240
468 3127 1512
473 3131 1781
479 3137 2049
483 3142 2314
490 3148 2576
496 3154 2830
502 3161 3077
510 3168 3321
517 3175 3561
525 3183 3805
531 3190 4046
539 3198 4095
508 3402 247
515 3408 506
520 3413 770
525 3418 1038
531 3424 1308
535 3429 1578
541 3434 1849
546 3439 2116
552 3446 2383
557 3451 2644
564 3457 2898
571 3464 3146
578 3471 3388
586 3479 3630
592 3486 3873
600 3494 4095
607 3500 4095
577 3705 315
583 3711 574
588 3716 838
594 3722 1107
598 3727 1376
604 3733 1647
609 3737 1917
615 3743 2185
620 3748 2451
625 3753 2711
632 3760 2966
638 3766 3212
645 3774 3456
652 3780 3696
659 3788 3940
666 3794 4095
673 3802 4095
644 4008 382
650 4014 641
655 4019 906
660 4024 1173
665 4029 1443
670 4033 1713
675 4039 1983
679 4043 2250
685 4049 2516
689 4053 2776
695 4058 3029
701 4065 3276
707 4071 3518
714 4078 3759
720 4084 4000
727 4091 4095
732 4095 4095
174 63 85
192 66 143
209 67 214
224 68 296
239 68 393
253 67 500
267 66 621
279 63 752
291 60 897
302 56 1049
313 51 1210
322 47 1379
332 41 1557
342 35 1750
350 29 1953
360 22 2174
367 14 2400
313 155 110
323 156 219
332 156 342
342 156 481
350 154 632
359 153 800
366 150 977
373 147 1168
378 143 1367
384 139 1577
390 135 1797
395 131 2023
402 127 2263
407 123 2508
412 118 2767
416 113 3027
