3DLUTS/GC_VENOM_LUTS/Additional_Formats/3DL/GC_Venom_709/GC_Venom_Vlasta_709.3dl
# Converted by Briz LUT Converter
0 128 256 384 512 640 768 896 1023
0 0 0
13 13 33
25 25 120
34 34 262
39 39 457
39 39 698
36 36 985
29 29 1318
19 19 1693
0 287 0
0 276 437
0 270 842
0 263 1270
0 254 1722
0 244 2206
0 233 2727
0 221 3283
0 207 3865
0 769 0
0 747 454
0 736 1133
0 727 1790
0 719 2436
0 711 3068
0 703 3677
0 697 4095
0 691 4095
0 1368 0
0 1332 349
0 1314 1082
0 1300 1756
0 1290 2393
0 1282 3006
0 1274 3598
0 1269 4095
0 1266 4095
0 1946 0
0 1913 269
0 1896 1004
0 1884 1679
0 1875 2318
0 1869 2932
0 1863 3526
0 1859 4095
0 1857 4095
0 2541 0
0 2509 202
0 2493 938
0 2483 1614
0 2474 2254
0 2469 2869
0 2465 3465
0 2463 4045
0 2462 4095
0 3148 0
0 3116 145
0 3101 881
0 3091 1557
0 3084 2198
0 3079 2814
0 3076 3411
0 3074 3992
0 3074 4095
0 3762 0
0 3730 91
0 3715 828
0 3706 1506
0 3699 2147
0 3695 2763
0 3692 3360
0 3690 3941
0 3689 4095
0 4095 0
0 4095 39
0 4095 776
0 4095 1454
0 4095 2095
0 4095 2711
0 4095 3306
0 4095 3887
0 4095 4095
99 49 49
119 51 201
138 51 389
153 47 621
164 40 899
173 30 1219
179 17 1581
181 1 1982
181 0 2421
202 319 0
172 297 501
149 281 992
128 267 1498
105 252 2029
82 237 2583
59 221 3164
37 206 3779
15 191 4095
0 813 0
0 782 464
0 765 1187
0 750 1862
0 739 2500
0 729 3111
0 721 3703
0 715 4095
0 710 4095
0 1388 0
0 1353 370
0 1335 1104
0 1322 1777
0 1311 2415
0 1304 3028
0 1298 3622
0 1293 4095
0 1290 4095
0 1972 0
0 1939 295
0 1922 1030
0 1910 1705
0 1901 2344
0 1895 2958
0 1891 3554
0 1888 4095
0 1886 4095
0 2570 0
0 2538 231
0 2522 967
0 2511 1643
0 2504 2284
0 2499 2899
0 2496 3496
0 2494 4076
0 2493 4095
0 3179 0
0 3147 175
0 3132 912
0 3123 1589
0 3116 2231
0 3112 2847
0 3109 3443
0 3107 4024
0 3105 4095
0 3793 0
0 3762 124
0 3748 861
0 3738 1538
0 3732 2180
0 3727 2795
0 3723 3392
0 3722 3973
0 3721 4095
0 4095 0
0 4095 72
0 4095 809
0 4095 1485
0 4095 2126
0 4095 2741
0 4095 3338
0 4095 3918
0 4095 4095
325 65 65
351 52 342
379 39 625
405 24 943
428 6 1298
449 0 1689
467 0 2120
483 0 2589
496 0 3089
569 314 0
550 282 527
540 259 1105
532 238 1684
526 220 2283
520 202 2900
514 184 3527
507 168 4095
501 154 4095
520 814 0
483 778 453
463 758 1184
449 744 1857
438 732 2494
429 724 3106
422 717 3698
416 711 4095
412 707 4095
433 1385 0
397 1350 367
380 1332 1101
367 1320 1775
358 1310 2414
351 1303 3028
345 1298 3622
342 1294 4095
339 1291 4095
360 1973 0
326 1940 296
310 1924 1031
299 1913 1707
291 1905 2347
285 1899 2962
281 1895 3558
279 1892 4095
276 1890 4095
298 2575 0
266 2543 236
251 2528 972
241 2518 1649
234 2511 2290
229 2506 2906
225 2502 3502
223 2500 4082
222 2499 4095
244 3186 0
213 3155 183
199 3140 920
189 3131 1597
182 3124 2239
177 3118 2854
174 3115 3450
172 3114 4031
172 3113 4095
193 3801 0
162 3770 132
148 3756 869
137 3745 1545
131 3739 2187
126 3734 2803
123 3731 3399
121 3730 3980
121 3729 4095
140 4095 0
108 4095 78
93 4095 814
83 4095 1491
76 4095 2132
71 4095 2748
68 4095 3344
64 4095 3923
64 4095 4095
691 42 42
724 15 442
763 0 815
801 0 1214
838 0 1645
872 0 2108
903 0 2598
935 0 3132
966 0 3701
1086 281 0
1079 242 525
1085 216 1183
1090 193 1827
1094 173 2467
1097 155 3103
1098 140 3728
1095 129 4095
1091 121 4095
1112 795 0
1077 760 434
1058 741 1167
1044 727 1841
1034 717 2478
1025 708 3090
1019 702 3683
1014 697 4095
1009 692 4095
1031 1371 0
997 1338 355
980 1320 1089
968 1308 1764
959 1300 2403
952 1293 3017
947 1288 3612
943 1284 4095
940 1281 4095
963 1964 0
930 1932 288
914 1916 1024
904 1905 1700
896 1898 2340
890 1892 2955
886 1887 3550
883 1885 4095
882 1884 4095
905 2569 0
873 2538 231
858 2523 967
848 2513 1644
841 2506 2285
835 2500 2900
832 2497 3497
831 2495 4078
830 2495 4095
852 3182 0
821 3151 179
806 3136 916
796 3126 1592
790 3119 2234
785 3115 2850
782 3112 3447
781 3111 4028
780 3110 4095
801 3797 0
770 3766 127
755 3751 864
745 3742 1542
739 3735 2183
734 3730 2799
731 3727 3395
728 3724 3975
727 3723 4095
747 4095 0
715 4095 73
700 4095 810
690 4095 1486
682 4095 2126
678 4095 2742
695 4095 3338
736 4095 3908
802 4095 4095
1199 0 0
1242 0 500
1293 0 962
1342 0 1437
1394 0 1941
1445 0 2473
1493 0 3033
1540 0 3622
1588 0 4095
1742 232 0
1737 189 502
1742 163 1215
1744 142 1889
1742 126 2534
1735 115 3150
1727 106 3741
1720 100 4095
1715 95 4095
1738 771 0
1703 736 411
1685 717 1144
1672 704 1818
1662 694 2456
1653 686 3068
1647 679 3661
1642 675 4095
1639 672 4095
1661 1352 0
1628 1319 336
1611 1302 1071
1600 1290 1746
1591 1282 2385
1584 1274 2999
1579 1270 3594
1576 1267 4095
1574 1265 4095
1597 1949 0
1565 1916 273
1550 1901 1009
1538 1890 1684
1531 1882 2325
1526 1877 2940
1522 1873 3536
1520 1871 4095
1519 1870 4095
1542 2556 0
1511 2525 218
1495 2509 954
1485 2499 1631
1478 2493 2272
1474 2488 2888
1471 2485 3485
1469 2483 4066
1469 2483 4095
1490 3169 0
1459 3138 166
1444 3124 903
1435 3114 1581
1428 3108 2222
1424 3103 2839
1421 3100 3435
1418 3098 4015
1418 3097 4095
1439 3785 0
1408 3754 115
1393 3739 852
1383 3729 1530
1376 3722 2170
1371 3717 2785
1367 3713 3382
1365 3711 3962
1364 3710 4095
1384 4095 0
1352 4095 59
1338 4095 798
1346 4095 1490
1374 4095 2148
1424 4095 2768
1495 4095 3345
1588 4095 3871
1701 4095 4095
1851 0 0
1905 0 520
1968 0 1067
2033 0 1619
2097 0 2190
2165 0 2787
2230 0 3408
2286 0 4038
2334 0 4095
2459 178 0
2435 139 466
2419 118 1197
2403 103 1869
2392 91 2506
2383 82 3117
2375 75 3709
2370 69 4095
2365 65 4095
2389 742 0
2355 707 382
2336 689 1115
2323 676 1789
2313 666 2427
2306 659 3041
2301 653 3635
2297 649 4095
2294 646 4095
2317 1327 0
2284 1295 312
2267 1277 1046
2256 1266 1721
2247 1258 2361
2242 1252 2976
2237 1248 3571
2235 1245 4095
2233 1243 4095
2256 1927 0
2224 1895 251
2208 1879 987
2198 1869 1664
2191 1862 2305
2186 1857 2921
2183 1854 3517
2181 1852 4095
2180 1851 4095
2202 2536 0
2171 2505 198
2156 2491 935
2147 2481 1613
2140 2474 2254
2136 2470 2870
2132 2467 3467
2130 2464 4047
2130 2464 4095
2152 3151 0
2121 3120 148
2107 3106 886
2097 3096 1563
2090 3089 2204
2085 3084 2819
2082 3081 3416
2080 3080 3997
2080 3079 4095
2101 3766 0
2069 3735 97
2053 3719 832
2044 3709 1509
2037 3702 2151
2032 3697 2766
2028 3694 3362
2026 3692 3943
2024 3690 4095
2060 4095 0
2055 4095 140
2080 4095 925
2125 4095 1637
2189 4095 2288
2271 4095 2877
2367 4095 3397
2482 4095 3845
2614 4095 4095
2643 0 0
2704 0 508
2783 0 1136
2863 0 1761
2933 0 2389
2992 0 3020
3042 0 3651
3078 0 4095
3099 0 4095
3141 135 0
3104 99 427
3085 80 1159
3071 66 1832
3061 55 2469
3052 47 3082
3045 40 3674
3040 35 4095
3036 31 4095
3061 708 0
3026 673 348
3009 656 1083
2996 644 1757
2987 635 2396
2981 628 3010
2976 623 3604
2972 619 4095
2969 617 4095
2993 1298 0
2960 1265 282
2944 1249 1018
2933 1238 1694
2925 1231 2334
2920 1225 2949
2916 1221 3545
2913 1218 4095
2911 1216 4095
2935 1901 0
2903 1869 226
2888 1854 962
2878 1845 1639
2872 1838 2280
2867 1833 2896
2862 1829 3492
2861 1827 4072
2860 1826 4095
2884 2513 0
2853 2482 175
2838 2467 912
2828 2458 1589
2821 2450 2230
2816 2446 2846
2814 2443 3443
2812 2441 4024
2812 2441 4095
2834 3128 0
2803 3097 125
2787 3081 861
2778 3072 1539
2771 3065 2180
2766 3061 2796
2763 3058 3392
2762 3056 3973
2760 3055 4095
2780 3741 0
2749 3710 71
2734 3695 808
2724 3685 1485
2717 3677 2126
2711 3672 2741
2707 3667 3336
2709 3664 3913
2719 3660 4095
2806 4095 0
2819 4095 501
2860 4095 1286
2915 4095 1970
2986 4095 2571
3070 4095 3089
3168 4083 3522
3275 4066 3864
3387 4055 4095
3564 0 0
3625 0 474
3689 0 1167
3743 0 1834
3782 0 2482
3803 0 3109
3807 0 3709
3800 0 4095
3794 0 4095
3825 93 0
3790 58 386
3772 40 1119
3758 26 1793
3748 16 2430
3740 8 3043
3734 2 3636
3729 0 4095
3725 0 4095
3750 671 0
3717 638 313
3700 621 1047
3688 609 1723
3680 600 2362
3673 594 2976
3668 589 3570
3664 585 4095
3662 583 4095
3687 1266 0
3655 1233 250
3639 1218 986
3629 1207 1663
3621 1199 2303
3615 1194 2918
3611 1190 3514
3609 1188 4094
3608 1186 4095
3632 1872 0
3601 1840 197
3586 1826 933
3576 1815 1610
3568 1808 2251
3564 1803 2867
3561 1800 3463
3559 1799 4044
3558 1798 4095
3582 2485 0
3550 2453 146
3536 2438 883
3526 2429 1560
3520 2422 2202
3515 2418 2818
3512 2415 3415
3511 2413 3996
3510 2412 4095
3531 3099 0
3500 3068 96
3486 3053 833
3476 3044 1510
3469 3037 2152
3465 3032 2768
3460 3028 3363
3458 3026 3943
3457 3025 4095
3478 3712 0
3446 3680 42
3431 3665 778
3420 3654 1455
3412 3645 2105
3409 3638 2728
3410 3633 3316
3415 3631 3863
3425 3633 4095
3497 4095 219
3505 4095 1157
3534 4095 1882
3577 4073 2497
3629 4056 3006
3686 4045 3410
3750 4040 3719
3819 4041 3938
3895 4048 4074
4095 0 0
4095 0 422
4095 0 1150
4095 0 1824
4095 0 2460
4095 0 3070
4095 0 3662
4095 0 4095
4095 0 4095
4095 50 0
4095 15 343
4095 0 1076
4095 0 1750
4095 0 2389
4095 0 3001
4095 0 3595
4095 0 4095
4095 0 4095
4095 632 0
4095 599 274
4095 583 1009
4095 571 1685
4095 562 2324
4095 556 2938
4095 552 3533
4095 549 4095
4095 547 4095
4095 1231 0
4095 1199 216
4095 1183 952
4095 1172 1628
4095 1165 2268
4095 1160 2884
4095 1156 3480
4095 1154 4061
4095 1153 4095
4095 1839 0
4095 1807 163
4095 1792 900
4095 1782 1577
4095 1776 2219
4095 1771 2835
4095 1768 3431
4095 1767 4012
4095 1765 4095
4095 2452 0
4095 2421 114
4095 2407 851
4095 2397 1529
4095 2391 2170
4095 2386 2786
4095 2382 3382
4095 2380 3963
4095 2380 4095
4095 3067 0
4095 3036 64
4095 3021 801
4095 3010 1477
4095 3003 2118
4095 2998 2733
4095 2995 3330
4095 2993 3910
4095 2992 4095
4095 3677 0
4095 3644 40
4095 3627 813
4095 3616 1524
4081 3611 2184
4060 3610 2790
4041 3615 3338
4024 3625 3821
4009 3640 4095
3999 4082 1274
3982 4054 2082
3980 4040 2682
3987 4035 3157
4001 4037 3527
4022 4046 3798
4049 4062 3978
4081 4085 4076
4095 4095 4095
