3DLUTS/GC_VENOM_LUTS/Additional_Formats/3DL/GC_Venom_709/GC_Venom_Sarkan_709.3dl
# Converted by Briz LUT Converter
0 128 256 384 512 640 768 896 1023
0 0 0
11 15 21
21 30 71
27 42 167
28 50 321
24 52 544
12 47 841
0 35 1212
0 24 1606
29 253 120
23 269 253
9 275 489
0 272 859
0 261 1332
0 241 1905
0 212 2610
0 177 3423
0 151 4095
0 692 0
0 716 192
0 727 599
0 721 1196
0 706 1911
0 682 2722
0 647 3650
0 608 4095
0 588 4095
0 1313 0
0 1332 0
0 1338 451
0 1331 1078
0 1315 1803
0 1294 2608
0 1263 3526
0 1229 4095
0 1214 4095
0 1964 0
0 1986 0
0 1996 296
0 1991 926
0 1979 1654
0 1959 2462
0 1931 3381
0 1898 4095
0 1884 4095
0 2632 0
0 2654 0
0 2664 166
0 2659 796
0 2645 1523
0 2625 2329
0 2595 3247
0 2560 4095
0 2543 4095
0 3292 0
0 3314 0
0 3323 11
0 3317 640
0 3303 1366
0 3281 2172
0 3251 3090
0 3217 4062
0 3202 4095
0 3949 0
0 3971 0
0 3980 0
0 3974 497
0 3961 1223
0 3940 2030
0 3911 2949
0 3877 3921
0 3861 4095
0 4095 0
0 4095 0
0 4095 0
0 4095 452
0 4095 1178
0 4095 1984
0 4095 2902
0 4095 3874
0 4095 4095
96 42 46
129 54 99
158 60 203
179 60 380
193 53 629
200 41 954
200 21 1375
192 0 1881
189 0 2370
351 250 76
367 260 239
373 258 527
366 245 969
353 225 1529
331 197 2205
299 158 3021
259 113 3940
234 81 4095
323 680 0
334 699 131
334 704 567
321 693 1190
301 674 1912
276 649 2714
243 616 3628
205 578 4095
186 559 4095
164 1287 0
185 1308 0
192 1315 428
186 1309 1056
172 1295 1782
151 1274 2589
122 1245 3507
88 1211 4095
73 1196 4095
12 1947 0
35 1971 0
46 1981 281
41 1977 912
29 1964 1639
10 1945 2447
0 1916 3366
0 1882 4095
0 1868 4095
0 2615 0
0 2637 0
0 2646 149
0 2641 778
0 2626 1504
0 2604 2309
0 2574 3226
0 2539 4095
0 2523 4095
0 3273 0
0 3295 0
0 3303 0
0 3297 620
0 3283 1347
0 3263 2154
0 3233 3072
0 3199 4044
0 3184 4095
0 3930 0
0 3953 0
0 3962 0
0 3957 479
0 3943 1205
0 3923 2013
0 3892 2930
0 3858 3902
0 3843 4095
0 4095 0
0 4095 0
0 4095 0
0 4095 432
0 4095 1158
0 4095 1964
0 4095 2882
0 4095 3853
0 4095 4095
377 42 51
438 42 131
491 36 286
533 22 540
566 1 881
591 0 1309
606 0 1844
615 0 2477
633 0 3063
911 191 0
956 194 169
988 186 507
1005 165 1021
1011 136 1659
1009 101 2415
995 56 3317
972 7 4095
962 0 4095
1091 615 0
1109 632 51
1113 636 499
1104 627 1124
1087 610 1847
1062 585 2650
1030 553 3566
994 517 4095
977 500 4095
957 1230 0
979 1252 0
988 1261 374
983 1256 1003
970 1243 1730
949 1222 2537
920 1193 3455
886 1159 4095
873 1146 4095
813 1898 0
836 1921 0
846 1932 232
842 1927 862
829 1914 1589
808 1894 2396
780 1865 3315
746 1831 4095
731 1816 4095
679 2562 0
701 2584 0
709 2592 94
702 2585 722
687 2570 1448
666 2549 2254
636 2519 3172
601 2484 4095
586 2469 4095
521 3218 0
544 3241 0
553 3250 0
547 3244 568
534 3231 1294
513 3210 2101
483 3180 3019
449 3145 3991
434 3131 4095
380 3878 0
403 3900 0
412 3910 0
405 3903 425
392 3889 1152
371 3869 1959
341 3839 2877
307 3805 3849
292 3789 4095
333 4095 0
355 4095 0
364 4095 0
357 4095 378
343 4095 1103
320 4095 1908
293 4095 2826
280 4095 3794
313 4095 4095
859 0 2
949 0 110
1025 0 315
1088 0 644
1142 0 1073
1188 0 1603
1221 0 2255
1245 0 3004
1286 0 3683
1671 94 0
1738 92 63
1790 80 448
1823 57 1024
1840 26 1722
1842 0 2524
1827 0 3454
1800 0 4095
1785 0 4095
1903 541 0
1922 560 0
1927 565 428
1919 557 1054
1903 541 1778
1881 519 2584
1850 488 3501
1815 453 4095
1800 438 4095
1781 1170 0
1804 1192 0
1814 1202 315
1808 1196 943
1795 1183 1671
1776 1164 2479
1748 1136 3398
1715 1103 4095
1701 1089 4095
1641 1841 0
1664 1865 0
1673 1873 173
1668 1868 803
1655 1855 1530
1635 1835 2337
1605 1805 3255
1570 1771 4095
1555 1755 4095
1501 2499 0
1522 2520 0
1531 2529 31
1525 2523 660
1511 2509 1386
1490 2488 2192
1460 2458 3110
1424 2422 4082
1409 2407 4095
1346 3158 0
1369 3180 0
1378 3190 0
1372 3184 508
1358 3170 1233
1337 3149 2040
1308 3120 2959
1274 3086 3931
1259 3071 4095
1205 3818 0
1226 3839 0
1235 3848 0
1230 3843 365
1216 3829 1091
1195 3808 1898
1165 3778 2816
1130 3743 3787
1114 3727 4095
1156 4095 0
1178 4095 0
1185 4095 0
1183 4095 321
1190 4095 1067
1210 4095 1892
1238 4095 2803
1282 4095 3721
1364 4095 4095
1498 0 0
1611 0 50
1711 0 306
1793 0 710
1861 0 1224
1927 0 1852
1978 0 2619
2021 0 3492
2076 0 4095
2515 0 0
2586 0 0
2632 0 383
2650 0 997
2648 0 1719
2628 0 2524
2593 0 3437
2555 0 4095
2537 0 4095
2657 488 0
2676 508 0
2684 515 378
2677 508 1005
2662 494 1731
2642 473 2537
2612 443 3456
2578 409 4095
2563 394 4095
2546 1127 0
2569 1150 0
2579 1160 273
2574 1156 903
2562 1143 1631
2543 1124 2439
2514 1095 3358
2481 1062 4095
2467 1048 4095
2405 1799 0
2428 1822 0
2437 1831 131
2432 1825 760
2418 1811 1486
2397 1791 2293
2366 1760 3210
2330 1724 4095
2315 1708 4095
2262 2453 0
2284 2475 0
2293 2484 0
2287 2478 615
2272 2463 1340
2251 2443 2147
2222 2413 3066
2188 2379 4038
2173 2364 4095
2110 3115 0
2131 3136 0
2140 3145 0
2135 3140 463
2121 3126 1190
2101 3106 1997
2072 3077 2915
2037 3042 3887
2021 3026 4095
1967 3773 0
1989 3795 0
1998 3804 0
1992 3798 321
1977 3783 1046
1956 3762 1852
1926 3732 2770
1891 3697 3741
1875 3681 4095
1920 4095 0
1959 4095 0
1998 4095 0
2035 4095 464
2079 4095 1234
2131 4095 2040
2189 4095 2884
2263 4095 3692
2374 4095 4095
2286 0 0
2417 0 0
2537 0 265
2638 0 742
2724 0 1341
2796 0 2056
2856 0 2919
2904 0 3885
2958 0 4095
3356 0 0
3395 0 0
3403 0 325
3393 0 950
3375 0 1672
3351 0 2476
3318 0 3390
3281 0 4095
3264 0 4095
3386 446 0
3408 468 0
3417 476 339
3411 471 968
3397 457 1694
3377 437 2502
3348 408 3421
3314 373 4095
3300 359 4095
3284 1094 0
3307 1117 0
3318 1127 240
3313 1123 870
3301 1110 1598
3281 1091 2406
3251 1061 3324
3218 1028 4095
3203 1013 4095
3141 1763 0
3163 1785 0
3172 1794 94
3166 1788 723
3150 1772 1447
3129 1751 2253
3099 1721 3171
3064 1686 4095
3049 1671 4095
2996 2416 0
3018 2437 0
3026 2446 0
3021 2441 578
3007 2427 1304
2987 2407 2111
2957 2377 3030
2923 2343 4002
2907 2327 4095
2844 3078 0
2867 3100 0
2876 3110 0
2871 3104 428
2857 3090 1154
2836 3069 1960
2806 3039 2878
2772 3005 3850
2756 2990 4095
2702 3736 0
2723 3757 0
2731 3766 0
2725 3760 282
2711 3745 1008
2689 3724 1814
2658 3693 2731
2623 3657 3701
2611 3640 4095
2706 4095 0
2763 4095 0
2816 4095 177
2864 4095 886
2918 4095 1633
2980 4095 2372
3048 4095 3093
3125 4076 3729
3225 4054 4095
3197 0 0
3343 0 0
3467 0 202
3572 0 747
3659 0 1419
3723 0 2202
3758 0 3120
3772 0 4095
3789 0 4095
4072 0 0
4090 0 0
4095 0 285
4087 0 911
4071 0 1635
4047 0 2439
4016 0 3356
3980 0 4095
3964 0 4095
4090 417 0
4095 439 0
4095 449 311
4095 444 941
4095 430 1667
4083 410 2475
4054 382 3394
4021 349 4095
4008 335 4095
3992 1069 0
4015 1093 0
4026 1103 215
4020 1098 845
4007 1084 1571
3987 1064 2379
3957 1035 3297
3923 1000 4095
3908 985 4095
3844 1734 0
3865 1755 0
3873 1763 63
3867 1757 692
3853 1742 1417
3832 1722 2224
3802 1692 3142
3768 1657 4095
3751 1641 4095
3699 2387 0
3722 2409 0
3731 2418 0
3726 2413 550
3712 2399 1277
3691 2378 2083
3661 2348 3001
3627 2314 3974
3612 2300 4095
3549 3050 0
3572 3073 0
3580 3081 0
3574 3075 399
3560 3061 1125
3540 3041 1932
3510 3011 2850
3476 2977 3822
3459 2960 4095
3404 3706 0
3426 3728 0
3434 3736 0
3427 3729 252
3412 3713 979
3390 3690 1797
3363 3657 2718
3334 3622 3664
3328 3608 4095
3416 4095 0
3463 4095 300
3505 4095 920
3543 4095 1611
3584 4095 2280
3628 4075 2885
3676 4052 3419
3730 4036 3840
3793 4033 4067
4095 0 0
4095 0 0
4095 0 141
4095 0 738
4095 0 1452
4095 0 2258
4095 0 3177
4095 0 4095
4095 0 4095
4095 0 0
4095 0 0
4095 0 262
4095 0 889
4095 0 1613
4095 0 2420
4095 0 3337
4095 0 4095
4095 0 4095
4095 402 0
4095 425 0
4095 435 298
4095 430 927
4095 417 1654
4095 398 2463
4095 370 3382
4095 337 4095
4095 323 4095
4095 1057 0
4095 1078 0
4095 1088 201
4095 1083 830
4095 1069 1556
4095 1048 2363
4095 1018 3281
4095 983 4095
4095 966 4095
4095 1715 0
4095 1737 0
4095 1746 46
4095 1740 675
4095 1726 1401
4095 1705 2207
4095 1674 3125
4095 1640 4095
4095 1625 4095
4095 2371 0
4095 2394 0
4095 2403 0
4095 2397 534
4095 2383 1260
4095 2363 2068
4095 2333 2986
4095 2299 3958
4095 2284 4095
4095 3034 0
4095 3056 0
4095 3065 0
4095 3059 383
4095 3045 1109
4095 3024 1914
4095 2993 2832
4095 2958 3804
4095 2943 4095
4060 3688 0
4080 3708 0
4081 3713 0
4065 3704 328
4039 3687 1097
4007 3666 1919
3967 3641 2797
3927 3616 3653
3906 3615 4095
3929 4095 812
3944 4095 1376
3954 4083 1971
3962 4068 2557
3973 4057 3078
3987 4051 3483
4002 4050 3787
4024 4055 3989
4053 4070 4077
4095 0 0
4095 0 0
4095 0 128
4095 0 751
4095 0 1472
4095 0 2275
4095 0 3190
4095 0 4095
4095 0 4095
4095 0 0
4095 0 0
4095 0 282
4095 0 911
4095 0 1637
4095 0 2444
4095 0 3363
4095 0 4095
4095 0 4095
4095 429 0
4095 453 0
4095 463 325
4095 458 956
4095 446 1683
4095 427 2491
4095 398 3411
4095 364 4095
4095 349 4095
4095 1082 0
4095 1104 0
4095 1113 226
4095 1107 855
4095 1093 1580
4095 1071 2386
4095 1040 3303
4095 1005 4095
4095 990 4095
4095 1739 0
4095 1761 0
4095 1770 70
4095 1763 698
4095 1750 1425
4095 1729 2232
4095 1700 3150
4095 1666 4095
4095 1651 4095
4095 2396 0
4095 2418 0
4095 2428 0
4095 2422 560
4095 2409 1286
4095 2388 2093
4095 2358 3010
4095 2323 3983
4095 2308 4095
4095 3059 0
4095 3081 0
4095 3089 0
4095 3082 406
4095 3068 1131
4095 3047 1938
4095 3016 2855
4095 2981 3826
4095 2965 4095
4095 3703 0
4095 3720 0
4095 3726 0
4095 3720 708
4095 3709 1464
4095 3699 2234
4095 3690 3008
4095 3686 3714
4095 3703 4095
4095 4067 2125
4095 4067 2653
4095 4066 3118
4092 4066 3502
4087 4072 3802
4090 4083 4001
4095 4095 4089
4095 4095 4095
4095 4095 4095
