3DLUTS/GC_VENOM_LUTS/Additional_Formats/3DL/GC_Venom_709/GC_Venom_Ayla_709.3dl
# Converted by Briz LUT Converter
0 64 128 192 256 320 384 448 512 576 640 704 768 832 896 960 1023
0 0 0
0 0 0
0 0 0
0 0 0
0 0 0
7 7 21
15 15 63
22 22 114
28 27 176
33 31 247
37 35 328
39 37 415
41 39 509
42 39 614
42 39 726
42 39 844
41 37 973
30 63 28
31 70 70
31 77 118
31 83 175
30 88 240
28 93 313
26 96 395
22 99 485
18 102 582
14 103 687
9 104 801
3 105 922
0 105 1054
0 104 1192
0 103 1337
0 101 1493
0 98 1654
5 182 0
0 186 96
0 190 191
0 194 290
0 197 396
0 200 511
0 201 632
0 203 761
0 205 901
0 206 1048
0 206 1203
0 206 1369
0 206 1540
0 205 1721
0 204 1915
0 203 2116
0 201 2332
0 333 0
0 336 54
0 339 197
0 342 343
0 345 497
0 349 658
0 352 828
0 355 1006
0 357 1192
0 359 1388
0 360 1592
0 362 1808
0 364 2034
0 366 2268
0 367 2511
0 367 2758
0 368 3012
0 542 0
0 545 0
0 551 154
0 556 356
0 562 563
0 566 776
0 570 996
0 575 1224
0 579 1459
0 584 1702
0 588 1948
0 591 2199
0 594 2455
0 597 2714
0 600 2976
0 604 3241
0 607 3504
0 823 0
0 825 0
0 829 84
0 833 337
0 839 591
0 844 846
0 848 1102
0 853 1360
0 856 1617
0 860 1873
0 865 2128
0 869 2378
0 875 2627
0 880 2873
0 885 3118
0 892 3363
0 898 3606
0 1129 0
0 1127 0
0 1129 60
0 1131 341
0 1135 614
0 1140 883
0 1144 1146
0 1152 1409
0 1159 1668
0 1167 1926
0 1177 2182
0 1185 2436
0 1196 2689
0 1206 2940
0 1217 3192
0 1229 3442
0 1241 3690
0 1440 0
0 1442 0
0 1449 124
0 1456 410
0 1466 690
0 1475 963
0 1486 1232
0 1498 1500
0 1509 1763
0 1521 2024
0 1533 2284
0 1546 2541
0 1560 2798
0 1573 3052
0 1587 3306
0 1600 3557
0 1614 3807
0 1796 0
0 1801 0
0 1812 235
0 1822 524
0 1834 806
0 1845 1081
0 1857 1352
0 1871 1621
0 1884 1886
0 1899 2150
0 1912 2410
0 1926 2669
0 1941 2927
0 1955 3182
0 1971 3438
0 1986 3690
0 2002 3944
0 2173 0
0 2182 62
0 2192 366
0 2203 656
0 2217 939
0 2230 1216
0 2245 1490
0 2258 1759
0 2272 2025
0 2288 2290
0 2302 2551
0 2319 2812
0 2334 3070
0 2350 3328
0 2366 3583
0 2381 3836
0 2398 4090
0 2563 0
0 2573 205
0 2584 510
0 2598 803
0 2611 1086
0 2624 1363
0 2640 1638
0 2654 1907
0 2670 2176
0 2685 2440
9 2702 2703
25 2717 2963
40 2732 3221
57 2749 3479
72 2764 3734
89 2782 3990
105 2797 4095
25 2962 8
33 2970 358
44 2981 663
59 2996 956
72 3009 1239
87 3024 1518
101 3038 1791
117 3054 2062
131 3068 2329
146 3083 2593
162 3099 2856
177 3114 3115
193 3131 3375
208 3145 3631
224 3161 3886
239 3177 4095
254 3192 4095
179 3359 162
186 3367 511
199 3380 818
211 3392 1109
226 3406 1393
239 3419 1670
252 3432 1942
267 3448 2213
281 3461 2478
296 3476 2743
310 3490 3003
325 3505 3264
339 3519 3520
352 3533 3775
368 3548 4030
381 3562 4095
397 3577 4095
327 3749 311
336 3758 661
346 3768 965
357 3779 1255
370 3792 1538
382 3804 1813
396 3818 2086
408 3829 2353
421 3843 2619
433 3855 2880
446 3868 3140
460 3881 3398
472 3894 3653
486 3907 3908
497 3919 4095
511 3933 4095
522 3944 4095
466 4095 449
472 4095 797
480 4095 1099
491 4095 1389
501 4095 1668
513 4095 1944
523 4095 2213
534 4095 2480
545 4095 2743
556 4095 3002
568 4095 3261
578 4095 3516
590 4095 3771
609 4095 4020
642 4095 4095
684 4095 4095
736 4095 4095
588 4095 571
591 4095 916
599 4095 1218
613 4095 1509
642 4095 1799
680 4095 2084
731 4095 2364
794 4095 2639
864 4095 2902
950 4095 3157
1041 4095 3398
1149 4095 3626
1260 4095 3835
1381 4095 4028
1499 4095 4095
1614 4095 4095
1724 4095 4095
1043 4095 1029
1143 4095 1419
1249 4095 1754
1369 4095 2068
1482 4095 2351
1598 4095 2613
1705 4095 2848
1809 4095 3062
1922 4095 3262
2033 4095 3443
2151 4095 3609
2259 4095 3754
2367 4095 3884
2462 4095 3997
2556 4095 4095
2651 4095 4095
2743 4095 4095
0 0 0
0 0 0
8 6 11
22 14 38
34 20 74
46 26 120
57 30 175
66 33 241
75 35 313
82 37 393
89 37 484
95 37 581
100 36 686
104 35 802
108 32 922
111 29 1050
113 26 1186
78 82 29
82 87 87
85 91 148
88 94 218
90 97 295
92 99 379
93 100 473
93 101 573
92 101 682
92 100 801
90 99 926
88 98 1059
86 96 1202
82 93 1350
79 90 1507
75 87 1677
70 82 1853
84 193 0
79 194 89
75 196 197
70 198 310
65 199 429
60 200 557
54 201 692
48 201 835
41 200 988
34 199 1147
26 198 1315
18 197 1495
9 195 1684
0 193 1885
0 191 2092
0 188 2305
0 184 2532
24 342 0
12 342 27
1 344 185
0 347 348
0 349 517
0 350 692
0 352 877
0 353 1069
0 354 1273
0 355 1485
0 356 1706
0 357 1936
0 357 2171
0 357 2413
0 357 2667
0 357 2925
0 357 3191
0 556 0
0 558 0
0 560 129
0 563 346
0 567 569
0 571 797
0 575 1032
0 578 1271
0 580 1514
0 583 1764
0 585 2016
0 588 2274
0 591 2533
0 594 2792
0 597 3052
0 600 3308
0 603 3561
0 834 0
0 834 0
0 837 59
0 840 324
0 844 587
0 847 849
0 849 1109
0 854 1369
0 857 1626
0 862 1880
0 867 2132
0 872 2382
0 878 2631
0 885 2878
0 893 3126
0 901 3373
0 910 3619
0 1132 0
0 1131 0
0 1133 64
0 1136 346
0 1142 622
0 1149 892
0 1157 1159
0 1165 1423
0 1173 1683
0 1183 1942
0 1193 2199
0 1204 2455
0 1216 2709
0 1227 2962
0 1241 3215
0 1252 3465
0 1265 3714
0 1456 0
0 1461 0
0 1468 144
0 1477 431
0 1488 712
0 1499 986
0 1510 1257
0 1522 1524
0 1533 1788
0 1547 2051
0 1560 2310
0 1574 2569
0 1587 2825
0 1600 3079
0 1615 3333
0 1628 3585
0 1644 3838
0 1822 0
0 1829 0
0 1838 262
0 1849 551
0 1861 833
0 1873 1109
0 1888 1382
2 1900 1650
17 1915 1917
30 1928 2180
44 1942 2440
60 1958 2701
74 1972 2958
90 1988 3215
105 2003 3470
120 2018 3723
136 2034 3976
56 2203 0
65 2212 92
75 2223 397
89 2236 689
101 2249 971
115 2262 1248
129 2277 1522
143 2291 1791
159 2307 2059
173 2321 2323
190 2337 2586
205 2352 2846
220 2367 3104
237 2384 3362
252 2399 3617
269 2417 3872
285 2432 4095
203 2598 0
211 2606 239
223 2617 544
237 2632 837
250 2645 1120
265 2660 1399
279 2674 1672
295 2690 1943
310 2705 2210
325 2719 2474
341 2736 2737
356 2751 2997
373 2768 3257
388 2783 3513
405 2799 3770
421 2815 4023
436 2831 4095
356 2996 42
364 3004 392
377 3017 699
390 3030 990
405 3045 1275
418 3058 1552
432 3072 1825
448 3088 2096
462 3102 2362
478 3118 2627
493 3132 2889
509 3148 3150
523 3163 3407
538 3177 3663
554 3194 3919
569 3208 4095
585 3225 4095
509 3392 195
518 3401 546
529 3412 850
541 3424 1141
555 3438 1425
568 3451 1701
583 3465 1975
596 3478 2243
610 3493 2510
624 3506 2773
637 3520 3033
652 3535 3293
665 3548 3549
680 3563 3805
693 3576 4058
708 3591 4095
721 3604 4095
655 3780 341
663 3787 690
673 3797 994
685 3809 1285
696 3820 1566
709 3833 1842
720 3844 2113
732 3857 2380
745 3869 2645
757 3881 2906
770 3894 3166
782 3906 3423
795 3919 3679
806 3930 3931
819 3943 4095
831 3955 4095
842 3966 4095
789 4095 475
794 4095 821
803 4095 1125
812 4095 1412
823 4095 1693
833 4095 1966
842 4095 2235
854 4095 2502
863 4095 2763
875 4095 3024
892 4095 3281
921 4095 3536
959 4095 3783
1007 4095 4023
1067 4095 4095
1133 4095 4095
1214 4095 4095
910 4095 596
931 4095 958
963 4095 1278
1008 4095 1588
1063 4095 1889
1127 4095 2180
1203 4095 2462
1284 4095 2730
1382 4095 2989
1483 4095 3229
1595 4095 3453
1700 4095 3656
1807 4095 3841
1906 4095 4007
2002 4095 4095
2107 4095 4095
2209 4095 4095
1592 4095 1347
1691 4095 1712
1796 4095 2025
1892 4095 2299
1986 4095 2549
2088 4095 2783
2189 4095 2996
2296 4095 3193
2395 4095 3368
2494 4095 3525
2581 4095 3663
2668 4095 3786
2753 4095 3895
2838 4095 3991
2928 4095 4075
3012 4095 4095
3098 4095 4095
27 13 13
45 20 34
62 25 65
78 29 104
93 32 155
107 35 212
120 36 278
132 36 355
143 36 438
153 35 529
163 33 631
172 30 738
180 27 853
187 24 977
194 19 1108
200 14 1246
206 9 1396
148 95 22
154 96 96
160 98 172
166 99 254
171 99 343
176 99 440
180 98 546
184 97 659
186 95 779
189 93 910
191 90 1046
192 87 1190
193 83 1347
194 79 1510
194 74 1682
194 69 1866
193 63 2053
182 199 0
180 199 77
180 199 200
179 199 326
178 198 460
176 198 602
174 196 750
171 195 906
169 193 1073
166 191 1249
162 189 1436
159 186 1630
154 182 1831
150 179 2044
145 175 2264
140 171 2498
135 167 2742
158 350 0
150 349 0
143 348 172
137 349 350
130 349 534
124 350 727
117 351 928
110 351 1137
104 352 1355
96 351 1579
89 350 1810
82 350 2052
75 350 2299
69 350 2555
62 349 2813
56 348 3074
50 347 3341
90 567 0
77 567 0
67 569 105
58 572 339
49 574 575
40 575 815
33 577 1061
26 579 1309
20 582 1562
15 584 1817
11 586 2073
8 589 2332
6 592 2587
5 594 2840
8 598 3092
11 603 3338
17 609 3581
15 845 0
5 844 0
0 845 44
0 846 318
0 849 588
0 852 854
1 856 1118
5 861 1377
10 865 1634
16 871 1889
21 877 2141
29 885 2394
37 892 2645
46 902 2895
56 911 3145
65 920 3392
76 931 3640
27 1141 0
28 1142 0
32 1147 77
39 1154 363
46 1161 640
53 1168 911
63 1177 1179
72 1186 1443
83 1197 1707
93 1208 1966
104 1219 2225
117 1232 2482
129 1243 2737
142 1256 2991
155 1269 3243
167 1282 3494
182 1296 3745
112 1482 0
119 1488 0
126 1496 172
137 1507 461
147 1517 741
158 1528 1016
171 1541 1288
183 1553 1555
197 1566 1820
209 1579 2082
221 1591 2342
236 1606 2601
249 1619 2857
265 1635 3114
279 1648 3367
294 1663 3620
309 1678 3872
232 1854 0
239 1861 0
249 1871 294
262 1884 586
273 1895 867
287 1909 1145
300 1922 1416
313 1935 1685
328 1950 1952
342 1964 2215
358 1980 2478
372 1994 2737
387 2009 2995
403 2025 3252
418 2040 3506
435 2057 3761
450 2072 4013
370 2241 0
377 2248 128
389 2260 434
402 2273 725
414 2286 1008
429 2301 1287
443 2314 1560
459 2330 1831
473 2345 2097
488 2359 2361
504 2376 2624
519 2390 2884
536 2407 3144
551 2423 3400
568 2440 3657
584 2455 3911
599 2471 4095
518 2636 0
526 2644 277
539 2657 584
551 2670 875
566 2685 1160
580 2699 1438
594 2713 1711
610 2729 1982
625 2743 2248
641 2760 2514
656 2774 2776
672 2791 3037
687 2806 3295
702 2821 3551
719 2838 3808
735 2853 4061
752 2870 4095
671 3034 80
681 3044 432
692 3055 737
704 3068 1028
719 3083 1313
732 3096 1590
748 3111 1864
762 3125 2133
777 3141 2401
791 3155 2664
805 3169 2925
821 3185 3186
836 3199 3443
851 3215 3700
866 3229 3954
881 3245 4095
895 3259 4095
822 3429 232
831 3438 582
841 3448 887
855 3461 1179
867 3473 1460
881 3487 1738
893 3500 2010
906 3513 2278
920 3527 2544
933 3540 2806
948 3555 3068
961 3567 3325
975 3582 3583
988 3594 3837
1001 3608 4089
1015 3622 4095
1028 3634 4095
966 3814 375
971 3820 723
982 3830 1027
992 3840 1316
1004 3852 1598
1015 3864 1873
1027 3875 2143
1039 3887 2411
1050 3898 2674
1063 3911 2936
1074 3922 3194
1087 3935 3451
1098 3946 3706
1109 3957 3958
1121 3970 4095
1132 3980 4095
1144 3992 4095
1093 4095 503
1099 4095 850
1106 4095 1152
1115 4095 1439
1125 4095 1719
1134 4095 1991
1144 4095 2261
1159 4095 2528
1186 4095 2794
1219 4095 3056
1263 4095 3311
1317 4095 3559
1376 4095 3794
1449 4095 4018
1525 4095 4095
1616 4095 4095
1709 4095 4095
1278 4095 706
1321 4095 1085
1378 4095 1420
1444 4095 1737
1517 4095 2039
1604 4095 2332
1695 4095 2605
1796 4095 2864
1891 4095 3099
1990 4095 3316
2079 4095 3510
2166 4095 3687
2261 4095 3849
2353 4095 3993
2453 4095 4095
2543 4095 4095
2634 4095 4095
2075 4095 1672
2158 4095 1996
2248 4095 2276
2338 4095 2527
2435 4095 2760
2525 4095 2967
2615 4095 3154
2695 4095 3318
2775 4095 3466
2852 4095 3599
2929 4095 3717
3011 4095 3824
3088 4095 3915
3167 4095 3995
3238 4095 4062
3313 4095 4095
3382 4095 4095
98 29 29
119 32 67
137 34 111
155 35 163
173 36 225
189 35 294
204 34 372
219 32 460
233 29 554
246 26 656
258 22 767
270 18 885
281 13 1011
292 7 1148
302 1 1290
311 0 1440
321 0 1602
239 100 9
248 99 100
257 99 189
266 98 284
274 96 386
282 94 496
290 92 614
296 88 738
302 85 871
309 81 1015
314 76 1165
320 71 1325
325 66 1495
329 60 1670
333 53 1854
337 47 2052
