3DLUTS/GC_VENOM_LUTS/Additional_Formats/3DL/GC_Venom_709/GC_Venom_Tiara_709.3dl
# Converted by Briz LUT Converter
0 64 128 192 256 320 384 448 512 576 640 704 768 832 896 960 1023
0 0 0
7 12 17
12 26 42
17 39 75
20 52 118
22 63 170
23 75 235
23 85 308
21 94 394
19 102 487
17 110 595
13 116 708
9 122 836
4 126 970
0 130 1114
0 133 1272
0 135 1433
22 150 162
20 162 212
18 174 270
15 185 336
12 195 415
7 204 508
2 211 612
0 218 726
0 224 848
0 229 982
0 234 1123
0 238 1275
0 240 1433
0 243 1603
0 244 1777
0 245 1963
0 245 2151
0 315 268
0 325 345
0 334 428
0 344 523
0 351 631
0 357 757
0 362 892
0 367 1036
0 370 1189
0 373 1349
0 376 1519
0 378 1695
0 379 1881
0 380 2070
0 380 2269
0 380 2470
0 380 2678
0 491 322
0 500 420
0 508 526
0 515 641
0 521 773
0 525 922
0 529 1082
0 532 1248
0 535 1424
0 537 1604
0 539 1793
0 540 1985
0 540 2183
0 541 2385
0 541 2591
0 542 2801
0 541 3012
0 684 336
0 691 451
0 698 572
0 704 704
0 709 851
0 713 1017
0 716 1191
0 720 1371
0 722 1557
0 725 1746
0 726 1938
0 728 2134
0 729 2331
0 732 2530
0 733 2728
0 736 2928
0 739 3129
0 895 320
0 903 447
0 909 578
0 916 719
0 921 874
0 926 1045
0 930 1223
0 934 1404
0 938 1590
0 942 1778
0 947 1971
0 951 2165
0 956 2364
0 961 2563
0 967 2764
0 971 2967
0 976 3170
0 1127 316
0 1136 447
0 1146 583
0 1155 727
0 1164 885
0 1170 1058
0 1178 1240
0 1184 1423
0 1191 1612
0 1197 1802
0 1203 1996
0 1209 2192
0 1215 2391
0 1221 2592
0 1227 2793
0 1233 2998
0 1239 3201
0 1386 334
0 1397 467
0 1407 603
0 1418 748
0 1427 906
0 1436 1082
0 1443 1263
0 1451 1449
0 1458 1637
0 1466 1829
0 1472 2024
0 1480 2221
0 1486 2421
0 1493 2622
0 1500 2825
0 1506 3029
0 1514 3234
0 1657 355
0 1670 490
0 1681 626
0 1693 773
0 1702 932
0 1711 1107
0 1720 1291
0 1728 1475
0 1737 1666
0 1744 1857
0 1752 2054
0 1760 2251
0 1768 2452
0 1775 2654
0 1783 2858
0 1790 3063
0 1797 3268
0 1939 380
0 1951 514
0 1965 653
0 1976 799
0 1988 960
0 1997 1136
0 2006 1319
0 2015 1505
0 2024 1696
0 2033 1889
0 2040 2085
0 2050 2284
0 2057 2484
0 2066 2687
0 2073 2891
1 2082 3098
8 2090 3303
0 2229 407
0 2243 543
0 2255 680
0 2269 828
0 2279 988
0 2290 1166
0 2300 1349
0 2310 1537
0 2319 1727
0 2328 1921
0 2337 2118
0 2345 2316
10 2354 2518
18 2362 2720
27 2371 2926
35 2379 3131
44 2388 3338
0 2527 436
0 2540 571
0 2554 711
0 2567 858
0 2579 1020
0 2589 1196
0 2600 1381
0 2609 1568
7 2620 1760
15 2628 1953
25 2638 2151
34 2647 2349
43 2656 2552
52 2665 2754
60 2673 2959
69 2682 3166
77 2690 3372
0 2829 467
0 2843 602
0 2857 742
0 2870 889
0 2882 1051
8 2893 1228
18 2902 1412
28 2913 1600
38 2922 1791
48 2933 1985
57 2942 2182
67 2951 2382
75 2960 2583
85 2969 2787
93 2978 2992
102 2987 3199
110 2995 3405
0 3133 496
0 3148 632
2 3161 771
16 3175 920
27 3187 1081
39 3198 1259
48 3208 1443
59 3219 1631
68 3228 1822
77 3237 2015
87 3247 2213
96 3255 2411
105 3265 2614
113 3273 2816
123 3282 3021
130 3290 3227
139 3299 3434
3 3439 526
17 3452 661
31 3467 801
44 3479 948
56 3492 1110
66 3502 1286
77 3513 1472
86 3522 1658
97 3532 1850
105 3541 2043
115 3551 2240
123 3559 2438
132 3567 2640
140 3576 2843
148 3583 3047
157 3592 3253
164 3599 3459
32 3743 554
45 3756 689
59 3770 828
71 3782 975
82 3793 1135
93 3804 1313
102 3813 1496
112 3823 1684
121 3831 1874
130 3841 2067
138 3849 2263
147 3858 2462
154 3865 2663
163 3874 2865
170 3881 3069
178 3889 3275
185 3896 3480
57 4040 579
71 4054 715
83 4066 853
96 4079 1000
107 4090 1160
117 4095 1337
126 4095 1520
134 4095 1706
143 4095 1896
151 4095 2088
159 4095 2285
166 4095 2482
174 4095 2683
181 4095 2884
189 4095 3087
195 4095 3291
202 4095 3497
25 38 49
32 51 79
38 63 114
44 75 160
48 86 214
52 96 281
54 104 356
56 112 444
57 119 540
57 125 649
56 130 765
54 135 892
52 138 1031
49 141 1176
46 143 1333
41 144 1495
37 145 1670
62 184 199
63 195 258
64 205 324
63 214 400
62 222 488
60 228 590
57 234 705
54 239 828
50 244 962
45 247 1103
40 250 1255
34 252 1413
28 254 1583
22 254 1757
15 255 1940
7 254 2130
0 253 2325
53 342 289
51 351 372
48 359 464
45 366 564
42 373 681
37 377 813
31 380 956
25 384 1109
19 386 1269
13 389 1437
6 390 1613
0 391 1796
0 391 1985
0 391 2181
0 391 2381
0 390 2589
0 389 2798
19 513 332
17 521 436
14 528 546
11 535 668
6 539 805
1 543 961
0 546 1125
0 549 1298
0 550 1477
0 552 1661
0 553 1852
0 553 2046
0 554 2247
0 554 2450
0 555 2658
0 555 2866
0 556 3075
0 703 343
0 709 462
0 716 587
0 722 722
0 728 873
0 731 1041
0 734 1219
0 737 1399
0 739 1585
0 741 1773
0 744 1965
0 746 2157
0 749 2353
0 752 2550
0 754 2749
0 757 2950
0 760 3150
0 914 335
0 921 464
0 929 598
0 936 739
0 942 894
0 947 1066
0 952 1245
0 957 1428
0 962 1614
1 968 1804
6 973 1997
12 979 2193
16 984 2391
22 990 2591
27 995 2792
33 1000 2996
38 1005 3199
0 1153 343
0 1164 476
0 1173 611
0 1184 755
0 1192 913
1 1200 1088
8 1207 1269
15 1214 1453
22 1220 1641
28 1227 1832
35 1234 2027
40 1239 2222
47 1246 2422
53 1252 2622
60 1259 2825
66 1265 3029
73 1272 3234
0 1416 364
0 1427 497
0 1439 634
8 1449 779
18 1459 938
26 1467 1113
35 1476 1296
42 1483 1480
50 1491 1670
57 1498 1861
65 1506 2057
72 1513 2254
79 1519 2454
86 1527 2655
93 1533 2858
100 1541 3063
107 1547 3268
0 1691 389
12 1702 522
24 1714 660
35 1726 806
45 1736 965
55 1745 1142
63 1754 1324
72 1763 1510
80 1771 1700
89 1780 1893
97 1787 2089
105 1796 2287
112 1803 2487
120 1810 2689
128 1818 2893
135 1826 3099
143 1834 3304
26 1974 415
40 1988 550
52 2000 688
64 2012 835
75 2023 995
85 2033 1172
94 2042 1355
103 2051 1541
113 2060 1733
121 2069 1925
130 2078 2122
138 2086 2320
147 2095 2522
155 2103 2724
164 2112 2929
171 2119 3135
180 2128 3341
56 2267 444
68 2279 579
82 2293 718
94 2305 865
107 2318 1027
116 2327 1203
127 2338 1388
136 2347 1574
145 2356 1765
155 2366 1959
164 2375 2156
173 2384 2355
181 2392 2556
190 2402 2760
198 2409 2964
208 2419 3171
215 2426 3377
86 2565 474
99 2579 610
112 2592 748
126 2606 897
137 2617 1058
149 2628 1235
158 2638 1419
169 2649 1607
178 2658 1798
189 2668 1992
197 2677 2189
207 2686 2388
215 2695 2590
224 2703 2793
233 2713 2999
241 2721 3204
250 2730 3412
116 2868 505
131 2882 642
144 2896 780
157 2908 928
170 2921 1090
180 2931 1267
191 2942 1452
201 2952 1638
211 2962 1831
220 2971 2024
230 2981 2222
239 2990 2420
248 3000 2623
257 3008 2826
266 3017 3031
274 3025 3237
282 3033 3443
147 3173 536
160 3187 671
175 3201 811
188 3214 958
200 3227 1120
211 3237 1297
221 3247 1482
231 3257 1669
240 3266 1860
250 3276 2054
259 3285 2251
269 3295 2450
277 3303 2652
286 3312 2855
294 3320 3059
303 3329 3266
311 3337 3472
175 3477 564
190 3492 700
203 3505 839
216 3518 987
228 3530 1148
239 3541 1326
248 3550 1509
259 3561 1697
268 3570 1887
277 3579 2081
286 3588 2278
294 3596 2475
303 3605 2678
310 3613 2880
319 3621 3085
327 3629 3290
335 3637 3496
202 3780 591
216 3793 726
229 3807 865
241 3819 1012
253 3831 1173
263 3840 1350
273 3850 1534
282 3859 1720
291 3869 1911
300 3877 2103
309 3886 2301
316 3894 2498
325 3902 2700
332 3909 2901
339 3916 3104
347 3924 3310
353 3931 3514
228 4077 616
240 4090 751
254 4095 889
265 4095 1035
276 4095 1196
285 4095 1372
294 4095 1555
303 4095 1741
311 4095 1931
320 4095 2123
327 4095 2319
335 4095 2516
341 4095 2716
349 4095 2918
355 4095 3121
362 4095 3325
368 4095 3529
63 74 101
72 85 139
81 96 185
88 105 239
94 114 305
100 121 382
104 128 472
108 134 569
111 139 679
113 143 797
114 146 926
115 149 1064
114 150 1209
114 151 1367
112 152 1530
110 151 1705
107 150 1884
122 213 232
125 221 298
128 229 371
130 237 455
131 243 552
131 249 665
130 252 788
129 256 922
127 259 1063
125 261 1215
122 262 1373
118 263 1541
114 263 1716
110 263 1896
105 262 2088
100 261 2282
94 259 2486
136 364 306
136 372 396
136 379 493
135 385 600
134 390 724
131 393 864
128 396 1015
124 398 1173
120 400 1341
116 401 1514
111 402 1696
106 401 1883
101 401 2078
96 401 2277
91 400 2483
85 399 2690
80 397 2901
125 533 341
125 539 449
124 546 565
123 551 691
122 556 834
119 558 994
116 561 1164
112 563 1339
109 564 1521
106 565 1709
103 566 1901
101 567 2099
98 568 2299
96 569 2502
94 569 2705
94 570 2911
93 570 3114
105 720 350
108 727 473
110 734 601
112 740 740
114 744 892
115 748 1062
117 751 1240
119 754 1421
122 757 1606
126 761 1794
129 764 1985
132 767 2177
135 770 2374
138 773 2571
142 777 2772
146 781 2973
151 786 3176
102 934 355
110 942 485
118 950 618
125 957 760
133 965 917
139 971 1090
146 977 1271
152 983 1454
158 990 1642
164 995 1831
170 1001 2026
175 1007 2221
181 1013 2420
187 1018 2620
192 1024 2822
198 1030 3025
203 1035 3228
118 1181 371
128 1191 503
140 1202 639
149 1212 784
159 1221 943
166 1229 1117
173 1236 1298
181 1243 1483
187 1250 1671
195 1257 1862
201 1264 2057
208 1271 2254
214 1277 2453
221 1284 2654
227 1290 2857
234 1297 3061
240 1303 3265
142 1446 394
154 1459 528
165 1469 665
176 1481 811
186 1490 970
195 1499 1145
202 1507 1327
211 1516 1513
218 1523 1702
226 1531 1894
234 1538 2090
241 1545 2286
249 1553 2488
255 1560 2688
263 1568 2893
270 1574 3097
278 1582 3303
169 1723 421
181 1735 555
193 1748 693
204 1759 839
216 1770 1000
225 1779 1175
234 1789 1359
242 1797 1545
252 1806 1735
259 1814 1927
268 1822 2124
276 1830 2322
284 1839 2523
292 1846 2725
299 1854 2929
308 1862 3135
315 1869 3340
198 2010 451
210 2022 585
224 2036 724
236 2047 870
247 2058 1031
257 2069 1208
266 2078 1391
276 2088 1578
284 2096 1768
294 2106 1962
302 2114 2158
312 2124 2358
320 2131 2559
329 2141 2762
337 2148 2966
344 2156 3171
353 2165 3378
228 2303 480
242 2317 616
255 2330 755
268 2343 903
279 2354 1063
290 2365 1240
300 2375 1425
310 2385 1612
319 2394 1803
328 2403 1996
338 2413 2194
346 2421 2392
356 2431 2595
364 2439 2797
373 2448 3003
381 2456 3208
391 2466 3416
259 2603 512
273 2616 647
287 2631 787
300 2643 934
312 2656 1096
322 2666 1273
333 2677 1458
343 2686 1645
353 2697 1837
362 2706 2030
371 2715 2227
381 2725 2427
389 2733 2628
399 2742 2832
407 2751 3036
416 2760 3244
424 2768 3450
291 2906 543
305 2920 680
319 2934 819
332 2947 967
344 2959 1128
355 2971 1306
365 2980 1490
376 2991 1678
385 3000 1869
395 3011 2063
404 3019 2260
414 3029 2460
422 3037 2661
431 3046 2864
440 3055 3069
448 3063 3275
457 3072 3482
321 3211 573
336 3226 710
349 3239 849
362 3253 997
374 3264 1158
384 3275 1335
395 3285 1520
405 3295 1707
415 3305 1899
424 3314 2091
433 3324 2289
442 3332 2488
451 3341 2690
459 3349 2892
468 3358 3098
476 3366 3303
484 3374 3509
350 3516 602
363 3529 738
377 3543 877
390 3556 1024
402 3568 1186
412 3578 1363
422 3588 1547
431 3597 1733
440 3606 1924
450 3616 2118
458 3624 2314
467 3633 2513
475 3641 2714
484 3650 2917
491 3657 3120
499 3665 3326
506 3672 3532
375 3816 627
389 3830 763
401 3843 901
414 3856 1049
425 3866 1209
436 3877 1386
445 3886 1569
454 3896 1756
463 3904 1946
472 3913 2140
479 3921 2335
487 3928 2533
495 3936 2734
502 3943 2935
510 3951 3139
516 3958 3344
524 3965 3549
398 4095 651
412 4095 786
424 4095 924
435 4095 1070
446 4095 1230
455 4095 1406
465 4095 1590
472 4095 1774
481 4095 1965
488 4095 2156
496 4095 2352
503 4095 2549
510 4095 2749
517 4095 2950
524 4095 3153
530 4095 3357
535 4095 3561
120 104 146
131 113 194
141 121 247
151 129 312
160 136 387
167 141 476
174 146 576
180 150 686
185 153 806
188 155 933
192 157 1073
194 158 1219
196 158 1377
197 157 1540
198 157 1715
198 155 1895
197 153 2085
201 235 258
206 242 331
211 249 413
215 255 504
219 260 610
221 264 731
223 267 864
223 269 1005
223 270 1156
223 271 1313
221 271 1479
220 271 1654
218 270 1836
215 269 2025
212 267 2219
209 265 2422
