3DLUTS/GC_VENOM_LUTS/Additional_Formats/3DL/GC_Venom_709/GC_Venom_Jomei_709.3dl
# Converted by Briz LUT Converter
0 128 256 384 512 640 768 896 1023
161 163 163
171 173 186
178 180 248
180 182 372
175 177 588
157 158 979
128 130 1505
94 96 2124
59 60 2800
141 350 143
135 358 358
122 358 719
99 345 1264
74 327 1874
48 307 2514
27 290 3138
14 280 3669
21 287 3987
50 760 51
64 774 331
66 776 776
58 769 1369
51 762 1991
45 756 2618
41 753 3214
46 758 3717
67 779 4034
6 1318 8
30 1342 298
41 1354 755
42 1354 1354
39 1352 1982
38 1351 2614
38 1352 3213
47 1361 3718
70 1384 4037
0 1936 0
16 1962 285
29 1975 745
31 1977 1346
31 1977 1977
30 1977 2609
33 1979 3210
42 1989 3715
67 2014 4034
0 2568 0
15 2595 285
29 2609 747
31 2612 1349
32 2613 1981
32 2613 2613
35 2617 3215
46 2627 3719
70 2652 4038
16 3197 18
43 3224 313
56 3238 776
59 3240 1380
59 3240 2011
58 3240 2642
61 3243 3243
70 3252 3744
93 3276 4061
114 3789 116
139 3814 410
151 3826 872
152 3827 1475
150 3825 2105
148 3824 2735
149 3824 3333
157 3832 3832
179 3854 4095
338 4095 339
361 4095 633
371 4095 1095
369 4095 1695
365 4095 2323
361 4095 2949
359 4095 3545
364 4095 4041
384 4095 4095
236 183 183
260 184 261
280 178 407
292 166 657
291 141 1087
282 111 1625
267 77 2240
248 41 2892
232 11 3521
374 375 132
382 383 383
378 380 800
363 365 1383
346 347 2007
329 330 2633
316 317 3221
312 314 3716
324 326 4026
360 805 96
379 824 380
386 832 832
383 829 1428
378 824 2054
375 821 2683
374 820 3281
381 828 3786
403 850 4095
344 1390 79
368 1414 370
380 1427 827
381 1428 1428
379 1426 2056
378 1425 2688
379 1427 3288
389 1436 3793
412 1460 4095
334 2012 68
360 2038 362
373 2052 822
375 2054 1424
375 2054 2054
375 2055 2687
378 2058 3288
388 2068 3793
413 2093 4095
335 2647 68
361 2674 363
375 2688 826
378 2691 1429
378 2692 2060
379 2693 2693
382 2696 3294
392 2707 3798
417 2732 4095
362 3276 96
389 3302 391
402 3315 854
404 3318 1457
403 3317 2088
402 3316 2719
404 3318 3318
413 3328 3820
437 3351 4095
456 3862 189
481 3887 483
492 3899 946
493 3899 1548
491 3897 2177
488 3894 2806
488 3894 3403
495 3902 3902
517 3923 4095
675 4095 406
697 4095 699
706 4095 1161
703 4095 1761
699 4095 2387
694 4095 3013
691 4095 3607
694 4095 4095
711 4095 4095
446 168 168
489 160 308
524 147 546
545 122 961
554 90 1495
556 56 2101
556 24 2744
554 0 3371
565 0 3812
729 381 120
744 390 390
744 386 829
731 374 1416
718 360 2033
706 348 2653
697 339 3243
697 339 3742
714 356 4055
758 844 134
780 866 422
790 876 876
790 876 1475
787 873 2103
785 871 2733
785 872 3332
793 880 3837
815 901 4095
757 1444 132
782 1468 423
794 1480 881
796 1482 1482
795 1482 2112
794 1481 2744
796 1483 3344
806 1493 3849
830 1517 4095
752 2070 124
778 2096 419
792 2110 880
794 2113 1482
795 2113 2113
795 2114 2745
798 2117 3347
808 2127 3852
833 2152 4095
755 2707 127
782 2734 422
796 2748 885
799 2751 1488
799 2751 2119
799 2752 2752
802 2755 3353
812 2765 3856
837 2790 4095
782 3334 153
808 3360 448
820 3372 910
821 3373 1513
822 3373 2144
820 3372 2774
821 3373 3373
830 3382 3873
853 3405 4095
872 3915 241
896 3939 535
906 3949 997
906 3949 1598
903 3946 2227
900 3943 2855
899 3942 3451
906 3949 3949
927 3969 4095
1084 4095 451
1105 4095 743
1113 4095 1204
1110 4095 1803
1103 4095 2428
1095 4095 3050
1089 4095 3641
1090 4095 4095
1103 4095 4095
834 120 120
906 104 310
966 81 631
1007 49 1144
1036 16 1736
1053 0 2369
1064 0 2998
1073 0 3552
1093 0 3887
1253 350 85
1266 363 363
1267 365 808
1258 356 1399
1248 346 2019
1241 338 2644
1238 335 3239
1242 339 3742
1261 358 4058
1311 852 141
1335 876 431
1346 887 887
1346 887 1487
1345 886 2115
1343 884 2746
1344 885 3346
1352 893 3851
1375 916 4095
1319 1459 146
1344 1484 438
1356 1497 897
1358 1499 1499
1358 1499 2129
1358 1498 2761
1360 1501 3362
1370 1511 3867
1395 1535 4095
1318 2089 142
1344 2115 437
1358 2129 899
1361 2132 1501
1362 2133 2133
1362 2133 2765
1365 2136 3366
1376 2147 3871
1401 2172 4095
1324 2726 146
1350 2753 441
1364 2767 904
1367 2770 1507
1367 2770 2138
1367 2770 2770
1370 2773 3371
1380 2783 3873
1404 2807 4095
1349 3349 168
1375 3376 463
1387 3387 925
1387 3388 1528
1386 3386 2157
1385 3385 2788
1385 3386 3386
1394 3394 3885
1416 3416 4095
1434 3925 251
1457 3948 544
1467 3958 1006
1466 3957 1607
1463 3953 2234
1459 3949 2861
1458 3947 3457
1463 3953 3953
1483 3973 4095
1639 4095 453
1659 4095 744
1664 4095 1202
1658 4095 1798
1648 4095 2419
1637 4095 3038
1634 4095 3622
1653 4095 4095
1701 4095 4095
1503 14 14
1586 1 244
1643 0 634
1676 0 1199
1693 0 1815
1700 0 2446
1695 0 3045
1691 0 3541
1702 0 3849
1863 310 44
1880 326 326
1886 332 776
1882 328 1372
1877 323 1996
1873 318 2624
1872 317 3222
1879 324 3727
1901 345 4045
1952 841 129
1976 866 421
1988 877 877
1989 878 1478
1988 877 2107
1987 876 2738
1987 876 3337
1997 886 3843
2020 909 4095
1964 1452 139
1990 1478 432
2003 1492 892
2006 1494 1494
2006 1494 2124
2006 1494 2757
2009 1497 3358
2019 1507 3863
2044 1532 4095
1967 2086 139
1994 2112 433
2008 2126 896
2011 2129 1499
2012 2130 2130
2012 2131 2763
2015 2134 3364
2026 2144 3868
2051 2169 4095
1973 2723 142
2000 2750 437
2013 2763 900
2016 2766 1503
2016 2766 2134
2016 2766 2766
2018 2767 3365
2027 2776 3866
2051 2801 4095
1995 3342 160
2020 3367 454
2032 3379 917
2032 3379 1519
2030 3377 2148
2028 3375 2777
2029 3375 3375
2036 3382 3873
2058 3404 4095
2075 3911 237
2097 3933 529
2106 3942 991
2104 3940 1591
2101 3936 2218
2096 3931 2843
2093 3928 3438
2098 3933 3933
2117 3951 4095
2267 4095 426
2283 4095 713
2284 4095 1168
2277 4095 1767
2279 4095 2395
2294 4095 3013
2325 4095 3578
2377 4095 4015
2458 4095 4095
2277 0 0
2334 0 158
2363 0 588
2365 0 1173
2352 0 1788
2339 0 2407
2330 0 2997
2328 0 3494
2342 0 3805
2513 275 9
2534 296 296
2543 305 749
2542 304 1347
2539 301 1975
2537 298 2605
2537 298 3204
2545 306 3709
2568 328 4027
2620 825 113
2645 850 405
2657 863 863
2658 864 1463
2658 863 2093
2657 862 2724
2659 864 3324
2668 873 3829
2692 897 4095
2636 1441 126
2663 1467 420
2676 1481 881
2679 1483 1483
2679 1484 2114
2680 1484 2746
2683 1487 3348
2693 1497 3852
2718 1522 4095
2642 2076 129
2669 2103 424
2683 2117 886
2685 2120 1490
2686 2121 2121
2687 2121 2753
2690 2124 3354
2700 2135 3857
2725 2160 4095
2647 2713 131
2673 2739 425
2686 2752 888
2688 2754 1492
2687 2753 2122
2687 2753 2753
2688 2754 3352
2697 2763 3852
2720 2786 4095
2664 3327 145
2688 3351 438
2698 3362 900
2699 3362 1503
2696 3359 2131
2693 3356 2758
2692 3355 3355
2699 3362 3853
2720 3383 4095
2735 3889 214
2758 3911 507
2766 3919 968
2763 3916 1567
2757 3910 2192
2752 3904 2817
2746 3899 3409
2748 3900 3900
2763 3915 4095
2906 4095 383
2927 4095 687
2939 4095 1196
2951 4095 1823
2970 4095 2455
3000 4095 3049
3047 4095 3569
3115 4095 3938
3205 4095 4095
2968 0 0
2983 0 97
2983 0 540
2973 0 1130
2962 0 1748
2952 0 2371
2947 0 2965
2951 0 3467
2970 0 3783
3145 258 0
3169 281 281
3180 292 737
3180 292 1336
3178 290 1965
3177 288 2595
3177 289 3195
3186 297 3700
3209 320 4019
3262 819 105
3287 844 398
3300 857 857
3301 858 1457
3301 857 2087
3300 857 2719
3303 859 3320
3312 869 3825
3337 893 4095
3281 1438 122
3308 1464 417
3322 1478 878
3324 1481 1481
3325 1482 2112
3326 1482 2745
3329 1485 3346
3339 1496 3850
3364 1521 4095
3288 2075 126
3315 2102 421
3329 2116 884
3331 2118 1488
3332 2119 2119
3332 2119 2751
3335 2122 3352
3345 2132 3854
3369 2157 4095
3290 2709 126
3316 2735 421
3329 2748 883
3330 2749 1486
3329 2748 2116
3327 2746 2746
3329 2748 3345
3337 2756 3844
3359 2778 4095
3302 3318 135
3325 3341 428
3335 3351 890
3333 3350 1491
3331 3347 2119
3327 3343 2746
3325 3342 3342
3331 3348 3838
3352 3368 4095
3366 3872 197
3386 3893 488
3393 3899 949
3387 3893 1545
3379 3885 2168
3370 3875 2788
3360 3865 3376
3356 3858 3858
3369 3864 4095
3522 4095 409
3541 4095 798
3547 4095 1410
3557 4095 2051
3576 4095 2663
3605 4095 3203
3645 4095 3646
3704 4085 3916
3765 4080 4080
3474 0 0
3489 0 84
3493 0 531
3487 0 1126
3482 0 1750
3476 0 2377
3474 0 2974
3480 0 3478
3501 0 3796
3679 274 8
3704 299 299
3715 310 756
3716 311 1356
3715 310 1985
3713 309 2616
3715 310 3216
3723 318 3721
3747 342 4041
3800 841 127
3825 866 420
3838 880 880
3840 882 1481
3840 882 2112
3839 882 2744
3842 884 3345
3852 894 3850
3876 919 4095
3821 1464 148
3848 1491 443
3862 1505 905
3864 1508 1508
3865 1509 2139
3866 1509 2772
3869 1512 3373
3879 1523 3877
3904 1548 4095
3827 2102 153
3853 2129 448
3867 2142 911
3869 2145 1514
3869 2145 2145
3869 2145 2777
3871 2148 3377
3881 2157 3879
3905 2181 4095
3825 2733 149
3850 2759 444
3861 2770 906
3862 2771 1509
3860 2770 2138
3858 2767 2767
3858 2767 3365
3866 2776 3864
3888 2797 4095
3828 3335 152
3851 3359 445
3860 3368 907
3858 3366 1507
3854 3361 2134
3851 3358 2761
3848 3356 3356
3853 3361 3851
3871 3379 4095
3881 3879 204
3899 3897 492
3902 3900 950
3891 3889 1542
3875 3873 2164
3856 3855 2788
3841 3839 3370
3833 3831 3831
3838 3836 4095
3966 4095 636
3957 4095 1227
3943 4095 1885
3934 4095 2512
3932 4095 3064
3938 4084 3514
3956 4076 3819
3985 4079 3985
4020 4086 4086
3812 0 0
3832 0 133
3840 0 585
3838 0 1182
3834 0 1809
3831 0 2438
3831 0 3037
3839 0 3542
3861 0 3861
4040 341 74
4065 366 366
4077 378 823
4078 379 1424
4077 378 2054
4076 378 2686
4078 379 3286
4087 388 3791
4095 411 4095
4095 912 197
4095 938 491
4095 951 951
4095 954 1553
4095 954 2184
4095 954 2817
4095 957 3418
4095 968 3923
4095 993 4095
4095 1538 221
4095 1565 516
4095 1579 979
4095 1582 1582
4095 1583 2213
4095 1583 2846
4095 1587 3447
4095 1597 3951
4095 1622 4095
4095 2176 225
4095 2202 520
4095 2215 983
4095 2217 1587
4095 2217 2217
4095 2217 2849
4095 2219 3448
4095 2228 3949
4095 2252 4095
4095 2803 218
4095 2827 512
4095 2838 974
4095 2838 1576
4095 2836 2205
4095 2833 2833
4095 2833 3430
4095 2839 3928
4095 2862 4095
4095 3398 214
4095 3420 506
4095 3429 968
4095 3426 1568
4095 3421 2194
4095 3416 2818
4095 3412 3412
4095 3414 3904
4095 3430 4095
4095 3922 247
4095 3932 537
4095 3925 1020
4095 3907 1642
4095 3887 2282
4095 3868 2895
4095 3853 3442
4095 3849 3849
4089 3859 4089
4095 4095 1313
4095 4095 1998
4095 4095 2633
4095 4095 3175
4086 4086 3605
4087 4087 3864
4095 4095 4009
4095 4095 4090
4095 4095 4095
