3DLUTS/GC_VENOM_LUTS/Additional_Formats/3DL/GC_Venom_709/GC_Venom_Glendin_709.3dl
# Converted by Briz LUT Converter
0 256 512 768 1023
0 0 0
43 43 43
86 86 86
125 125 125
164 164 164
319 319 319
419 419 419
522 522 522
628 628 628
736 736 736
1216 1216 1216
1335 1335 1335
1456 1456 1456
1578 1578 1578
1700 1700 1700
2226 2226 2226
2347 2347 2347
2467 2467 2467
2585 2585 2585
2701 2701 2701
3157 3157 3157
3261 3261 3261
3360 3360 3360
3454 3454 3454
3540 3540 3540
66 66 66
105 105 105
145 145 145
189 189 189
237 237 237
565 565 565
674 674 674
784 784 784
895 895 895
1009 1009 1009
1515 1515 1515
1637 1637 1637
1760 1760 1760
1882 1882 1882
2005 2005 2005
2522 2522 2522
2639 2639 2639
2753 2753 2753
2867 2867 2867
2979 2979 2979
3393 3393 3393
3479 3479 3479
3561 3561 3561
3638 3638 3638
3712 3712 3712
130 130 130
178 178 178
237 237 237
308 308 308
400 400 400
833 833 833
946 946 946
1062 1062 1062
1179 1179 1179
1298 1298 1298
1819 1819 1819
1942 1942 1942
2065 2065 2065
2187 2187 2187
2308 2308 2308
2805 2805 2805
2916 2916 2916
3026 3026 3026
3134 3134 3134
3239 3239 3239
3577 3577 3577
3652 3652 3652
3722 3722 3722
3791 3791 3791
3858 3858 3858
247 247 247
339 339 339
439 439 439
542 542 542
647 647 647
1116 1116 1116
1234 1234 1234
1355 1355 1355
1474 1474 1474
1596 1596 1596
2124 2124 2124
2246 2246 2246
2365 2365 2365
2485 2485 2485
2604 2604 2604
3072 3072 3072
3177 3177 3177
3280 3280 3280
3380 3380 3380
3475 3475 3475
3731 3731 3731
3798 3798 3798
3864 3864 3864
3930 3930 3930
3996 3996 3996
480 480 480
585 585 585
693 693 693
803 803 803
915 915 915
1412 1412 1412
1533 1533 1533
1655 1655 1655
1778 1778 1778
1901 1901 1901
2422 2422 2422
2541 2541 2541
2658 2658 2658
2773 2773 2773
2886 2886 2886
3318 3318 3318
3413 3413 3413
3501 3501 3501
3582 3582 3582
3660 3660 3660
3870 3870 3870
3936 3936 3936
4001 4001 4001
4068 4068 4068
4095 4095 4095
