3DLUTS/GC_VENOM_LUTS/Additional_Formats/3DL/GC_Venom_709/GC_Venom_Gituku_709.3dl
# Converted by Briz LUT Converter
0 256 512 768 1023
0 0 0
30 37 124
44 59 440
42 67 921
29 62 1572
0 725 0
0 737 957
0 736 2006
0 736 2999
0 738 3942
0 1711 0
0 1712 1005
0 1714 2060
0 1722 3048
0 1734 4002
0 2776 91
0 2791 1146
0 2808 2215
0 2831 3218
0 2857 4095
130 3968 343
152 3991 1404
173 4011 2478
198 4036 3483
223 4062 4095
279 69 100
358 66 470
423 49 1037
483 23 1774
533 0 2670
659 751 0
654 746 976
649 741 2025
650 742 3005
655 746 3951
708 1737 0
713 1742 1035
719 1747 2094
730 1758 3085
746 1774 4042
877 2844 159
896 2864 1219
915 2883 2290
941 2909 3296
970 2938 4095
1142 4050 425
1161 4069 1483
1178 4087 2554
1203 4095 3555
1297 4095 4095
961 38 103
1105 4 741
1241 0 1596
1360 0 2576
1451 0 3630
1568 765 0
1565 762 992
1563 760 2043
1567 764 3027
1575 772 3976
1647 1781 35
1655 1789 1083
1665 1799 2146
1682 1816 3142
1703 1837 4095
1857 2930 245
1879 2952 1306
1900 2973 2381
1927 3000 3388
1955 3028 4095
2117 4095 505
2169 4095 1612
2283 4095 2719
2463 4084 3639
2715 4060 4095
2092 0 43
2251 0 942
2358 0 1973
2421 0 2992
2441 0 3959
2475 789 0
2476 790 1020
2477 791 2074
2483 797 3060
2494 808 4012
2589 1840 94
2603 1854 1147
2617 1868 2214
2638 1889 3216
2664 1915 4095
2834 3024 339
2856 3046 1400
2876 3066 2474
2902 3092 3480
2930 3120 4095
3185 4095 1146
3301 4076 2304
3444 4048 3229
3603 4036 3824
3767 4039 4095
3306 0 0
3337 0 1005
3331 0 2052
3331 0 3032
3335 0 3978
3386 824 14
3389 827 1057
3393 831 2115
3404 842 3105
3418 856 4061
3540 1915 169
3558 1933 1226
3577 1952 2299
3602 1977 3303
3629 2004 4095
3803 3117 432
3824 3138 1493
3843 3157 2565
3865 3179 3567
3889 3204 4095
3945 4047 2584
3977 4043 3371
4022 4055 3857
4083 4088 4077
4095 4095 4095
