3DLUTS/GC_VENOM_LUTS/Additional_Formats/3DL/GC_Venom_709/GC_Venom_Ayla_709.3dl
# Converted by Briz LUT Converter
0 256 512 768 1023
0 0 0
0 0 0
28 27 176
41 39 509
41 37 973
0 542 0
0 562 563
0 579 1459
0 594 2455
0 607 3504
0 1796 0
0 1834 806
0 1884 1886
0 1941 2927
0 2002 3944
179 3359 162
226 3406 1393
281 3461 2478
339 3519 3520
397 3577 4095
1043 4095 1029
1482 4095 2351
1922 4095 3262
2367 4095 3884
2743 4095 4095
190 36 36
274 32 287
344 17 661
405 0 1166
458 0 1803
529 583 0
523 580 582
529 587 1618
548 606 2622
577 635 3607
838 1927 0
883 1972 943
938 2027 2029
1001 2089 3075
1065 2154 4095
1431 3505 308
1473 3547 1534
1523 3596 2613
1572 3646 3647
1622 3695 4095
2861 4095 2311
3111 4095 3134
3364 4095 3661
3601 4095 3971
3830 4095 4095
766 0 0
894 0 472
1021 0 1051
1150 0 1774
1274 0 2640
1585 611 0
1596 622 624
1630 655 1687
1673 698 2714
1724 749 3721
2035 2091 0
2083 2139 1111
2143 2198 2200
2205 2260 3246
2269 2325 4095
2607 3648 451
2640 3681 1668
2682 3722 2739
2749 3756 3757
2868 3782 4095
3768 4095 3360
3907 4095 3808
4039 4095 4040
4095 4095 4095
4095 4095 4095
1735 0 0
1937 0 600
2153 0 1425
2345 0 2372
2512 0 3421
2691 707 0
2724 740 742
2773 789 1821
2826 842 2858
2885 901 3872
3220 2266 54
3269 2315 1287
3327 2373 2375
3385 2431 3417
3445 2492 4095
3734 3764 655
3748 3776 1991
3777 3800 3060
3804 3823 3824
3839 3854 4095
4095 4095 4083
4095 4095 4095
4095 4095 4095
4095 4095 4095
4095 4095 4095
3175 0 0
3405 0 685
3584 0 1698
3681 0 2721
3710 0 3703
3831 853 0
3872 894 896
3928 950 1982
3988 1009 3025
4051 1073 4044
4095 2442 230
4095 2485 1457
4095 2538 2540
4095 2591 3577
4095 2643 4095
4095 3829 1815
4095 3849 2851
4095 3878 3503
4095 3916 3917
4095 3962 4095
4095 4095 4095
4095 4095 4095
4095 4095 4095
4095 4095 4095
4095 4095 4095
