3DLUTS/GC_VENOM_LUTS/Additional_Formats/3DL/GC_Venom_709/GC_Venom_Jomei_709.3dl
# Converted by Briz LUT Converter
0 256 512 768 1023
161 163 163
178 180 248
175 177 588
128 130 1505
59 60 2800
50 760 51
66 776 776
51 762 1991
41 753 3214
67 779 4034
0 1936 0
29 1975 745
31 1977 1977
33 1979 3210
67 2014 4034
16 3197 18
56 3238 776
59 3240 2011
61 3243 3243
93 3276 4061
338 4095 339
371 4095 1095
365 4095 2323
359 4095 3545
384 4095 4095
446 168 168
524 147 546
554 90 1495
556 24 2744
565 0 3812
758 844 134
790 876 876
787 873 2103
785 872 3332
815 901 4095
752 2070 124
792 2110 880
795 2113 2113
798 2117 3347
833 2152 4095
782 3334 153
820 3372 910
822 3373 2144
821 3373 3373
853 3405 4095
1084 4095 451
1113 4095 1204
1103 4095 2428
1089 4095 3641
1103 4095 4095
1503 14 14
1643 0 634
1693 0 1815
1695 0 3045
1702 0 3849
1952 841 129
1988 877 877
1988 877 2107
1987 876 3337
2020 909 4095
1967 2086 139
2008 2126 896
2012 2130 2130
2015 2134 3364
2051 2169 4095
1995 3342 160
2032 3379 917
2030 3377 2148
2029 3375 3375
2058 3404 4095
2267 4095 426
2284 4095 1168
2279 4095 2395
2325 4095 3578
2458 4095 4095
2968 0 0
2983 0 540
2962 0 1748
2947 0 2965
2970 0 3783
3262 819 105
3300 857 857
3301 857 2087
3303 859 3320
3337 893 4095
3288 2075 126
3329 2116 884
3332 2119 2119
3335 2122 3352
3369 2157 4095
3302 3318 135
3335 3351 890
3331 3347 2119
3325 3342 3342
3352 3368 4095
3522 4095 409
3547 4095 1410
3576 4095 2663
3645 4095 3646
3765 4080 4080
3812 0 0
3840 0 585
3834 0 1809
3831 0 3037
3861 0 3861
4095 912 197
4095 951 951
4095 954 2184
4095 957 3418
4095 993 4095
4095 2176 225
4095 2215 983
4095 2217 2217
4095 2219 3448
4095 2252 4095
4095 3398 214
4095 3429 968
4095 3421 2194
4095 3412 3412
4095 3430 4095
4095 4095 1313
4095 4095 2633
4086 4086 3605
4095 4095 4009
4095 4095 4095
