3DLUTS/GC_VENOM_LUTS/Additional_Formats/3DL/GC_Venom_709/GC_Venom_Tiara_709.3dl
# Converted by Briz LUT Converter
0 128 256 384 512 640 768 896 1023
0 0 0
12 26 42
20 52 118
23 75 235
21 94 394
17 110 595
9 122 836
0 130 1114
0 135 1433
0 315 268
0 334 428
0 351 631
0 362 892
0 370 1189
0 376 1519
0 379 1881
0 380 2269
0 380 2678
0 684 336
0 698 572
0 709 851
0 716 1191
0 722 1557
0 726 1938
0 729 2331
0 733 2728
0 739 3129
0 1127 316
0 1146 583
0 1164 885
0 1178 1240
0 1191 1612
0 1203 1996
0 1215 2391
0 1227 2793
0 1239 3201
0 1657 355
0 1681 626
0 1702 932
0 1720 1291
0 1737 1666
0 1752 2054
0 1768 2452
0 1783 2858
0 1797 3268
0 2229 407
0 2255 680
0 2279 988
0 2300 1349
0 2319 1727
0 2337 2118
10 2354 2518
27 2371 2926
44 2388 3338
0 2829 467
0 2857 742
0 2882 1051
18 2902 1412
38 2922 1791
57 2942 2182
75 2960 2583
93 2978 2992
110 2995 3405
3 3439 526
31 3467 801
56 3492 1110
77 3513 1472
97 3532 1850
115 3551 2240
132 3567 2640
148 3583 3047
164 3599 3459
57 4040 579
83 4066 853
107 4090 1160
126 4095 1520
143 4095 1896
159 4095 2285
174 4095 2683
189 4095 3087
202 4095 3497
63 74 101
81 96 185
94 114 305
104 128 472
111 139 679
114 146 926
114 150 1209
112 152 1530
107 150 1884
136 364 306
136 379 493
134 390 724
128 396 1015
120 400 1341
111 402 1696
101 401 2078
91 400 2483
80 397 2901
105 720 350
110 734 601
114 744 892
117 751 1240
122 757 1606
129 764 1985
135 770 2374
142 777 2772
151 786 3176
118 1181 371
140 1202 639
159 1221 943
173 1236 1298
187 1250 1671
201 1264 2057
214 1277 2453
227 1290 2857
240 1303 3265
169 1723 421
193 1748 693
216 1770 1000
234 1789 1359
252 1806 1735
268 1822 2124
284 1839 2523
299 1854 2929
315 1869 3340
228 2303 480
255 2330 755
279 2354 1063
300 2375 1425
319 2394 1803
338 2413 2194
356 2431 2595
373 2448 3003
391 2466 3416
291 2906 543
319 2934 819
344 2959 1128
365 2980 1490
385 3000 1869
404 3019 2260
422 3037 2661
440 3055 3069
457 3072 3482
350 3516 602
377 3543 877
402 3568 1186
422 3588 1547
440 3606 1924
458 3624 2314
475 3641 2714
491 3657 3120
506 3672 3532
398 4095 651
424 4095 924
446 4095 1230
465 4095 1590
481 4095 1965
496 4095 2352
510 4095 2749
524 4095 3153
535 4095 3561
194 128 186
220 143 305
242 154 463
258 160 671
272 164 921
283 165 1207
291 163 1529
295 159 1882
298 153 2264
347 398 329
356 409 540
361 416 795
362 419 1111
362 421 1460
360 420 1832
357 418 2225
354 417 2635
352 416 3055
394 753 372
408 768 633
421 781 930
430 790 1280
440 799 1648
450 810 2031
461 820 2424
471 831 2825
482 841 3231
451 1238 428
473 1260 697
493 1280 1001
509 1297 1359
524 1312 1733
539 1326 2120
553 1341 2517
567 1355 2921
581 1369 3331
512 1791 489
537 1816 762
560 1839 1069
579 1858 1429
596 1876 1805
614 1893 2194
630 1910 2594
647 1926 3001
663 1942 3413
577 2377 554
604 2404 829
629 2429 1138
650 2450 1500
670 2470 1879
689 2489 2270
707 2507 2671
724 2523 3078
741 2541 3491
642 2982 619
670 3010 895
696 3035 1204
717 3057 1566
737 3077 1945
755 3095 2336
773 3113 2737
791 3131 3145
807 3147 3557
700 3590 677
726 3617 951
750 3640 1258
770 3660 1619
788 3679 1996
805 3696 2386
821 3712 2785
837 3727 3191
851 3742 3601
742 4095 719
767 4095 991
788 4095 1297
806 4095 1655
821 4095 2030
835 4095 2415
850 4095 2812
884 4095 3217
939 4095 3619
536 122 209
583 127 354
626 128 542
662 126 786
695 121 1068
723 114 1384
748 105 1733
769 95 2110
786 83 2511
869 351 274
891 358 503
909 362 775
921 362 1108
931 361 1469
938 361 1850
944 360 2245
948 361 2647
952 364 3049
1005 712 330
1023 730 595
1039 746 895
1053 760 1250
1066 773 1621
1078 785 2006
1090 797 2401
1100 807 2802
1112 819 3209
1084 1218 408
1107 1242 679
1128 1263 984
1145 1280 1342
1162 1296 1717
1177 1312 2105
1192 1327 2503
1207 1342 2909
1222 1357 3319
1154 1780 478
1180 1806 752
1202 1829 1059
1222 1849 1419
1241 1867 1797
1259 1886 2187
1276 1903 2587
1293 1920 2995
1310 1937 3407
1225 2372 549
1253 2400 824
1278 2425 1134
1299 2446 1496
1318 2465 1874
1337 2484 2265
1355 2502 2666
1373 2520 3074
1390 2537 3487
1291 2978 616
1319 3006 891
1344 3031 1200
1365 3052 1562
1385 3072 1940
1403 3091 2331
1421 3108 2732
1438 3125 3139
1453 3140 3550
1344 3582 669
1370 3608 942
1394 3632 1250
1413 3651 1610
1431 3669 1987
1447 3685 2375
1463 3701 2774
1477 3716 3179
1491 3729 3588
1380 4095 705
1404 4095 976
1424 4095 1280
1441 4095 1638
1471 4095 2023
1518 4095 2423
1580 4095 2828
1659 4095 3226
1752 4095 3603
1281 7 120
1362 0 285
1436 0 495
1502 0 765
1563 0 1071
1617 0 1409
1664 0 1775
1707 0 2165
1745 0 2576
1862 182 99
1898 186 341
1925 189 624
1944 189 968
1957 191 1333
1964 195 1711
1970 201 2100
1976 207 2496
1983 214 2899
2044 570 187
2064 590 455
2083 609 758
2098 624 1114
2112 637 1486
2124 650 1871
2137 663 2267
2150 675 2670
2162 688 3078
2136 1089 279
2160 1114 551
2182 1136 857
2200 1154 1216
2217 1171 1592
2234 1188 1981
2250 1203 2380
2265 1219 2786
2280 1234 3196
2213 1658 356
2240 1685 630
2264 1709 939
2284 1730 1300
2304 1749 1678
2322 1767 2069
2340 1785 2470
2357 1803 2878
2374 1820 3290
2289 2255 433
2317 2283 708
2343 2309 1018
2363 2329 1379
2383 2349 1757
2402 2368 2149
2420 2386 2550
2438 2404 2958
2455 2421 3371
2356 2862 499
2383 2889 774
2408 2914 1083
2429 2935 1444
2448 2954 1822
2465 2972 2212
2482 2988 2611
2498 3004 3018
2514 3020 3430
2404 3461 547
2430 3486 820
2452 3509 1127
2471 3528 1487
2488 3545 1862
2503 3560 2250
2518 3575 2648
2532 3589 3052
2545 3602 3461
2432 4035 576
2461 4053 864
2497 4065 1203
2538 4068 1599
2587 4067 2010
2643 4063 2419
2703 4056 2812
2768 4047 3183
2841 4038 3524
2082 0 12
2177 0 200
2264 0 432
2340 0 727
2408 0 1055
2469 0 1413
2522 0 1794
2565 0 2192
2603 0 2607
2717 58 0
2743 67 226
2758 77 521
2767 86 870
2775 94 1237
2783 102 1618
2793 111 2010
2803 122 2411
2813 131 2817
2877 490 108
2899 512 377
2918 531 680
2934 547 1037
2949 562 1411
2963 576 1797
2977 590 2194
2990 604 2598
3004 617 3008
2979 1020 210
3004 1046 483
3027 1069 790
3046 1087 1149
3064 1105 1526
3081 1122 1916
3097 1138 2314
3113 1154 2721
3129 1170 3133
3063 1596 294
3090 1623 569
3115 1648 878
3136 1669 1240
3156 1689 1618
3175 1708 2009
3193 1726 2410
3210 1743 2818
3227 1760 3231
3142 2196 373
3170 2223 648
3195 2249 958
3216 2270 1320
3236 2290 1698
3255 2309 2090
3273 2327 2491
3291 2344 2898
3307 2361 3311
3208 2801 439
3235 2828 713
3259 2853 1022
3278 2872 1382
3297 2891 1759
3314 2908 2148
3330 2924 2548
3346 2940 2954
3361 2955 3365
3250 3394 481
3275 3419 753
3297 3441 1059
3314 3459 1418
3330 3475 1793
3345 3490 2180
3359 3503 2576
3370 3515 2979
3383 3527 3387
3281 3941 636
3313 3952 981
3344 3958 1359
3373 3959 1769
3404 3957 2173
3437 3955 2563
3471 3953 2926
3505 3951 3252
3541 3950 3543
2774 0 0
2865 0 143
2946 0 398
3015 0 716
3073 0 1064
3122 0 1436
3161 0 1825
3189 0 2227
3207 0 2634
3283 24 0
3299 40 200
3314 54 498
3326 67 852
3339 79 1223
3350 91 1607
3362 102 2001
3373 114 2403
3384 125 2810
3450 485 103
3472 508 373
3493 528 677
3510 545 1035
3526 561 1410
3541 577 1798
3556 591 2195
3570 606 2600
3585 620 3011
3562 1025 215
3588 1051 488
3611 1075 796
3630 1094 1156
3648 1111 1532
3666 1129 1922
3683 1147 2323
3700 1163 2730
3717 1180 3142
3652 1607 305
3679 1634 580
3705 1659 889
3726 1681 1251
3746 1700 1630
3765 1719 2021
3783 1738 2422
3800 1754 2829
3817 1771 3242
3732 2207 385
3760 2235 660
3785 2261 970
3806 2282 1332
3826 2301 1710
3844 2320 2101
3862 2338 2502
3879 2355 2909
3896 2371 3321
3795 2810 448
3821 2837 722
3844 2860 1028
3863 2879 1389
3882 2897 1766
3898 2914 2155
3914 2930 2553
3929 2945 2959
3943 2959 3369
3830 3397 483
3854 3421 755
3875 3442 1060
3892 3458 1417
3906 3473 1792
3916 3486 2186
3923 3499 2593
3927 3513 3001
3928 3528 3398
3810 3907 971
3823 3914 1335
3834 3920 1716
3843 3922 2111
3850 3924 2481
3858 3926 2823
3868 3929 3136
3880 3935 3413
3893 3941 3648
3450 0 0
3526 0 91
3591 0 365
3640 0 701
3676 0 1061
3700 0 1438
3711 0 1827
3716 0 2223
3721 0 2624
3799 16 0
3819 37 197
3837 55 499
3851 69 854
3865 83 1227
3878 96 1612
3890 107 2006
3902 120 2409
3914 132 2817
3982 495 112
4006 519 384
4028 540 690
4046 558 1048
4062 575 1424
4079 591 1812
4094 607 2211
4095 622 2617
4095 637 3028
4095 1044 233
4095 1069 506
4095 1093 814
4095 1113 1175
4095 1132 1553
4095 1151 1944
4095 1168 2344
4095 1186 2752
4095 1203 3165
4095 1630 328
4095 1658 603
4095 1683 913
4095 1704 1275
4095 1724 1653
4095 1742 2044
4095 1760 2445
4095 1778 2853
4095 1795 3266
4095 2231 408
4095 2259 684
4095 2284 993
4095 2304 1354
4095 2324 1733
4095 2342 2123
4095 2359 2523
4095 2375 2929
4095 2391 3341
4095 2829 466
4095 2855 739
4095 2878 1047
4095 2896 1406
4095 2914 1782
4095 2930 2170
4095 2945 2568
4095 2959 2973
4095 2972 3382
4095 3408 495
4095 3431 766
4095 3451 1085
4095 3467 1471
4095 3483 1876
4095 3501 2288
4095 3518 2695
4095 3536 3082
4095 3555 3442
4095 3887 1455
4095 3897 1807
4095 3905 2156
4095 3912 2511
4095 3920 2839
4095 3929 3132
4093 3940 3388
4083 3954 3611
4077 3971 3793
4095 0 0
4095 0 44
4095 0 333
4095 0 680
4095 0 1046
4095 0 1425
4095 0 1816
4095 0 2215
4095 0 2620
4095 18 0
4095 40 200
4095 59 503
4095 74 859
4095 89 1233
4095 102 1618
4095 116 2015
4095 129 2418
4095 142 2827
4095 507 125
4095 532 397
4095 554 704
4095 573 1063
4095 591 1440
4095 608 1829
4095 624 2228
4095 640 2634
4095 655 3045
4095 1062 252
4095 1089 526
4095 1114 835
4095 1134 1197
4095 1154 1575
4095 1173 1966
4095 1191 2367
4095 1208 2775
4095 1226 3188
4095 1653 351
4095 1681 627
4095 1706 935
4095 1727 1297
4095 1746 1676
4095 1765 2067
4095 1784 2468
4095 1801 2876
4095 1818 3289
4095 2253 431
4095 2280 705
4095 2305 1014
4095 2325 1375
4095 2344 1753
4095 2362 2143
4095 2377 2541
4095 2393 2948
4095 2409 3359
4095 2845 483
4095 2871 755
4095 2893 1062
4095 2911 1420
4095 2927 1796
4095 2942 2183
4095 2956 2580
4095 2969 2984
4095 2982 3391
4095 3418 565
4095 3442 890
4095 3466 1258
4095 3488 1671
4095 3509 2081
4095 3531 2478
4095 3555 2857
4095 3580 3205
4095 3606 3514
4095 3884 2000
4095 3899 2330
4095 3913 2647
4095 3927 2952
4095 3943 3231
4095 3962 3475
4095 3983 3680
4095 4007 3845
4095 4034 3968
