3DLUTS/GC_VENOM_LUTS/Additional_Formats/3DL/GC_Venom_709/GC_Venom_Jomei_709.3dl
# Converted by Briz LUT Converter
0 64 128 192 256 320 384 448 512 576 640 704 768 832 896 960 1023
161 163 163
166 168 171
171 173 186
175 176 211
178 180 248
180 181 300
180 182 372
179 180 465
175 177 588
168 169 759
157 158 979
143 145 1229
128 130 1505
112 113 1804
94 96 2124
76 78 2459
59 60 2800
181 231 183
179 234 234
176 236 304
172 237 396
167 236 513
158 233 672
147 226 884
134 217 1128
120 207 1394
103 194 1681
87 181 1984
70 167 2301
55 154 2625
39 142 2949
26 131 3266
15 121 3560
11 120 3767
141 350 143
138 354 235
135 358 358
130 359 512
122 358 719
111 352 980
99 345 1264
86 336 1562
74 327 1874
60 316 2193
48 307 2514
36 297 2831
27 290 3138
18 282 3430
14 280 3669
16 282 3841
21 287 3987
96 535 98
98 542 212
99 546 362
97 548 548
92 545 797
84 538 1085
76 531 1385
68 524 1689
61 517 2000
54 509 2311
48 503 2619
42 498 2919
38 494 3209
34 490 3484
36 492 3706
41 497 3872
50 507 4017
50 760 51
58 768 174
64 774 331
67 777 523
66 776 776
62 772 1067
58 769 1369
54 765 1677
51 762 1991
47 758 2306
45 756 2618
42 754 2921
41 753 3214
41 753 3492
46 758 3717
55 767 3887
67 779 4034
18 1024 19
29 1035 145
38 1045 306
44 1051 501
47 1054 759
46 1053 1053
46 1053 1357
44 1051 1668
43 1050 1985
41 1048 2301
40 1048 2615
39 1047 2919
40 1048 3214
41 1049 3493
48 1056 3719
57 1066 3889
69 1078 4037
6 1318 8
19 1331 135
30 1342 298
37 1350 495
41 1354 755
41 1354 1049
42 1354 1354
40 1353 1666
39 1352 1982
38 1352 2300
38 1351 2614
38 1351 2919
38 1352 3213
41 1355 3494
47 1361 3718
58 1372 3890
70 1384 4037
0 1625 0
12 1638 129
23 1649 291
31 1658 490
34 1661 749
36 1663 1046
36 1662 1350
36 1663 1663
35 1662 1980
35 1662 2298
34 1661 2611
35 1663 2918
36 1663 3212
39 1667 3493
45 1673 3717
57 1685 3888
69 1697 4036
0 1936 0
5 1951 123
16 1962 285
26 1971 485
29 1975 745
31 1977 1042
31 1977 1346
32 1978 1660
31 1977 1977
31 1977 2295
30 1977 2609
32 1978 2916
33 1979 3210
36 1983 3491
42 1989 3715
54 2002 3886
67 2014 4034
0 2251 0
2 2266 119
13 2278 282
23 2287 482
26 2291 743
28 2294 1040
29 2294 1345
29 2295 1659
29 2294 1976
28 2294 2294
29 2295 2609
30 2296 2915
32 2298 3210
34 2300 3490
42 2308 3715
53 2319 3885
67 2333 4034
0 2568 0
4 2584 121
15 2595 285
24 2604 485
29 2609 747
30 2610 1042
31 2612 1349
31 2612 1662
32 2613 1981
31 2612 2298
32 2613 2613
32 2614 2919
35 2617 3215
37 2619 3494
46 2627 3719
56 2638 3889
70 2652 4038
0 2884 0
12 2898 129
25 2911 295
33 2920 495
38 2925 757
40 2926 1053
41 2928 1361
41 2928 1673
42 2929 1992
41 2928 2310
42 2930 2625
42 2930 2930
45 2933 3226
47 2935 3505
55 2943 3729
66 2954 3899
80 2968 4047
16 3197 18
30 3211 148
43 3224 313
51 3233 513
56 3238 776
57 3239 1072
59 3240 1380
58 3240 1692
59 3240 2011
58 3240 2328
58 3240 2642
59 3241 2947
61 3243 3243
63 3245 3522
70 3252 3744
81 3264 3914
93 3276 4061
45 3503 46
59 3518 176
71 3530 341
79 3538 541
84 3543 804
85 3544 1101
85 3544 1407
85 3544 1720
84 3543 2037
84 3544 2356
83 3543 2669
84 3544 2974
84 3544 3268
87 3547 3547
93 3553 3768
105 3565 3938
117 3577 4084
114 3789 116
128 3803 246
139 3814 410
148 3823 610
151 3826 872
152 3827 1170
152 3827 1475
152 3827 1789
150 3825 2105
150 3825 2423
148 3824 2735
149 3824 3039
149 3824 3333
151 3827 3612
157 3832 3832
168 3843 4002
179 3854 4095
220 4053 221
234 4068 352
244 4078 515
252 4086 716
255 4089 978
256 4090 1274
254 4088 1579
254 4088 1892
252 4086 2208
251 4085 2525
249 4083 2836
249 4083 3140
248 4082 3433
250 4084 3712
255 4089 3931
265 4095 4095
276 4095 4095
338 4095 339
352 4095 470
361 4095 633
369 4095 833
371 4095 1095
371 4095 1391
369 4095 1695
368 4095 2008
365 4095 2323
364 4095 2639
361 4095 2949
360 4095 3253
359 4095 3545
360 4095 3823
364 4095 4041
374 4095 4095
384 4095 4095
186 176 176
194 180 195
201 182 225
209 183 268
214 183 327
218 182 407
220 179 509
219 173 646
215 163 836
207 150 1065
198 136 1319
188 121 1599
176 104 1898
164 87 2217
150 69 2547
137 52 2880
123 35 3209
238 239 176
240 241 241
241 242 330
241 242 443
239 240 587
233 234 786
223 224 1027
212 213 1293
200 201 1578
188 189 1881
175 176 2197
163 164 2520
151 152 2842
141 142 3160
131 131 3463
126 127 3701
126 127 3879
237 364 137
239 370 240
239 374 374
238 375 542
231 372 767
222 365 1042
212 357 1335
202 348 1642
191 339 1957
181 330 2277
170 320 2595
162 313 2904
153 305 3200
148 299 3480
146 298 3701
151 302 3866
156 308 4008
219 555 106
224 562 225
227 566 378
228 568 568
224 564 818
218 559 1108
212 552 1406
206 547 1713
199 540 2023
194 534 2336
187 528 2644
183 524 2945
179 520 3235
177 518 3512
180 521 3735
188 529 3904
198 539 4049
189 784 75
198 794 200
205 800 357
210 805 551
209 805 805
208 804 1099
205 801 1401
203 799 1711
199 796 2025
197 793 2341
194 790 2652
193 790 2957
192 789 3250
194 791 3530
199 796 3754
209 806 3925
220 817 4072
167 1058 53
180 1071 181
189 1081 342
197 1089 539
200 1091 796
200 1092 1092
199 1091 1395
199 1090 1708
197 1089 2023
196 1088 2341
194 1087 2653
195 1087 2959
195 1087 3253
197 1089 3533
203 1095 3758
212 1105 3928
225 1118 4077
160 1357 46
174 1371 175
185 1381 337
193 1390 535
196 1393 794
197 1394 1090
197 1394 1394
197 1394 1707
196 1393 2023
195 1392 2341
194 1392 2654
194 1392 2959
196 1393 3255
197 1395 3534
204 1403 3760
215 1413 3930
228 1426 4079
154 1665 40
168 1678 169
180 1690 332
187 1698 530
192 1703 791
192 1703 1086
194 1705 1392
193 1704 1704
193 1704 2022
192 1703 2339
192 1704 2654
192 1704 2959
194 1706 3255
196 1708 3534
204 1716 3760
214 1726 3930
228 1740 4079
149 1978 34
162 1992 163
175 2004 328
183 2013 526
188 2018 788
188 2018 1083
190 2020 1389
189 2019 1702
190 2020 2020
189 2019 2337
189 2020 2652
190 2020 2958
192 2023 3253
194 2025 3533
202 2033 3758
213 2044 3928
225 2057 4077
146 2295 31
160 2308 161
172 2321 325
181 2330 524
186 2335 787
186 2336 1082
187 2337 1388
188 2337 1702
188 2338 2020
188 2338 2338
188 2338 2652
189 2339 2958
190 2341 3253
194 2344 3534
200 2351 3757
213 2363 3929
225 2376 4077
148 2612 33
162 2626 163
174 2638 327
183 2648 528
187 2652 789
190 2654 1086
190 2655 1392
191 2656 1706
190 2655 2024
191 2656 2343
191 2656 2656
193 2658 2963
194 2659 3258
197 2663 3538
204 2670 3762
216 2682 3933
229 2695 4080
157 2927 42
172 2943 173
183 2954 337
193 2964 538
197 2968 800
200 2971 1097
200 2971 1403
201 2972 1717
200 2972 2035
201 2972 2354
201 2972 2667
202 2974 2974
203 2975 3268
207 2978 3549
213 2985 3771
225 2997 3942
238 3010 4089
175 3240 60
190 3255 191
201 3266 355
211 3276 556
215 3280 818
217 3282 1116
217 3282 1422
217 3283 1735
217 3282 2053
217 3283 2371
217 3282 2684
217 3283 2989
219 3285 3285
221 3287 3563
228 3294 3786
239 3305 3955
252 3318 4095
203 3545 88
218 3560 219
229 3571 383
238 3580 583
242 3584 846
242 3585 1142
243 3586 1449
243 3586 1762
242 3585 2079
241 3584 2396
241 3584 2710
241 3584 3014
243 3586 3309
244 3587 3587
251 3595 3809
261 3604 3978
274 3617 4095
272 3830 156
285 3843 286
297 3855 451
305 3863 650
309 3867 914
309 3867 1209
309 3867 1516
308 3866 1828
307 3866 2146
306 3864 2462
305 3864 2775
305 3863 3078
306 3864 3373
307 3865 3651
313 3872 3872
323 3881 4039
335 3893 4095
377 4093 261
389 4095 390
401 4095 555
408 4095 754
411 4095 1017
410 4095 1312
410 4095 1619
409 4095 1930
408 4095 2247
405 4095 2562
404 4095 2875
403 4095 3177
403 4095 3471
404 4095 3748
410 4095 3968
418 4095 4095
430 4095 4095
494 4095 378
506 4095 507
516 4095 670
523 4095 869
525 4095 1132
524 4095 1427
524 4095 1733
521 4095 2043
519 4095 2360
516 4095 2674
515 4095 2986
513 4095 3288
512 4095 3581
512 4095 3857
517 4095 4076
525 4095 4095
536 4095 4095
236 183 183
248 184 216
260 184 261
271 182 324
280 178 407
288 173 513
292 166 657
292 154 855
291 141 1087
287 126 1345
282 111 1625
275 94 1925
267 77 2240
258 59 2565
248 41 2892
239 25 3215
232 11 3521
335 242 165
342 243 243
347 243 348
350 241 478
350 236 649
346 227 881
340 217 1144
332 206 1428
325 195 1728
316 183 2041
307 172 2363
298 159 2685
289 148 3003
281 138 3310
275 131 3590
275 130 3784
279 133 3947
374 375 132
379 380 241
382 383 383
382 383 560
378 380 800
371 372 1083
363 365 1383
354 356 1691
346 347 2007
336 338 2321
329 330 2633
321 322 2932
316 317 3221
311 313 3495
312 314 3716
317 318 3882
324 326 4026
378 568 114
384 574 235
389 579 391
391 581 581
389 579 834
384 574 1124
379 570 1424
373 564 1730
368 558 2042
362 552 2354
358 549 2665
354 545 2967
353 544 3259
352 543 3537
357 547 3761
365 555 3930
376 566 4077
360 805 96
370 815 220
379 824 380
384 830 575
386 832 832
384 830 1125
383 829 1428
380 826 1738
378 824 2054
376 822 2369
375 821 2683
374 820 2987
374 820 3281
375 821 3560
381 828 3786
391 837 3956
403 850 4095
348 1089 83
360 1101 210
371 1112 373
378 1119 569
382 1123 828
382 1123 1123
382 1123 1428
380 1122 1739
380 1121 2056
378 1120 2373
378 1120 2686
377 1119 2991
378 1120 3285
380 1122 3565
386 1129 3791
397 1139 3962
409 1151 4095
344 1390 79
357 1403 207
368 1414 370
376 1423 567
380 1427 827
381 1427 1123
381 1428 1428
380 1427 1740
379 1426 2056
379 1426 2374
378 1425 2688
379 1426 2994
379 1427 3288
383 1430 3569
389 1436 3793
400 1448 3965
412 1460 4095
338 1698 73
353 1713 203
364 1724 365
373 1733 565
376 1737 824
378 1738 1121
378 1738 1426
379 1739 1739
378 1738 2056
378 1739 2374
377 1738 2688
378 1739 2994
379 1740 3289
383 1744 3569
389 1750 3794
401 1762 3965
413 1775 4095
334 2012 68
349 2027 199
360 2038 362
369 2048 561
373 2052 822
375 2054 1119
375 2054 1424
376 2055 1737
375 2054 2054
376 2055 2373
375 2055 2687
377 2056 2994
378 2058 3288
381 2060 3568
388 2068 3793
400 2080 3964
413 2093 4095
332 2329 65
347 2345 196
358 2356 360
368 2366 560
372 2370 821
374 2372 1118
374 2373 1424
375 2373 1737
375 2373 2055
374 2373 2373
375 2374 2688
375 2374 2993
378 2377 3289
380 2380 3569
388 2388 3794
399 2399 3964
413 2413 4095
335 2647 68
349 2661 198
361 2674 363
370 2683 563
375 2688 826
376 2690 1121
378 2691 1429
378 2691 1742
378 2692 2060
378 2692 2378
379 2693 2693
379 2693 2998
382 2696 3294
384 2698 3573
392 2707 3798
403 2717 3968
417 2732 4095
345 2964 78
359 2978 208
371 2991 373
380 2999 573
385 3004 836
386 3006 1132
387 3007 1440
387 3007 1753
388 3008 2071
387 3007 2389
388 3008 2703
388 3008 3008
391 3011 3304
393 3013 3583
400 3020 3806
411 3032 3976
425 3045 4095
362 3276 96
376 3290 226
389 3302 391
397 3311 591
402 3315 854
403 3316 1150
404 3318 1457
403 3317 1770
403 3317 2088
403 3317 2405
402 3316 2719
403 3318 3024
404 3318 3318
407 3322 3598
413 3328 3820
425 3339 3990
437 3351 4095
389 3580 122
403 3594 253
414 3605 416
424 3614 617
427 3618 880
428 3619 1176
428 3619 1482
428 3619 1796
427 3618 2112
427 3618 2430
425 3617 2743
426 3618 3047
426 3618 3341
429 3621 3621
435 3626 3841
446 3637 4011
457 3649 4095
456 3862 189
471 3877 320
481 3887 483
490 3896 684
492 3899 946
493 3900 1243
493 3899 1548
492 3899 1861
491 3897 2177
490 3896 2494
488 3894 2806
488 3895 3110
488 3894 3403
490 3896 3682
495 3902 3902
506 3912 4071
517 3923 4095
559 4095 292
573 4095 422
583 4095 585
591 4095 785
593 4095 1047
594 4095 1344
592 4095 1649
591 4095 1961
589 4095 2276
587 4095 2593
585 4095 2904
585 4095 3207
584 4095 3500
585 4095 3778
590 4095 3996
600 4095 4095
610 4095 4095
675 4095 406
688 4095 536
697 4095 699
704 4095 899
706 4095 1161
706 4095 1457
703 4095 1761
702 4095 2072
699 4095 2387
697 4095 2703
694 4095 3013
693 4095 3316
691 4095 3607
691 4095 3884
694 4095 4095
702 4095 4095
711 4095 4095
322 180 180
340 178 226
356 175 289
371 170 372
384 164 479
394 157 621
400 146 818
404 132 1052
405 117 1309
404 101 1589
401 84 1886
397 67 2199
391 49 2521
386 32 2845
381 17 3164
378 4 3471
380 0 3701
466 239 150
476 240 240
484 238 357
491 236 505
494 230 704
492 222 959
489 212 1237
486 201 1534
479 189 1843
473 178 2162
465 165 2484
458 155 2803
451 144 3112
446 136 3409
443 132 3656
447 133 3833
