3DLUTS/GC_VENOM_LUTS/Additional_Formats/3DL/GC_Venom_709/GC_Venom_Hadria_709.3dl
# Converted by Briz LUT Converter
0 64 128 192 256 320 384 448 512 576 640 704 768 832 896 960 1023
0 0 0
9 11 14
17 22 34
24 33 60
31 44 98
36 53 151
39 61 228
41 67 321
41 72 436
39 75 566
37 76 713
33 77 877
28 76 1050
23 76 1229
18 74 1401
13 74 1565
10 74 1707
53 129 126
56 141 164
58 151 204
59 161 262
58 168 342
55 172 454
49 173 599
41 172 763
32 170 941
22 166 1132
11 162 1336
0 156 1541
0 150 1749
0 145 1938
0 139 2118
0 136 2269
0 134 2399
61 260 203
60 267 258
59 273 312
56 277 386
51 278 493
42 275 638
30 270 825
17 262 1027
4 254 1242
0 245 1468
0 235 1698
0 226 1932
0 216 2160
0 208 2374
0 201 2570
0 196 2739
0 195 2880
37 365 223
34 368 288
31 372 351
27 374 439
19 373 565
8 368 739
0 360 961
0 352 1203
0 342 1460
0 332 1727
0 322 2002
0 311 2275
0 301 2547
0 293 2796
0 286 3029
0 283 3223
0 282 3382
0 488 198
0 493 276
0 499 350
0 502 455
0 503 605
0 499 811
0 491 1074
0 482 1356
0 471 1652
0 460 1959
0 449 2270
0 439 2583
0 429 2888
0 423 3170
0 418 3424
0 417 3634
0 420 3801
0 659 126
0 667 216
0 675 302
0 682 423
0 684 596
0 682 831
0 675 1128
0 666 1445
0 657 1776
0 648 2114
0 639 2454
0 631 2786
0 624 3105
0 619 3387
0 616 3637
0 619 3836
0 625 3981
0 899 0
0 908 101
0 919 200
0 926 334
0 929 522
0 927 775
0 920 1089
0 913 1418
0 905 1755
0 898 2096
0 890 2433
0 884 2761
0 880 3074
0 880 3352
0 883 3600
0 890 3796
0 902 3945
0 1166 0
0 1177 6
0 1189 111
0 1200 253
0 1206 447
0 1208 705
0 1207 1025
0 1204 1358
0 1202 1701
0 1199 2046
0 1198 2390
0 1198 2724
0 1200 3043
0 1204 3326
0 1211 3577
0 1223 3779
0 1238 3930
0 1477 0
0 1493 0
0 1512 72
0 1526 218
0 1537 417
0 1545 680
0 1546 1002
0 1548 1340
0 1547 1685
0 1549 2035
0 1549 2379
0 1550 2715
0 1553 3035
0 1558 3318
0 1567 3572
0 1579 3773
0 1596 3927
0 1828 0
0 1847 0
0 1866 61
0 1882 207
0 1895 408
0 1902 671
0 1905 995
0 1907 1333
0 1909 1680
0 1909 2029
0 1910 2375
0 1913 2711
0 1916 3031
0 1923 3317
0 1931 3570
0 1945 3774
0 1961 3926
0 2190 0
0 2209 0
0 2229 58
0 2246 206
0 2258 406
0 2267 671
0 2270 995
0 2273 1335
0 2275 1681
0 2277 2032
0 2278 2378
0 2281 2714
0 2285 3036
0 2292 3320
0 2302 3575
0 2314 3778
0 2332 3932
0 2555 0
0 2574 0
0 2595 69
0 2612 217
0 2626 419
0 2634 683
0 2638 1008
0 2641 1347
0 2644 1695
0 2645 2045
0 2646 2391
0 2650 2729
0 2654 3049
0 2662 3336
0 2671 3589
0 2685 3793
0 2702 3947
0 2918 0
0 2939 0
0 2958 95
0 2977 245
0 2990 445
0 2999 711
0 3003 1035
0 3006 1375
0 3008 1722
0 3009 2071
0 3012 2419
0 3015 2755
0 3020 3077
0 3026 3362
0 3036 3617
0 3049 3819
0 3066 3973
0 3273 0
0 3292 36
0 3313 150
0 3330 298
0 3345 500
0 3352 764
0 3357 1089
0 3359 1428
0 3361 1775
0 3363 2125
0 3364 2471
0 3368 2808
0 3371 3129
0 3378 3415
0 3387 3668
0 3400 3871
0 3416 4024
0 3614 0
0 3634 117
0 3653 230
0 3671 379
0 3684 579
0 3693 844
0 3695 1167
0 3697 1506
0 3699 1853
0 3700 2202
0 3702 2549
0 3703 2884
0 3707 3205
0 3713 3489
0 3722 3742
0 3733 3944
0 3748 4095
0 3935 113
0 3954 233
0 3974 347
0 3990 494
0 4003 694
0 4010 957
0 4012 1280
0 4014 1619
0 4014 1964
0 4015 2313
0 4015 2658
0 4017 2994
0 4019 3313
0 4024 3597
0 4032 3849
0 4042 4049
0 4058 4095
0 4095 266
0 4095 386
4 4095 498
21 4095 645
32 4095 844
38 4095 1106
40 4095 1429
39 4095 1765
39 4095 2110
37 4095 2456
37 4095 2800
36 4095 3133
37 4095 3451
39 4095 3732
44 4095 3982
53 4095 4095
64 4095 4095
31 32 40
41 44 63
51 54 89
60 64 126
68 72 177
74 80 251
78 84 349
80 87 469
81 89 607
80 89 761
79 88 934
76 86 1113
72 83 1301
68 79 1480
64 76 1659
61 73 1817
59 72 1958
100 159 154
105 168 198
109 177 244
112 183 306
112 188 395
109 189 519
104 187 680
97 184 859
89 179 1051
79 173 1256
69 165 1463
58 157 1674
47 149 1881
37 141 2077
29 135 2258
22 130 2413
17 128 2546
123 274 211
123 279 269
123 282 324
121 285 403
117 284 514
109 280 668
98 273 866
86 264 1079
73 254 1306
59 244 1541
45 233 1783
30 222 2024
16 212 2265
4 203 2488
0 196 2698
0 192 2879
0 190 3028
111 371 220
109 373 288
108 377 354
104 379 447
98 378 581
89 374 765
75 365 1000
60 356 1256
45 346 1524
28 335 1805
12 323 2090
0 312 2377
0 301 2658
0 293 2917
0 286 3156
0 282 3353
0 282 3516
62 498 194
61 504 275
59 509 353
56 513 463
49 513 620
37 508 834
22 499 1107
5 489 1400
0 479 1710
0 468 2029
0 458 2354
0 448 2676
0 438 2988
0 432 3272
0 427 3528
0 427 3740
0 430 3904
0 677 122
0 685 216
0 694 307
0 699 432
0 701 610
0 699 853
0 692 1158
0 684 1483
0 675 1819
0 666 2162
0 657 2501
0 648 2831
0 642 3146
0 637 3422
0 637 3667
0 640 3859
0 648 4004
0 920 4
0 930 112
0 940 213
0 947 351
0 950 542
0 948 796
0 943 1111
0 936 1441
0 929 1779
0 922 2121
0 918 2461
0 914 2791
0 912 3106
0 914 3386
0 917 3634
0 926 3833
0 939 3982
0 1194 0
0 1207 35
0 1221 143
0 1233 287
0 1241 482
0 1245 742
0 1244 1061
0 1244 1398
0 1242 1742
0 1242 2090
0 1242 2434
0 1242 2768
0 1245 3088
0 1249 3371
0 1258 3624
0 1269 3825
0 1285 3978
0 1520 0
0 1538 5
0 1556 117
0 1571 263
0 1584 463
0 1590 725
0 1593 1050
0 1594 1387
0 1595 1733
0 1596 2082
0 1596 2426
0 1598 2763
0 1601 3082
0 1608 3368
0 1615 3620
0 1629 3823
0 1644 3976
0 1875 0
0 1895 0
0 1913 108
0 1931 257
0 1943 456
0 1951 720
0 1954 1044
0 1956 1382
0 1957 1729
0 1958 2078
0 1960 2425
0 1962 2761
0 1967 3082
0 1973 3367
0 1983 3621
0 1995 3823
0 2013 3978
0 2240 0
0 2258 0
0 2279 109
0 2296 256
0 2310 458
0 2317 721
0 2322 1046
0 2324 1385
0 2325 1732
0 2328 2082
0 2329 2428
0 2333 2766
0 2336 3087
0 2344 3373
0 2353 3626
0 2367 3830
0 2384 3983
0 2605 0
0 2626 7
0 2646 120
0 2664 270
0 2677 470
0 2686 735
0 2690 1060
0 2692 1398
0 2695 1747
0 2696 2096
0 2699 2444
0 2702 2780
0 2707 3102
0 2713 3387
0 2723 3642
0 2736 3845
0 2753 3998
0 2971 0
0 2990 33
0 3011 148
0 3028 296
0 3043 498
0 3051 762
0 3054 1086
0 3058 1426
0 3059 1773
0 3062 2124
0 3063 2470
0 3067 2808
0 3071 3128
0 3078 3414
0 3087 3668
0 3100 3870
0 3117 4024
0 3324 0
0 3345 88
0 3364 201
0 3383 351
0 3395 551
0 3404 816
0 3408 1140
0 3409 1478
0 3412 1826
0 3413 2175
0 3416 2523
0 3418 2858
0 3422 3180
0 3428 3464
0 3436 3717
0 3449 3920
0 3465 4073
0 3665 47
0 3684 167
0 3704 281
0 3721 429
0 3734 629
0 3742 893
0 3744 1216
0 3747 1556
0 3748 1902
0 3750 2252
0 3750 2597
0 3753 2933
0 3755 3253
0 3760 3536
0 3769 3790
0 3780 3991
12 3797 4095
0 3984 162
15 4003 282
33 4021 394
50 4038 542
62 4050 742
69 4057 1004
72 4060 1328
72 4061 1665
74 4062 2012
73 4061 2359
74 4062 2705
75 4063 3039
76 4064 3358
81 4069 3642
87 4075 3892
98 4086 4093
112 4095 4095
147 4095 313
164 4095 432
182 4095 543
198 4095 690
208 4095 888
214 4095 1150
214 4095 1471
215 4095 1808
213 4095 2151
212 4095 2498
209 4095 2840
208 4095 3173
207 4095 3489
209 4095 3769
215 4095 4018
231 4095 4095
260 4095 4095
79 62 80
92 71 109
104 81 143
116 88 188
126 95 253
133 99 343
138 101 464
142 101 607
144 100 765
144 97 939
143 92 1121
140 87 1314
137 81 1508
134 76 1696
132 71 1880
130 67 2040
130 65 2179
169 179 173
175 186 222
181 192 270
185 197 339
187 199 437
185 198 571
180 193 745
173 187 934
165 179 1135
156 170 1344
146 161 1562
136 151 1779
126 141 1995
117 133 2198
109 125 2385
104 120 2548
100 117 2679
205 279 210
206 281 271
207 284 330
207 286 412
203 284 530
197 279 692
186 270 899
175 261 1123
163 250 1360
150 238 1608
136 227 1861
124 216 2119
111 205 2373
100 196 2610
91 189 2832
84 184 3017
81 182 3172
206 371 213
206 375 285
207 379 355
206 381 453
202 380 594
193 375 788
181 366 1036
168 356 1301
154 345 1584
139 333 1875
124 321 2173
109 309 2470
94 297 2759
82 288 3026
72 281 3270
66 278 3478
64 278 3644
177 505 185
176 509 270
177 514 351
175 518 465
170 517 628
161 513 853
148 505 1138
134 496 1444
119 485 1764
104 474 2093
89 463 2424
74 452 2751
62 444 3070
52 437 3355
46 434 3615
44 434 3822
47 439 3982
105 689 115
107 697 213
111 706 308
112 712 437
110 715 622
103 713 870
93 706 1182
82 697 1509
70 688 1847
60 679 2189
51 671 2526
44 664 2853
38 658 3164
36 655 3440
35 655 3684
40 659 3879
48 668 4024
4 936 14
14 946 125
24 956 229
32 964 368
35 968 559
35 968 815
30 963 1131
26 959 1463
22 954 1804
17 949 2148
14 947 2489
11 944 2820
11 943 3137
13 945 3418
20 952 3669
29 962 3868
45 977 4020
0 1222 0
0 1236 65
0 1252 174
0 1265 318
0 1275 516
0 1280 777
0 1282 1100
0 1282 1436
0 1282 1781
0 1282 2130
0 1282 2474
1 1284 2810
3 1286 3129
9 1292 3414
16 1299 3666
29 1311 3867
44 1327 4020
0 1560 0
0 1579 46
0 1597 158
0 1614 306
0 1625 505
0 1633 769
0 1635 1091
0 1636 1429
0 1638 1776
0 1638 2124
0 1640 2471
0 1641 2806
1 1645 3127
7 1651 3411
15 1660 3664
28 1672 3867
44 1689 4020
0 1920 0
0 1938 39
0 1958 153
0 1974 300
0 1988 501
0 1995 764
0 1999 1089
0 2001 1427
0 2002 1774
0 2004 2124
0 2005 2470
0 2009 2807
1 2012 3127
9 2019 3413
17 2028 3667
30 2040 3869
48 2058 4023
0 2285 0
0 2305 41
0 2324 153
0 2342 303
0 2355 503
0 2363 767
0 2367 1092
0 2369 1431
0 2372 1779
0 2373 2128
1 2376 2476
3 2379 2812
8 2384 3134
14 2390 3419
23 2399 3672
37 2413 3876
54 2430 4030
0 2653 0
0 2672 53
0 2693 168
0 2710 316
0 2723 517
2 2732 782
5 2736 1106
9 2739 1446
10 2741 1793
13 2744 2144
15 2745 2490
19 2749 2828
22 2753 3148
29 2759 3433
39 2770 3688
52 2782 3891
70 2800 4045
0 3017 0
0 3038 81
0 3057 194
6 3075 342
21 3089 544
28 3097 808
33 3101 1134
35 3104 1472
38 3106 1821
39 3108 2170
42 3110 2517
45 3113 2853
49 3117 3175
55 3124 3460
64 3132 3713
78 3146 3917
94 3162 4070
3 3371 13
22 3390 134
43 3411 248
60 3428 396
72 3441 596
82 3450 861
85 3453 1185
88 3456 1525
89 3457 1871
91 3459 2221
92 3460 2567
94 3462 2903
98 3466 3224
104 3472 3508
113 3481 3762
125 3493 3964
142 3510 4095
81 3710 91
101 3729 213
120 3749 325
137 3765 473
150 3778 674
157 3786 937
161 3789 1261
162 3790 1599
164 3792 1946
164 3792 2294
165 3793 2640
167 3795 2976
169 3797 3295
175 3803 3580
182 3811 3831
195 3823 4034
209 3838 4095
195 4027 205
213 4045 325
232 4064 437
248 4081 585
260 4092 784
267 4095 1047
269 4095 1369
271 4095 1707
270 4095 2052
269 4095 2400
270 4095 2745
269 4095 3078
271 4095 3397
274 4095 3679
281 4095 3930
291 4095 4095
304 4095 4095
343 4095 353
360 4095 471
377 4095 582
391 4095 727
402 4095 926
407 4095 1186
408 4095 1508
406 4095 1843
404 4095 2186
401 4095 2531
397 4095 2872
397 4095 3205
403 4095 3520
421 4095 3798
446 4095 4040
484 4095 4095
529 4095 4095
139 87 117
154 96 153
168 103 192
181 109 246
192 114 324
200 116 430
205 115 571
208 112 728
209 108 903
208 102 1089
206 95 1287
204 88 1491
201 80 1695
198 73 1889
195 66 2067
194 61 2222
193 58 2349
237 196 189
244 201 242
250 206 294
255 209 368
256 208 472
254 205 614
248 197 796
241 189 995
232 180 1206
223 169 1427
214 159 1654
204 148 1882
194 137 2109
186 128 2317
179 120 2513
174 114 2677
