3DLUTS/GC_VENOM_LUTS/Additional_Formats/3DL/GC_Venom_709/GC_Venom_Adara_709.3dl
# Converted by Briz LUT Converter
0 128 256 384 512 640 768 896 1023
0 0 0
0 0 0
0 0 0
15 18 77
32 40 291
39 53 618
37 56 1058
25 51 1614
2 33 2317
0 432 16
0 456 336
0 469 777
0 474 1298
0 473 1886
0 466 2538
0 453 3248
0 434 4021
0 402 4095
0 1086 0
0 1087 215
0 1081 781
0 1072 1379
0 1060 2004
0 1046 2656
0 1030 3340
0 1010 4068
0 978 4095
0 1668 0
0 1669 91
0 1663 656
0 1653 1255
0 1642 1879
0 1628 2531
0 1612 3216
0 1591 3944
0 1560 4095
0 2253 0
0 2254 0
0 2247 526
0 2238 1124
0 2226 1749
0 2213 2401
0 2196 3085
0 2176 3813
0 2144 4095
0 2841 0
0 2842 0
0 2836 385
0 2826 983
0 2815 1608
0 2801 2260
0 2785 2944
0 2764 3672
0 2733 4095
0 3436 0
0 3437 0
0 3430 229
0 3421 828
0 3409 1452
0 3396 2104
0 3379 2789
0 3359 3517
0 3327 4095
0 4051 0
0 4053 0
0 4046 21
0 4037 620
0 4025 1245
0 4011 1897
0 3995 2581
0 3975 3309
0 3943 4095
0 4095 0
0 4095 0
0 4095 0
0 4095 365
0 4095 989
0 4095 1641
0 4095 2325
0 4095 3054
0 4095 3915
67 20 22
156 35 101
240 41 272
317 40 541
384 30 909
441 14 1378
487 0 1946
521 0 2616
538 0 3439
613 404 0
630 410 262
635 406 770
634 397 1342
627 384 1965
616 368 2632
600 349 3337
580 327 4083
548 295 4095
535 984 0
536 985 113
529 979 678
520 969 1277
508 958 1901
495 944 2553
478 927 3238
458 907 3966
426 876 4095
410 1566 0
411 1567 0
405 1560 554
395 1551 1153
384 1540 1777
370 1526 2429
354 1509 3113
333 1489 3842
302 1458 4095
279 2150 0
280 2151 0
274 2145 423
265 2135 1022
253 2124 1646
239 2110 2298
223 2094 2983
203 2073 3711
171 2042 4095
139 2739 0
140 2740 0
133 2733 282
124 2724 881
112 2713 1505
99 2699 2158
82 2682 2842
62 2662 3570
30 2630 4095
0 3333 0
0 3334 0
0 3328 127
0 3318 726
0 3307 1350
0 3293 2002
0 3277 2686
0 3256 3415
0 3225 4095
0 3949 0
0 3950 0
0 3944 0
0 3934 518
0 3923 1142
0 3909 1794
0 3892 2478
0 3872 3207
0 3841 4068
0 4095 0
0 4095 0
0 4095 0
0 4095 262
0 4095 887
0 4095 1539
0 4095 2223
0 4095 2951
0 4095 3812
592 20 34
732 10 215
856 0 510
966 0 900
1061 0 1380
1142 0 1947
1209 0 2598
1259 0 3336
1288 0 4095
1406 341 0
1430 338 175
1440 329 724
1440 317 1322
1433 304 1949
1420 290 2602
1403 273 3286
1383 253 4014
1351 221 4095
1338 910 0
1339 911 39
1332 905 605
1323 896 1204
1312 884 1828
1298 870 2480
1281 854 3164
1261 834 3892
1229 802 4095
1213 1492 0
1214 1493 0
1208 1487 480
1199 1478 1079
1187 1466 1703
1173 1452 2356
1157 1436 3040
1136 1415 3768
1105 1384 4095
1083 2077 0
1084 2078 0
1077 2071 350
1068 2062 948
1056 2050 1573
1043 2037 2225
1026 2020 2909
1006 2000 3637
974 1968 4095
942 2665 0
943 2666 0
936 2660 209
927 2650 808
916 2639 1432
902 2625 2084
885 2609 2768
865 2588 3497
833 2557 4095
786 3260 0
787 3261 0
781 3254 53
772 3245 652
760 3233 1276
746 3220 1928
730 3203 2613
709 3183 3341
678 3151 4095
578 3875 0
579 3877 0
573 3870 0
564 3861 444
552 3849 1069
538 3835 1721
522 3819 2405
502 3799 3133
470 3767 3994
323 4095 0
324 4095 0
318 4095 0
308 4095 189
297 4095 813
283 4095 1465
267 4095 2150
246 4095 2878
225 4095 3738
1436 0 0
1593 0 237
1727 0 637
1842 0 1122
1939 0 1682
2019 0 2313
2081 0 3010
2124 0 3777
2143 0 4095
2225 266 0
2232 266 96
2226 259 662
2216 250 1260
2205 238 1885
2191 225 2537
2174 208 3221
2154 188 3949
2123 156 4095
2109 845 0
2110 847 0
2104 840 540
2094 831 1139
2083 819 1763
2069 805 2415
2053 789 3099
2032 769 3828
2001 737 4095
1985 1427 0
1986 1428 0
1979 1422 415
1970 1413 1014
1958 1401 1638
1945 1387 2291
1928 1371 2975
1908 1351 3703
1876 1319 4095
1854 2012 0
1855 2013 0
1848 2006 285
1839 1997 883
1828 1985 1508
1814 1972 2160
1797 1955 2844
1777 1935 3572
1746 1903 4095
1713 2600 0
1714 2601 0
1708 2595 144
1698 2585 743
1687 2574 1367
1673 2560 2019
1657 2544 2703
1636 2523 3432
1605 2492 4095
1558 3195 0
1559 3196 0
1552 3189 0
1543 3180 587
1531 3169 1211
1518 3155 1864
1501 3138 2548
1481 3118 3276
1449 3086 4095
1350 3810 0
1351 3812 0
1344 3805 0
1335 3796 379
1324 3784 1004
1310 3771 1656
1293 3754 2340
1273 3734 3068
1242 3702 3929
1094 4095 0
1095 4095 0
1089 4095 0
1080 4095 124
1069 4095 749
1068 4095 1412
1079 4095 2108
1102 4095 2837
1130 4095 3669
2456 0 0
2601 0 194
2718 0 674
2814 0 1226
2888 0 1835
2942 0 2497
2976 0 3205
2991 0 3964
2979 0 4095
2983 205 0
2984 206 36
2978 199 602
2968 190 1201
2957 179 1825
2943 165 2477
2927 148 3161
2906 128 3890
2875 97 4095
2861 786 0
2862 787 0
2856 780 480
2846 771 1079
2835 759 1703
2821 746 2355
2805 729 3039
2784 709 3768
2753 677 4095
2737 1367 0
2738 1369 0
2731 1362 356
2722 1353 954
2711 1341 1579
2697 1328 2231
2680 1311 2915
2660 1291 3643
2628 1259 4095
2606 1952 0
2607 1953 0
2601 1946 225
2591 1937 824
2580 1926 1448
2566 1912 2100
2549 1895 2784
2529 1875 3513
2498 1844 4095
2465 2540 0
2466 2541 0
2460 2535 84
2451 2526 683
2439 2514 1307
2425 2500 1959
2409 2484 2643
2388 2464 3372
2357 2432 4095
2310 3135 0
2311 3136 0
2304 3129 0
2295 3120 527
2283 3109 1152
2270 3095 1804
2253 3078 2488
2233 3058 3216
2201 3027 4077
2102 3751 0
2103 3752 0
2096 3745 0
2087 3736 319
2076 3725 944
2062 3711 1596
2045 3694 2280
2025 3674 3008
1994 3642 3869
1847 4095 0
1850 4095 0
1854 4095 0
1867 4095 137
1890 4095 803
1922 4095 1486
1964 4095 2177
2017 4095 2872
2073 4095 3627
3517 0 0
3625 0 117
3701 0 652
3753 0 1242
3782 0 1870
3788 0 2529
3775 0 3216
3755 0 3944
3724 0 4095
3722 149 0
3723 150 0
3716 143 546
3707 134 1145
3695 123 1769
3682 109 2421
3665 92 3105
3645 72 3834
3613 40 4095
3600 729 0
3601 731 0
3594 724 424
3585 715 1023
3573 703 1647
3560 690 2299
3543 673 2983
3523 653 3712
3491 621 4095
3475 1311 0
3476 1312 0
3470 1306 299
3460 1297 898
3449 1285 1523
3435 1271 2175
3419 1255 2859
3398 1235 3587
3367 1203 4095
3344 1896 0
3346 1897 0
3339 1890 169
3330 1881 767
3318 1870 1392
3304 1856 2044
3288 1839 2728
3268 1819 3456
3236 1788 4095
3204 2484 0
3205 2485 0
3198 2479 28
3189 2470 627
3177 2458 1251
3164 2444 1903
3147 2428 2587
3127 2408 3316
3095 2376 4095
3048 3079 0
3049 3080 0
3043 3073 0
3033 3064 471
3022 3053 1096
3008 3039 1748
2992 3022 2432
2971 3002 3160
2940 2971 4021
2840 3695 0
2841 3696 0
2835 3689 0
2826 3680 263
2814 3668 888
2800 3655 1540
2784 3638 2224
2764 3618 2952
2732 3586 3813
2608 4095 0
2631 4095 0
2654 4095 0
2682 4095 389
2718 4095 1068
2762 4095 1738
2815 4095 2388
2877 4095 3010
2942 4075 3644
4095 0 0
4095 0 40
4095 0 603
4095 0 1202
4095 0 1826
4095 0 2478
4095 0 3162
4095 0 3891
4095 0 4095
4095 95 0
4095 96 0
4095 90 493
4095 81 1091
4095 69 1716
4095 55 2368
4095 39 3052
4095 19 3780
4095 0 4095
4095 676 0
4095 677 0
4095 671 371
4095 662 969
4095 650 1594
4095 636 2246
4095 620 2930
4095 599 3658
4095 568 4095
4095 1258 0
4095 1259 0
4095 1253 246
4095 1243 845
4095 1232 1469
4095 1218 2121
4095 1202 2806
4095 1181 3534
4095 1150 4095
4072 1842 0
4073 1844 0
4067 1837 115
4058 1828 714
4046 1816 1339
4032 1802 1991
4016 1786 2675
3996 1766 3403
3964 1734 4095
3931 2431 0
3933 2432 0
3926 2426 0
3917 2416 573
3905 2405 1198
3891 2391 1850
3875 2374 2534
3855 2354 3262
3823 2323 4095
3776 3025 0
3777 3027 0
3771 3020 0
3761 3011 418
3750 2999 1042
3736 2986 1694
3719 2969 2379
3699 2949 3107
3668 2917 3968
3568 3641 0
3569 3642 0
3563 3636 0
3553 3627 210
3542 3615 834
3528 3601 1487
3512 3584 2175
3492 3564 2907
3462 3533 3754
3350 4095 0
3370 4095 0
3389 4095 231
3411 4095 914
3440 4095 1573
3475 4079 2195
3517 4056 2767
3567 4037 3278
3621 4020 3746
4095 0 0
4095 0 0
4095 0 552
4095 0 1151
4095 0 1775
4095 0 2427
4095 0 3111
4095 0 3840
4095 0 4095
4095 44 0
4095 46 0
4095 39 442
4095 30 1040
4095 18 1665
4095 4 2317
4095 0 3001
4095 0 3729
4095 0 4095
4095 625 0
4095 626 0
4095 620 320
4095 611 918
4095 599 1543
4095 585 2195
4095 569 2879
4095 549 3607
4095 517 4095
4095 1207 0
4095 1208 0
4095 1202 195
4095 1192 794
4095 1181 1418
4095 1167 2070
4095 1151 2755
4095 1130 3483
4095 1099 4095
4095 1791 0
4095 1793 0
4095 1786 64
4095 1777 663
4095 1765 1288
4095 1752 1940
4095 1735 2624
4095 1715 3352
4095 1683 4095
4095 2380 0
4095 2381 0
4095 2375 0
4095 2365 522
4095 2354 1147
4095 2340 1799
4095 2324 2483
4095 2303 3211
4095 2272 4072
4095 2974 0
4095 2976 0
4095 2969 0
4095 2960 367
4095 2948 991
4095 2935 1643
4095 2918 2328
4095 2898 3056
4095 2866 3917
4095 3590 0
4095 3591 0
4095 3585 0
4095 3575 178
4095 3563 830
4095 3550 1508
4095 3537 2204
4095 3522 2914
4095 3502 3702
3958 4095 0
3954 4084 387
3947 4065 1073
3944 4048 1728
3946 4035 2330
3952 4027 2867
3966 4025 3322
3986 4030 3683
4013 4041 3946
4095 0 0
4095 0 0
4095 0 503
4095 0 1102
4095 0 1726
4095 0 2378
4095 0 3062
4095 0 3791
4095 0 4095
4095 0 0
4095 0 0
4095 0 393
4095 0 991
4095 0 1616
4095 0 2268
4095 0 2952
4095 0 3680
4095 0 4095
4095 576 0
4095 577 0
4095 571 271
4095 562 869
4095 550 1494
4095 536 2146
4095 520 2830
4095 500 3558
4095 468 4095
4095 1158 0
4095 1159 0
4095 1153 146
4095 1143 745
4095 1132 1369
4095 1118 2021
4095 1102 2706
4095 1081 3434
4095 1050 4095
4095 1742 0
4095 1744 0
4095 1737 15
4095 1728 614
4095 1716 1239
4095 1703 1891
4095 1686 2575
4095 1666 3303
4095 1634 4095
4095 2331 0
4095 2332 0
4095 2326 0
4095 2316 473
4095 2305 1098
4095 2291 1750
4095 2274 2434
4095 2254 3162
4095 2223 4023
4095 2925 0
4095 2927 0
4095 2920 0
4095 2911 318
4095 2899 942
4095 2886 1594
4095 2869 2279
4095 2849 3007
4095 2817 3868
4095 3541 0
4095 3542 0
4095 3537 0
4095 3531 337
4095 3526 1013
4095 3522 1689
4095 3521 2355
4095 3523 3006
4095 3523 3687
4095 4028 917
4095 4025 1586
4095 4022 2233
4095 4025 2815
4095 4034 3311
4095 4051 3706
4095 4076 3983
4095 4095 4095
4095 4095 4095
