3DLUTS/GC_VENOM_LUTS/Additional_Formats/3DL/GC_Venom_709/GC_Venom_Nirnasha_709.3dl
# Converted by Briz LUT Converter
0 64 128 192 256 320 384 448 512 576 640 704 768 832 896 960 1023
0 0 0
8 9 19
15 18 56
20 25 111
25 31 189
27 35 287
29 37 408
28 37 549
27 37 710
24 34 889
19 29 1087
13 24 1303
6 17 1535
0 9 1782
0 0 2043
0 0 2317
0 0 2602
26 131 47
22 136 158
15 139 286
8 141 434
0 141 599
0 141 780
0 140 977
0 137 1189
0 133 1413
0 129 1649
0 124 1897
0 117 2154
0 112 2421
0 105 2695
0 99 2976
0 93 3261
0 86 3550
0 312 0
0 312 159
0 313 361
0 313 574
0 312 798
0 311 1032
0 309 1273
0 306 1522
0 303 1776
0 301 2036
0 298 2299
0 296 2565
0 294 2832
0 292 3100
0 289 3364
0 288 3627
0 286 3886
0 535 0
0 536 118
0 535 361
0 536 610
0 535 861
0 534 1115
0 532 1368
0 532 1621
0 530 1873
0 528 2125
0 528 2378
0 526 2630
0 525 2883
0 524 3135
0 523 3388
0 521 3640
0 519 3891
0 775 0
0 774 109
0 773 362
0 771 614
0 770 867
0 768 1118
0 767 1371
0 765 1623
0 763 1874
0 762 2127
0 760 2378
0 759 2631
0 757 2883
0 756 3135
0 754 3387
0 752 3639
0 751 3892
0 1010 0
0 1009 104
0 1007 356
0 1006 609
0 1004 861
0 1003 1113
0 1001 1365
0 999 1617
0 999 1870
0 997 2122
0 996 2375
0 995 2627
0 994 2880
0 992 3132
0 991 3384
0 990 3637
0 988 3889
0 1249 0
0 1248 92
0 1247 345
0 1245 597
0 1244 849
0 1243 1102
0 1241 1354
0 1240 1606
0 1238 1858
0 1238 2111
0 1236 2363
0 1235 2615
0 1233 2867
0 1231 3119
0 1229 3371
0 1227 3622
0 1226 3875
0 1490 0
0 1489 77
0 1487 328
0 1486 581
0 1484 832
0 1482 1084
0 1480 1336
0 1478 1588
0 1477 1840
0 1475 2092
0 1473 2344
0 1471 2595
0 1470 2847
0 1468 3099
0 1466 3351
0 1464 3603
0 1462 3855
0 1729 0
0 1727 55
0 1725 307
0 1723 559
0 1721 810
0 1720 1062
0 1718 1314
0 1717 1567
0 1715 1818
0 1714 2071
0 1712 2323
0 1710 2575
0 1709 2827
0 1707 3079
0 1707 3332
0 1705 3584
0 1705 3838
0 1968 0
0 1967 33
0 1965 285
0 1963 537
0 1963 790
0 1961 1042
0 1961 1295
0 1960 1547
0 1959 1801
0 1958 2053
0 1957 2306
0 1957 2560
0 1957 2813
0 1957 3067
0 1957 3321
0 1958 3575
0 1958 3829
0 2215 0
0 2214 15
0 2214 268
0 2214 522
0 2214 776
0 2215 1030
0 2215 1284
0 2216 1538
0 2216 1792
0 2218 2048
0 2219 2303
0 2220 2558
0 2223 2814
0 2224 3069
0 2227 3325
0 2229 3581
0 2233 3838
0 2476 0
0 2478 13
0 2480 268
0 2481 523
0 2484 780
0 2486 1035
0 2490 1293
0 2492 1549
0 2497 1807
0 2500 2064
0 2503 2320
0 2508 2579
0 2511 2836
0 2516 3095
0 2521 3353
0 2526 3612
0 2531 3871
0 2760 0
0 2764 32
0 2768 290
0 2773 548
0 2777 806
0 2783 1066
0 2788 1324
0 2794 1584
0 2799 1842
0 2804 2101
0 2810 2361
0 2816 2620
0 2823 2881
0 2829 3140
0 2836 3401
0 2842 3661
0 2848 3921
0 3067 0
0 3073 73
0 3080 333
0 3086 593
0 3093 854
0 3099 1114
0 3106 1374
0 3113 1634
0 3119 1895
0 3127 2156
0 3133 2416
0 3141 2678
0 3148 2938
0 3156 3200
0 3162 3460
0 3170 3722
0 3177 3982
0 3390 0
0 3398 130
0 3405 390
0 3413 652
0 3419 912
0 3427 1174
0 3434 1434
0 3441 1695
0 3449 1956
0 3455 2216
0 3463 2478
0 3470 2738
0 3477 2999
0 3484 3259
0 3491 3521
0 3497 3780
0 3504 4040
0 3720 0
0 3726 191
0 3734 453
0 3740 713
0 3748 974
0 3754 1234
0 3760 1494
0 3768 1755
0 3773 2014
0 3780 2275
0 3786 2534
0 3792 2794
2 3798 3053
8 3804 3313
14 3809 3571
19 3814 3830
25 3820 4090
0 4042 0
0 4049 248
0 4054 507
0 4060 767
5 4066 1026
10 4071 1285
16 4077 1544
20 4082 1803
26 4088 2062
31 4092 2321
37 4095 2580
42 4095 2839
47 4095 3098
51 4095 3356
56 4095 3614
61 4095 3872
64 4095 4095
42 26 31
57 32 76
68 36 141
80 39 227
89 40 334
97 40 461
103 38 608
107 34 774
110 29 958
112 23 1159
112 16 1376
111 7 1608
110 0 1855
108 0 2114
105 0 2385
100 0 2666
95 0 2957
121 147 36
121 148 172
121 148 326
119 147 496
116 145 682
112 141 882
108 137 1095
102 132 1321
97 126 1557
91 121 1805
85 114 2060
79 109 2324
73 102 2594
67 96 2870
60 89 3149
54 82 3430
48 77 3715
101 322 0
96 321 152
90 320 369
84 319 596
78 316 831
72 313 1074
66 311 1323
61 308 1577
57 306 1835
53 304 2095
50 302 2357
46 300 2618
44 298 2878
41 296 3135
40 295 3389
39 294 3642
37 292 3894
68 546 0
64 545 116
62 544 366
59 543 618
58 542 871
56 540 1123
55 539 1375
54 538 1628
52 537 1880
52 536 2133
50 534 2385
49 533 2637
47 531 2889
45 530 3141
44 528 3393
42 526 3645
40 525 3897
65 782 0
64 781 116
62 779 368
61 778 620
59 776 872
57 774 1124
56 773 1376
54 771 1628
53 769 1880
51 768 2132
50 767 2385
48 765 2637
46 763 2889
45 762 3141
43 760 3393
42 759 3646
41 758 3898
60 1016 0
58 1014 110
57 1013 363
55 1012 615
53 1010 866
52 1009 1119
51 1007 1371
50 1007 1624
48 1005 1876
48 1004 2129
46 1003 2381
45 1001 2634
44 1000 2886
42 999 3138
41 998 3391
39 996 3643
38 995 3895
48 1256 0
47 1255 99
45 1254 351
44 1252 604
42 1251 856
41 1249 1108
39 1248 1360
38 1246 1612
36 1245 1865
34 1243 2116
33 1242 2369
31 1240 2621
29 1238 2872
28 1236 3124
25 1234 3376
24 1233 3628
22 1231 3880
31 1497 0
29 1494 82
27 1492 334
26 1491 586
23 1489 837
22 1487 1090
20 1485 1341
19 1484 1593
16 1482 1845
15 1480 2097
13 1478 2349
11 1476 2600
9 1475 2853
7 1473 3104
6 1472 3357
4 1470 3608
3 1469 3861
9 1734 0
7 1732 60
5 1730 312
3 1728 564
2 1727 816
0 1725 1068
0 1724 1320
0 1722 1572
0 1721 1825
0 1719 2077
0 1718 2329
0 1717 2582
0 1716 2834
0 1715 3087
0 1714 3339
0 1714 3593
0 1713 3845
0 1974 0
0 1973 39
0 1972 291
0 1971 545
0 1970 797
0 1970 1050
0 1969 1303
0 1968 1556
0 1968 1809
0 1968 2063
0 1968 2317
0 1968 2570
0 1969 2825
0 1968 3078
0 1970 3333
0 1970 3587
0 1972 3842
0 2225 0
0 2225 25
0 2225 280
0 2225 533
0 2226 788
0 2227 1042
0 2228 1297
0 2230 1552
0 2231 1807
0 2233 2063
0 2235 2318
0 2238 2575
0 2240 2830
0 2243 3087
0 2246 3344
0 2250 3601
0 2253 3858
0 2492 0
0 2494 29
0 2496 285
0 2500 542
0 2503 798
0 2507 1056
0 2510 1313
0 2513 1570
0 2518 1828
2 2521 2085
7 2526 2344
11 2531 2602
17 2537 2861
21 2541 3120
27 2547 3379
32 2552 3638
37 2557 3896
0 2783 0
1 2788 55
7 2793 315
11 2798 573
17 2804 833
22 2809 1091
27 2814 1350
34 2820 1610
39 2826 1869
46 2833 2130
52 2839 2389
59 2846 2650
65 2852 2910
72 2859 3170
78 2866 3431
85 2872 3691
92 2880 3952
41 3096 0
48 3103 103
54 3109 362
62 3116 624
68 3122 883
75 3130 1144
82 3137 1405
88 3143 1665
96 3151 1927
103 3158 2187
111 3166 2449
117 3172 2709
125 3180 2971
132 3187 3231
139 3194 3491
147 3201 3753
153 3208 4013
100 3423 0
106 3429 161
114 3437 423
121 3444 683
128 3451 944
135 3459 1205
142 3465 1465
150 3473 1727
156 3480 1987
164 3487 2248
170 3494 2508
178 3501 2770
184 3507 3029
190 3513 3289
197 3521 3550
203 3527 3810
210 3534 4070
160 3750 0
168 3758 223
174 3764 483
181 3771 743
187 3778 1004
193 3783 1263
200 3790 1524
205 3796 1783
212 3802 2043
217 3808 2302
223 3814 2562
229 3819 2821
233 3824 3079
240 3830 3339
244 3835 3598
250 3841 3857
255 3846 4095
214 4070 16
219 4076 275
225 4081 534
231 4087 793
235 4092 1052
241 4095 1312
246 4095 1570
252 4095 1829
256 4095 2088
262 4095 2347
266 4095 2605
271 4095 2864
275 4095 3121
279 4095 3379
284 4095 3637
287 4095 3895
292 4095 4095
129 42 51
148 43 123
165 44 217
180 42 330
194 39 464
205 35 616
215 29 786
224 22 974
232 14 1177
238 6 1396
243 0 1629
247 0 1875
249 0 2132
250 0 2399
251 0 2676
250 0 2961
249 0 3254
253 154 18
258 153 178
260 150 354
262 146 544
263 141 748
263 136 963
263 130 1191
262 125 1429
261 119 1676
259 113 1930
257 107 2191
254 100 2457
251 93 2728
248 88 3002
246 82 3277
244 78 3555
241 74 3830
274 329 0
271 327 143
269 324 374
266 322 612
264 319 857
262 318 1107
260 315 1360
258 314 1617
256 311 1873
254 310 2131
252 308 2386
251 307 2640
250 305 2892
248 304 3144
247 303 3397
246 301 3650
245 301 3902
270 554 0
269 554 121
267 552 373
266 551 625
265 550 878
263 548 1130
262 548 1383
261 546 1635
260 545 1888
258 543 2140
256 542 2392
255 540 2644
252 538 2896
251 537 3148
249 535 3400
248 533 3652
246 532 3904
272 790 0
270 787 123
268 785 374
267 784 627
265 782 879
264 781 1131
262 779 1383
261 778 1636
259 776 1887
257 775 2140
256 774 2392
254 772 2644
253 771 2897
251 769 3149
251 769 3402
249 767 3654
249 766 3907
266 1023 0
264 1022 117
263 1021 370
261 1019 622
261 1018 875
259 1017 1127
258 1016 1380
257 1014 1632
256 1013 1885
254 1012 2137
253 1011 2389
252 1009 2642
250 1008 2893
249 1007 3146
247 1005 3398
246 1004 3650
244 1002 3902
255 1264 0
253 1263 107
251 1261 358
250 1260 611
248 1258 863
247 1257 1115
245 1255 1367
244 1254 1620
242 1251 1871
240 1249 2123
238 1248 2375
236 1246 2627
235 1244 2879
233 1242 3130
231 1241 3383
229 1239 3634
228 1237 3887
236 1503 0
234 1500 88
233 1499 340
231 1497 592
229 1496 844
227 1493 1096
226 1492 1348
224 1490 1599
221 1488 1851
220 1487 2103
218 1484 2355
217 1483 2607
215 1481 2859
214 1480 3112
212 1478 3364
210 1477 3616
209 1476 3868
214 1740 0
213 1739 67
211 1737 318
210 1736 571
208 1734 823
207 1733 1076
205 1731 1327
203 1729 1579
202 1729 1832
201 1727 2084
200 1727 2338
199 1726 2590
199 1725 2844
198 1724 3096
197 1724 3349
197 1723 3602
196 1723 3856
195 1983 0
193 1982 48
193 1981 301
192 1980 553
191 1980 807
191 1979 1060
191 1979 1314
191 1979 1567
190 1979 1821
191 1980 2075
191 1980 2329
192 1981 2583
192 1981 2837
194 1983 3093
195 1984 3348
197 1986 3603
199 1988 3859
183 2237 0
184 2238 38
184 2238 292
186 2240 548
187 2241 803
189 2243 1058
190 2245 1314
192 2246 1569
195 2249 1825
196 2251 2081
200 2254 2338
203 2257 2594
207 2261 2852
210 2265 3109
213 2268 3366
218 2272 3624
221 2276 3881
191 2511 0
194 2514 49
198 2518 306
201 2521 563
204 2525 820
209 2529 1078
212 2533 1336
217 2538 1594
221 2542 1852
227 2548 2112
232 2552 2370
238 2558 2630
243 2563 2888
247 2568 3147
254 2575 3407
259 2580 3666
266 2587 3927
222 2809 0
228 2815 83
233 2820 342
238 2825 600
244 2832 860
249 2837 1119
256 2844 1380
262 2850 1640
269 2857 1901
275 2863 2160
282 2870 2421
289 2877 2681
296 2884 2942
303 2891 3202
309 2897 3462
317 2905 3724
324 2912 3984
272 3127 0
278 3134 134
286 3141 395
292 3148 655
299 3154 915
306 3162 1177
313 3169 1437
321 3177 1699
328 3183 1959
336 3191 2221
342 3198 2481
349 3205 2742
357 3213 3003
363 3219 3263
371 3227 3525
378 3234 3785
385 3242 4046
331 3455 0
339 3463 195
346 3470 455
352 3476 715
360 3484 977
367 3491 1237
374 3499 1499
380 3505 1759
388 3512 2020
394 3519 2279
401 3525 2540
408 3532 2800
413 3538 3060
420 3545 3320
426 3550 3580
432 3557 3840
437 3562 4095
391 3782 0
398 3789 254
403 3795 513
410 3802 774
416 3807 1033
422 3814 1293
427 3819 1552
434 3825 1812
439 3830 2071
444 3835 2330
450 3842 2589
455 3846 2848
461 3852 3108
465 3857 3366
471 3863 3625
476 3868 3884
481 3873 4095
441 4095 44
446 4095 303
452 4095 562
456 4095 820
462 4095 1080
467 4095 1338
472 4095 1597
477 4095 1855
482 4095 2114
486 4095 2372
489 4095 2629
494 4095 2888
498 4095 3145
502 4095 3403
505 4095 3660
509 4095 3917
511 4095 4095
256 46 57
278 44 158
299 40 278
317 35 417
335 29 575
351 21 749
365 13 941
377 4 1147
388 0 1367
398 0 1600
406 0 1844
413 0 2100
418 0 2364
423 0 2637
427 0 2917
431 0 3205
433 0 3496
417 155 0
425 150 177
430 145 371
436 140 580
441 134 799
444 129 1029
447 123 1267
450 117 1514
450 110 1767
450 104 2025
451 99 2289
451 93 2555
452 89 2824
451 84 3093
451 81 3363
450 77 3630
