3DLUTS/GC_VENOM_LUTS/Additional_Formats/3DL/GC_Venom_709/GC_Venom_Tiara_709.3dl
# Converted by Briz LUT Converter
0 256 512 768 1023
0 0 0
20 52 118
21 94 394
9 122 836
0 135 1433
0 684 336
0 709 851
0 722 1557
0 729 2331
0 739 3129
0 1657 355
0 1702 932
0 1737 1666
0 1768 2452
0 1797 3268
0 2829 467
0 2882 1051
38 2922 1791
75 2960 2583
110 2995 3405
57 4040 579
107 4090 1160
143 4095 1896
174 4095 2683
202 4095 3497
194 128 186
242 154 463
272 164 921
291 163 1529
298 153 2264
394 753 372
421 781 930
440 799 1648
461 820 2424
482 841 3231
512 1791 489
560 1839 1069
596 1876 1805
630 1910 2594
663 1942 3413
642 2982 619
696 3035 1204
737 3077 1945
773 3113 2737
807 3147 3557
742 4095 719
788 4095 1297
821 4095 2030
850 4095 2812
939 4095 3619
1281 7 120
1436 0 495
1563 0 1071
1664 0 1775
1745 0 2576
2044 570 187
2083 609 758
2112 637 1486
2137 663 2267
2162 688 3078
2213 1658 356
2264 1709 939
2304 1749 1678
2340 1785 2470
2374 1820 3290
2356 2862 499
2408 2914 1083
2448 2954 1822
2482 2988 2611
2514 3020 3430
2432 4035 576
2497 4065 1203
2587 4067 2010
2703 4056 2812
2841 4038 3524
2774 0 0
2946 0 398
3073 0 1064
3161 0 1825
3207 0 2634
3450 485 103
3493 528 677
3526 561 1410
3556 591 2195
3585 620 3011
3652 1607 305
3705 1659 889
3746 1700 1630
3783 1738 2422
3817 1771 3242
3795 2810 448
3844 2860 1028
3882 2897 1766
3914 2930 2553
3943 2959 3369
3810 3907 971
3834 3920 1716
3850 3924 2481
3868 3929 3136
3893 3941 3648
4095 0 0
4095 0 333
4095 0 1046
4095 0 1816
4095 0 2620
4095 507 125
4095 554 704
4095 591 1440
4095 624 2228
4095 655 3045
4095 1653 351
4095 1706 935
4095 1746 1676
4095 1784 2468
4095 1818 3289
4095 2845 483
4095 2893 1062
4095 2927 1796
4095 2956 2580
4095 2982 3391
4095 3884 2000
4095 3913 2647
4095 3943 3231
4095 3983 3680
4095 4034 3968
