3DLUTS/GC_VENOM_LUTS/Additional_Formats/3DL/GC_Venom_709/GC_Venom_Sakata_709.3dl
# Converted by Briz LUT Converter
0 256 512 768 1023
0 0 0
31 31 168
41 41 668
27 27 1489
0 0 2573
0 696 0
0 668 668
0 636 1649
0 600 2649
0 568 3666
0 1730 0
0 1801 787
0 1868 1868
0 1923 2958
0 1965 4050
165 3177 165
196 3209 1159
223 3235 2200
246 3258 3258
268 3280 4095
360 4095 360
369 4095 1333
371 4095 2349
367 4095 3380
360 4095 4095
495 31 31
612 2 612
689 0 1455
731 0 2487
739 0 3628
611 611 0
585 585 585
561 561 1575
560 560 2609
575 575 3673
915 1928 0
965 1979 965
1002 2016 2016
1035 2049 3084
1065 2079 4095
1216 3265 253
1244 3294 1244
1268 3317 2282
1289 3338 3338
1307 3356 4095
1339 4095 375
1339 4095 1339
1335 4095 2350
1335 4095 3385
1337 4095 4095
1592 0 0
1685 0 743
1724 0 1724
1718 0 2752
1683 0 3767
1571 557 0
1592 578 578
1631 617 1631
1680 666 2715
1741 727 3825
2045 2045 68
2081 2081 1067
2113 2113 2113
2140 2140 3175
2167 2167 4095
2300 3335 322
2324 3359 1310
2345 3380 2345
2361 3397 3397
2373 3408 4095
2347 4095 368
2355 4095 1341
2387 4095 2387
2460 4095 3432
2566 4095 4095
2746 0 0
2720 0 671
2688 0 1653
2654 0 2654
2618 0 3667
2705 656 0
2772 723 723
2837 788 1802
2903 854 2903
2958 909 4007
3168 2133 156
3200 2165 1151
3228 2193 2193
3253 2218 3253
3275 2240 4095
3389 3389 376
3408 3408 1359
3414 3414 2379
3414 3414 3414
3409 3409 4095
3426 4095 569
3462 4095 1670
3514 4095 2710
3586 4095 3586
3691 4095 4095
3696 0 0
3665 0 567
3635 0 1551
3610 0 2560
3606 0 3606
3938 840 0
4001 902 902
4048 950 1964
4086 987 3036
4095 1018 4095
4095 2207 230
4095 2236 1222
4095 2260 2260
4095 2282 3317
4095 2302 4095
4095 3405 391
4095 3406 1356
4095 3403 2367
4095 3397 3397
4095 3395 4095
4095 4095 1551
4095 4095 2626
4095 4095 3469
4095 4095 4000
4095 4095 4095
