3DLUTS/GC_VENOM_LUTS/Additional_Formats/3DL/GC_Venom_709/GC_Venom_Damyan_709.3dl
# Converted by Briz LUT Converter
0 256 512 768 1023
25 756 858
36 775 1318
34 774 2035
20 759 2891
3 742 3784
76 1427 919
101 1452 1384
109 1460 2110
110 1460 2980
110 1460 3891
94 2326 936
131 2364 1413
150 2383 2151
158 2391 3029
164 2397 3945
118 3306 961
159 3347 1441
180 3368 2180
190 3378 3060
196 3384 3977
214 4095 1057
253 4095 1535
270 4095 2271
277 4095 3147
281 4095 4059
1534 533 636
1551 550 1093
1548 546 1807
1534 533 2664
1517 516 3557
1623 1233 725
1657 1267 1199
1672 1282 1932
1676 1286 2806
1678 1288 3718
1671 2163 773
1711 2203 1253
1731 2223 1991
1739 2231 2869
1746 2238 3786
1702 3150 805
1743 3191 1285
1763 3210 2022
1772 3219 2902
1778 3225 3818
1790 4095 892
1827 4095 1369
1871 4095 2126
1944 4095 3010
2057 4095 3858
2682 405 508
2700 422 965
2698 420 1681
2687 410 2541
2676 398 3440
2824 1158 650
2860 1193 1125
2876 1210 1860
2883 1216 2736
2887 1220 3651
2887 2103 713
2927 2143 1192
2948 2163 1931
2958 2173 2811
2964 2180 3728
2919 3090 745
2959 3130 1225
2979 3150 1962
2987 3158 2841
2991 3162 3755
3025 4001 967
3098 4012 1559
3165 4001 2340
3238 3981 3133
3329 3967 3801
3573 353 456
3595 375 918
3600 380 1641
3597 377 2508
3594 374 3415
3767 1158 651
3805 1196 1128
3824 1215 1865
3831 1222 2742
3836 1227 3657
3842 2115 725
3883 2156 1206
3903 2176 1944
3913 2186 2824
3920 2193 3741
3872 3100 755
3910 3139 1233
3928 3157 1969
3935 3164 2846
3939 3167 3760
3877 3941 1617
3897 3952 2225
3911 3957 2908
3931 3966 3505
3965 3988 3917
4095 377 480
4095 408 950
4095 421 1682
4095 425 2556
4095 427 3468
4095 1221 714
4095 1260 1192
4095 1280 1929
4095 1289 2809
4095 1295 3725
4095 2185 795
4095 2226 1275
4095 2246 2014
4095 2256 2894
4095 2261 3809
4095 3163 818
4095 3201 1295
4095 3218 2030
4095 3226 2913
4095 3242 3803
4095 3965 2687
4095 3996 3243
4095 4030 3730
4095 4078 4042
4095 4095 4095
