3DLUTS/GC_VENOM_LUTS/Additional_Formats/3DL/GC_Venom_709/GC_Venom_Glendin_709.3dl
# Converted by Briz LUT Converter
0 128 256 384 512 640 768 896 1023
0 0 0
21 21 21
43 43 43
65 65 65
86 86 86
105 105 105
125 125 125
144 144 144
164 164 164
104 104 104
125 125 125
148 148 148
171 171 171
195 195 195
224 224 224
256 256 256
290 290 290
328 328 328
319 319 319
368 368 368
419 419 419
470 470 470
522 522 522
574 574 574
628 628 628
682 682 682
736 736 736
743 743 743
799 799 799
854 854 854
911 911 911
968 968 968
1026 1026 1026
1084 1084 1084
1142 1142 1142
1201 1201 1201
1216 1216 1216
1276 1276 1276
1335 1335 1335
1395 1395 1395
1456 1456 1456
1517 1517 1517
1578 1578 1578
1639 1639 1639
1700 1700 1700
1719 1719 1719
1780 1780 1780
1841 1841 1841
1903 1903 1903
1964 1964 1964
2026 2026 2026
2087 2087 2087
2149 2149 2149
2210 2210 2210
2226 2226 2226
2287 2287 2287
2347 2347 2347
2407 2407 2407
2467 2467 2467
2526 2526 2526
2585 2585 2585
2644 2644 2644
2701 2701 2701
2713 2713 2713
2770 2770 2770
2827 2827 2827
2883 2883 2883
2938 2938 2938
2994 2994 2994
3048 3048 3048
3102 3102 3102
3155 3155 3155
3157 3157 3157
3209 3209 3209
3261 3261 3261
3311 3311 3311
3360 3360 3360
3408 3408 3408
3454 3454 3454
3499 3499 3499
3540 3540 3540
36 36 36
57 57 57
76 76 76
96 96 96
115 115 115
135 135 135
154 154 154
174 174 174
196 196 196
142 142 142
166 166 166
194 194 194
226 226 226
260 260 260
297 297 297
342 342 342
391 391 391
440 440 440
440 440 440
491 491 491
543 543 543
597 597 597
651 651 651
705 705 705
760 760 760
815 815 815
871 871 871
880 880 880
937 937 937
994 994 994
1052 1052 1052
1111 1111 1111
1170 1170 1170
1229 1229 1229
1288 1288 1288
1348 1348 1348
1364 1364 1364
1424 1424 1424
1485 1485 1485
1546 1546 1546
1607 1607 1607
1669 1669 1669
1730 1730 1730
1791 1791 1791
1852 1852 1852
1871 1871 1871
1933 1933 1933
1994 1994 1994
2056 2056 2056
2117 2117 2117
2178 2178 2178
2239 2239 2239
2298 2298 2298
2359 2359 2359
2375 2375 2375
2435 2435 2435
2495 2495 2495
2554 2554 2554
2612 2612 2612
2671 2671 2671
2728 2728 2728
2785 2785 2785
2842 2842 2842
2851 2851 2851
2907 2907 2907
2962 2962 2962
3017 3017 3017
3071 3071 3071
3124 3124 3124
3177 3177 3177
3229 3229 3229
3281 3281 3281
3280 3280 3280
3329 3329 3329
3377 3377 3377
3424 3424 3424
3468 3468 3468
3510 3510 3510
3551 3551 3551
3592 3592 3592
3631 3631 3631
66 66 66
86 86 86
105 105 105
125 125 125
145 145 145
166 166 166
189 189 189
212 212 212
237 237 237
196 196 196
230 230 230
267 267 267
311 311 311
360 360 360
409 409 409
460 460 460
511 511 511
563 563 563
565 565 565
619 619 619
674 674 674
728 728 728
784 784 784
840 840 840
895 895 895
952 952 952
1009 1009 1009
1021 1021 1021
1079 1079 1079
1138 1138 1138
1197 1197 1197
1257 1257 1257
1317 1317 1317
1376 1376 1376
1436 1436 1436
1497 1497 1497
1515 1515 1515
1576 1576 1576
1637 1637 1637
1699 1699 1699
1760 1760 1760
1821 1821 1821
1882 1882 1882
1943 1943 1943
2005 2005 2005
2024 2024 2024
2085 2085 2085
2147 2147 2147
2207 2207 2207
2267 2267 2267
2327 2327 2327
2388 2388 2388
2448 2448 2448
2507 2507 2507
2522 2522 2522
2581 2581 2581
2639 2639 2639
2697 2697 2697
2753 2753 2753
2810 2810 2810
2867 2867 2867
2923 2923 2923
2979 2979 2979
2986 2986 2986
3040 3040 3040
3093 3093 3093
3146 3146 3146
3198 3198 3198
3250 3250 3250
3302 3302 3302
3352 3352 3352
3401 3401 3401
3393 3393 3393
3438 3438 3438
3479 3479 3479
3521 3521 3521
3561 3561 3561
3600 3600 3600
3638 3638 3638
3675 3675 3675
3712 3712 3712
96 96 96
116 116 116
137 137 137
159 159 159
183 183 183
207 207 207
236 236 236
268 268 268
301 301 301
280 280 280
329 329 329
378 378 378
429 429 429
480 480 480
532 532 532
584 584 584
637 637 637
691 691 691
697 697 697
753 753 753
809 809 809
865 865 865
921 921 921
977 977 977
1035 1035 1035
1093 1093 1093
1152 1152 1152
1166 1166 1166
1225 1225 1225
1285 1285 1285
1345 1345 1345
1404 1404 1404
1465 1465 1465
1526 1526 1526
1587 1587 1587
1648 1648 1648
1667 1667 1667
1728 1728 1728
1790 1790 1790
1850 1850 1850
1912 1912 1912
1973 1973 1973
2035 2035 2035
2096 2096 2096
2158 2158 2158
2176 2176 2176
2236 2236 2236
2296 2296 2296
2356 2356 2356
2416 2416 2416
2476 2476 2476
2535 2535 2535
2594 2594 2594
2653 2653 2653
2666 2666 2666
2722 2722 2722
2779 2779 2779
2836 2836 2836
2892 2892 2892
2948 2948 2948
3003 3003 3003
3058 3058 3058
3112 3112 3112
3114 3114 3114
3167 3167 3167
3219 3219 3219
3271 3271 3271
3321 3321 3321
3370 3370 3370
3418 3418 3418
3465 3465 3465
3509 3509 3509
3490 3490 3490
3531 3531 3531
3570 3570 3570
3608 3608 3608
3645 3645 3645
3682 3682 3682
3717 3717 3717
3752 3752 3752
3786 3786 3786
130 130 130
153 153 153
178 178 178
206 206 206
237 237 237
271 271 271
308 308 308
352 352 352
400 400 400
398 398 398
449 449 449
501 501 501
553 553 553
606 606 606
660 660 660
715 715 715
769 769 769
825 825 825
833 833 833
890 890 890
946 946 946
1004 1004 1004
1062 1062 1062
1120 1120 1120
1179 1179 1179
1238 1238 1238
1298 1298 1298
1314 1314 1314
1373 1373 1373
1433 1433 1433
1494 1494 1494
1555 1555 1555
1616 1616 1616
1678 1678 1678
1739 1739 1739
1801 1801 1801
1819 1819 1819
1880 1880 1880
1942 1942 1942
2003 2003 2003
2065 2065 2065
2126 2126 2126
2187 2187 2187
2248 2248 2248
2308 2308 2308
2325 2325 2325
2385 2385 2385
2444 2444 2444
2504 2504 2504
2563 2563 2563
2622 2622 2622
2680 2680 2680
2738 2738 2738
2794 2794 2794
2805 2805 2805
2861 2861 2861
2916 2916 2916
2972 2972 2972
3026 3026 3026
3081 3081 3081
3134 3134 3134
3186 3186 3186
3239 3239 3239
3240 3240 3240
3290 3290 3290
3339 3339 3339
3387 3387 3387
3434 3434 3434
3479 3479 3479
3521 3521 3521
3562 3562 3562
3602 3602 3602
3577 3577 3577
3615 3615 3615
3652 3652 3652
3687 3687 3687
3722 3722 3722
3756 3756 3756
3791 3791 3791
3824 3824 3824
3858 3858 3858
176 176 176
208 208 208
241 241 241
277 277 277
321 321 321
370 370 370
419 419 419
470 470 470
521 521 521
522 522 522
575 575 575
629 629 629
683 683 683
738 738 738
793 793 793
849 849 849
905 905 905
962 962 962
972 972 972
1030 1030 1030
1089 1089 1089
1148 1148 1148
1207 1207 1207
1266 1266 1266
1326 1326 1326
1386 1386 1386
1445 1445 1445
1463 1463 1463
1524 1524 1524
1585 1585 1585
1646 1646 1646
1708 1708 1708
1769 1769 1769
1831 1831 1831
1891 1891 1891
1952 1952 1952
1972 1972 1972
2033 2033 2033
2094 2094 2094
2156 2156 2156
2216 2216 2216
2277 2277 2277
2337 2337 2337
2397 2397 2397
2457 2457 2457
2472 2472 2472
2531 2531 2531
2590 2590 2590
2649 2649 2649
2707 2707 2707
2763 2763 2763
2820 2820 2820
2877 2877 2877
2933 2933 2933
2940 2940 2940
2995 2995 2995
3049 3049 3049
3103 3103 3103
3155 3155 3155
3208 3208 3208
3260 3260 3260
3311 3311 3311
3362 3362 3362
3356 3356 3356
3403 3403 3403
3448 3448 3448
3491 3491 3491
3531 3531 3531
3572 3572 3572
3611 3611 3611
3649 3649 3649
3686 3686 3686
3657 3657 3657
3692 3692 3692
3727 3727 3727
3761 3761 3761
3794 3794 3794
3828 3828 3828
3861 3861 3861
3894 3894 3894
3927 3927 3927
247 247 247
290 290 290
339 339 339
388 388 388
439 439 439
490 490 490
542 542 542
594 594 594
647 647 647
652 652 652
707 707 707
762 762 762
818 818 818
874 874 874
931 931 931
987 987 987
1044 1044 1044
1102 1102 1102
1116 1116 1116
1175 1175 1175
1234 1234 1234
1294 1294 1294
1355 1355 1355
1413 1413 1413
1474 1474 1474
1535 1535 1535
1596 1596 1596
1615 1615 1615
1676 1676 1676
1737 1737 1737
1799 1799 1799
1860 1860 1860
1921 1921 1921
1982 1982 1982
2044 2044 2044
2105 2105 2105
2124 2124 2124
2185 2185 2185
2246 2246 2246
2305 2305 2305
2365 2365 2365
2425 2425 2425
2485 2485 2485
2545 2545 2545
2604 2604 2604
2617 2617 2617
2675 2675 2675
2733 2733 2733
2788 2788 2788
2845 2845 2845
2901 2901 2901
2957 2957 2957
3012 3012 3012
3067 3067 3067
3072 3072 3072
3125 3125 3125
3177 3177 3177
3229 3229 3229
3280 3280 3280
3331 3331 3331
3380 3380 3380
3428 3428 3428
3475 3475 3475
3460 3460 3460
3501 3501 3501
3542 3542 3542
3581 3581 3581
3618 3618 3618
3656 3656 3656
3693 3693 3693
3728 3728 3728
3763 3763 3763
3731 3731 3731
3764 3764 3764
3798 3798 3798
3831 3831 3831
3864 3864 3864
3897 3897 3897
3930 3930 3930
3963 3963 3963
3996 3996 3996
357 357 357
407 407 407
459 459 459
511 511 511
563 563 563
616 616 616
670 670 670
724 724 724
779 779 779
787 787 787
843 843 843
899 899 899
956 956 956
1013 1013 1013
1071 1071 1071
1129 1129 1129
1188 1188 1188
1247 1247 1247
1263 1263 1263
1323 1323 1323
1382 1382 1382
1443 1443 1443
1503 1503 1503
1564 1564 1564
1625 1625 1625
1687 1687 1687
1748 1748 1748
1767 1767 1767
1829 1829 1829
1889 1889 1889
1951 1951 1951
2012 2012 2012
2074 2074 2074
2135 2135 2135
2196 2196 2196
2257 2257 2257
2275 2275 2275
2335 2335 2335
2394 2394 2394
2454 2454 2454
2513 2513 2513
2572 2572 2572
2631 2631 2631
2689 2689 2689
2747 2747 2747
2757 2757 2757
2814 2814 2814
2870 2870 2870
2926 2926 2926
2981 2981 2981
3036 3036 3036
3090 3090 3090
3144 3144 3144
3196 3196 3196
3198 3198 3198
3249 3249 3249
3300 3300 3300
3349 3349 3349
3397 3397 3397
3444 3444 3444
3489 3489 3489
3532 3532 3532
3572 3572 3572
3550 3550 3550
3588 3588 3588
3626 3626 3626
3662 3662 3662
3698 3698 3698
3733 3733 3733
3768 3768 3768
3802 3802 3802
3835 3835 3835
3801 3801 3801
3834 3834 3834
3867 3867 3867
3900 3900 3900
3933 3933 3933
3966 3966 3966
3998 3998 3998
4031 4031 4031
4064 4064 4064
480 480 480
532 532 532
585 585 585
639 639 639
693 693 693
748 748 748
803 803 803
859 859 859
915 915 915
925 925 925
982 982 982
1039 1039 1039
1098 1098 1098
1157 1157 1157
1216 1216 1216
1275 1275 1275
1335 1335 1335
1395 1395 1395
1412 1412 1412
1472 1472 1472
1533 1533 1533
1594 1594 1594
1655 1655 1655
1717 1717 1717
1778 1778 1778
1840 1840 1840
1901 1901 1901
1919 1919 1919
1981 1981 1981
2042 2042 2042
2103 2103 2103
2165 2165 2165
2226 2226 2226
2286 2286 2286
2346 2346 2346
2406 2406 2406
2422 2422 2422
2482 2482 2482
2541 2541 2541
2599 2599 2599
2658 2658 2658
2716 2716 2716
2773 2773 2773
2829 2829 2829
2886 2886 2886
2894 2894 2894
2950 2950 2950
3005 3005 3005
3059 3059 3059
3113 3113 3113
3166 3166 3166
3218 3218 3218
3270 3270 3270
3321 3321 3321
3318 3318 3318
3366 3366 3366
3413 3413 3413
3458 3458 3458
3501 3501 3501
3542 3542 3542
3582 3582 3582
3622 3622 3622
3660 3660 3660
3632 3632 3632
3668 3668 3668
3703 3703 3703
3738 3738 3738
3772 3772 3772
3805 3805 3805
3839 3839 3839
3872 3872 3872
3905 3905 3905
3870 3870 3870
3903 3903 3903
3936 3936 3936
3968 3968 3968
4001 4001 4001
4034 4034 4034
4068 4068 4068
4095 4095 4095
4095 4095 4095
