3DLUTS/GC_VENOM_LUTS/Additional_Formats/3DL/GC_Venom_709/GC_Venom_Sarkan_709.3dl
# Converted by Briz LUT Converter
0 256 512 768 1023
0 0 0
21 30 71
28 50 321
12 47 841
0 24 1606
0 692 0
0 727 599
0 706 1911
0 647 3650
0 588 4095
0 1964 0
0 1996 296
0 1979 1654
0 1931 3381
0 1884 4095
0 3292 0
0 3323 11
0 3303 1366
0 3251 3090
0 3202 4095
0 4095 0
0 4095 0
0 4095 1178
0 4095 2902
0 4095 4095
377 42 51
491 36 286
566 1 881
606 0 1844
633 0 3063
1091 615 0
1113 636 499
1087 610 1847
1030 553 3566
977 500 4095
813 1898 0
846 1932 232
829 1914 1589
780 1865 3315
731 1816 4095
521 3218 0
553 3250 0
534 3231 1294
483 3180 3019
434 3131 4095
333 4095 0
364 4095 0
343 4095 1103
293 4095 2826
313 4095 4095
1498 0 0
1711 0 306
1861 0 1224
1978 0 2619
2076 0 4095
2657 488 0
2684 515 378
2662 494 1731
2612 443 3456
2563 394 4095
2405 1799 0
2437 1831 131
2418 1811 1486
2366 1760 3210
2315 1708 4095
2110 3115 0
2140 3145 0
2121 3126 1190
2072 3077 2915
2021 3026 4095
1920 4095 0
1998 4095 0
2079 4095 1234
2189 4095 2884
2374 4095 4095
3197 0 0
3467 0 202
3659 0 1419
3758 0 3120
3789 0 4095
4090 417 0
4095 449 311
4095 430 1667
4054 382 3394
4008 335 4095
3844 1734 0
3873 1763 63
3853 1742 1417
3802 1692 3142
3751 1641 4095
3549 3050 0
3580 3081 0
3560 3061 1125
3510 3011 2850
3459 2960 4095
3416 4095 0
3505 4095 920
3584 4095 2280
3676 4052 3419
3793 4033 4067
4095 0 0
4095 0 128
4095 0 1472
4095 0 3190
4095 0 4095
4095 429 0
4095 463 325
4095 446 1683
4095 398 3411
4095 349 4095
4095 1739 0
4095 1770 70
4095 1750 1425
4095 1700 3150
4095 1651 4095
4095 3059 0
4095 3089 0
4095 3068 1131
4095 3016 2855
4095 2965 4095
4095 4067 2125
4095 4066 3118
4087 4072 3802
4095 4095 4089
4095 4095 4095
