3DLUTS/Emulsions/ELITECOLOR_7.cube
TITLE "Generated by Resolve"
LUT_3D_SIZE 5
0.0234989 0.0234989 0.0234989
0.0580301 0.0330053 0.027985
0.161105 0.0557717 0.0329595
0.290227 0.0885176 0.0402075
0.433753 0.126909 0.0523537
0.0368505 0.0925765 0.0285039
0.125139 0.0999924 0.0555276
0.289677 0.118181 0.0552224
0.436957 0.154284 0.0673838
0.601556 0.199496 0.088365
0.0108492 0.258595 0.0372473
0.081239 0.304204 0.0271763
0.558633 0.388708 0.18706
0.789471 0.408865 0.189395
0.853834 0.416846 0.202487
0.0242771 0.463203 0.0876326
0.0866102 0.518807 0.028275
0.678386 0.717906 0.228931
0.903426 0.764935 0.313954
0.92958 0.758953 0.41352
0.0970932 0.616297 0.122606
0.277058 0.615503 0.144533
0.688121 0.842206 0.422843
0.881804 0.887251 0.453651
0.935378 0.897154 0.555596
0.0241245 0.024979 0.0496529
0.0534524 0.0243381 0.0485084
0.151858 0.031632 0.045304
0.269154 0.0394598 0.0352941
0.389761 0.0522774 0.0317693
0.0387732 0.0735027 0.0775006
0.08748 0.100237 0.0956893
0.281422 0.0937362 0.0563058
0.414069 0.0976577 0.0441138
0.523629 0.128664 0.0551156
0.0638743 0.257511 0.194736
0.0391546 0.341665 0.0983902
0.50338 0.407324 0.226825
0.798886 0.372534 0.178882
0.865736 0.410468 0.225376
0.1673 0.532784 0.374792
0.0749218 0.580545 0.123873
0.561776 0.710185 0.223682
0.908904 0.797436 0.323613
0.930114 0.806439 0.522286
0.294408 0.772427 0.473671
0.33933 0.700343 0.351492
0.63621 0.836179 0.509071
0.872709 0.901671 0.569528
0.934524 0.906157 0.611902
0.0238956 0.0285039 0.0885023
0.0437324 0.0249638 0.0863203
0.117037 0.0292363 0.0905013
0.26038 0.0393988 0.0825971
0.401709 0.052491 0.076997
0.0344244 0.0686809 0.124514
0.0399634 0.0782788 0.205356
0.23595 0.0623484 0.190921
0.384115 0.051606 0.111604
0.491142 0.0899825 0.138811
0.0561532 0.176425 0.226398
0.0736858 0.306477 0.38529
0.437308 0.481147 0.458839
0.759533 0.336355 0.264988
0.861295 0.517952 0.447456
0.207919 0.549233 0.5205
0.348058 0.763119 0.670832
0.417288 0.705501 0.436179
0.892821 0.837171 0.470848
0.930449 0.85182 0.703838
0.414755 0.842893 0.727443
0.526986 0.870283 0.747005
0.641474 0.874861 0.666697
0.877256 0.915404 0.710781
0.936584 0.917617 0.732769
0.024094 0.0334478 0.141604
0.0368811 0.0294041 0.153079
0.0822003 0.0288243 0.166262
0.242054 0.0388037 0.171237
0.408804 0.0536812 0.181262
0.0325322 0.07364 0.198886
0.0270848 0.0673991 0.267292
0.0891585 0.0416114 0.288487
0.360418 0.0547341 0.270817
0.502693 0.127489 0.34931
0.0408179 0.192401 0.319341
0.0422522 0.275303 0.450004
0.140383 0.399985 0.606851
0.694682 0.373739 0.632837
0.856443 0.565209 0.719036
0.192462 0.505028 0.571252
0.346731 0.706386 0.764309
0.550164 0.852781 0.874617
0.874662 0.892515 0.867796
0.937957 0.895994 0.881193
0.41912 0.833677 0.818769
0.492958 0.863859 0.857633
0.747768 0.922362 0.897887
0.903029 0.940215 0.899657
0.944015 0.939773 0.909178
0.024094 0.041001 0.247898
0.0296635 0.037232 0.259113
0.051667 0.0307012 0.272801
0.181338 0.0384527 0.285557
0.408286 0.0606394 0.293965
0.0274815 0.0791791 0.32462
0.0248722 0.0977035 0.408942
0.0408484 0.0916609 0.46804
0.30042 0.113329 0.429297
0.471336 0.118227 0.395773
0.0216068 0.243549 0.477348
0.0304265 0.327398 0.595422
0.234241 0.493172 0.733166
0.695277 0.62707 0.833066
0.861692 0.596002 0.823255
0.19678 0.52433 0.670481
0.256291 0.604959 0.749691
0.596445 0.821607 0.88069
0.885786 0.915099 0.925887
0.941497 0.921721 0.929
0.409705 0.782605 0.833799
0.457343 0.818753 0.864134
0.75642 0.920363 0.92253
0.918502 0.943404 0.936889
0.948898 0.948898 0.939406
