3DLUTS/Emulsions/ELITECOLOR_7.cube
TITLE "Generated by Resolve"
LUT_3D_SIZE 9
0.0234989 0.0234989 0.0234989
0.0283818 0.0254368 0.024918
0.0580301 0.0330053 0.027985
0.105867 0.044007 0.0310979
0.161105 0.0557717 0.0329595
0.223255 0.0711528 0.0362707
0.290227 0.0885176 0.0402075
0.36173 0.108034 0.0460975
0.433753 0.126909 0.0523537
0.0294957 0.0345006 0.0268101
0.0355383 0.0352178 0.0313878
0.071809 0.0396582 0.0314488
0.125231 0.0531319 0.0338445
0.184054 0.0652628 0.0356603
0.250034 0.0816052 0.0394446
0.321569 0.100847 0.0446021
0.39649 0.120714 0.0510414
0.480995 0.144274 0.0606699
0.0368505 0.0925765 0.0285039
0.0434424 0.097612 0.0281224
0.125139 0.0999924 0.0555276
0.214145 0.108598 0.0561379
0.289677 0.118181 0.0552224
0.364233 0.136065 0.0614481
0.436957 0.154284 0.0673838
0.524376 0.177234 0.0776837
0.601556 0.199496 0.088365
0.0215305 0.16582 0.0323796
0.0189822 0.176852 0.0202029
0.105959 0.194202 0.0426032
0.303639 0.218021 0.110979
0.435142 0.227451 0.10927
0.530465 0.239734 0.109346
0.614481 0.252094 0.115404
0.679988 0.26688 0.123888
0.729366 0.282795 0.133547
0.0108492 0.258595 0.0372473
0.0108339 0.282399 0.0218204
0.081239 0.304204 0.0271763
0.33489 0.3579 0.117525
0.558633 0.388708 0.18706
0.700999 0.392966 0.179431
0.789471 0.408865 0.189395
0.826017 0.410636 0.194736
0.853834 0.416846 0.202487
0.00817884 0.3626 0.0445716
0.00875868 0.397086 0.0268101
0.076997 0.414984 0.0251621
0.325475 0.471839 0.0961929
0.619562 0.554574 0.214939
0.790921 0.58381 0.24976
0.886412 0.609735 0.270542
0.902693 0.597711 0.277546
0.914504 0.597635 0.301076
0.0242771 0.463203 0.0876326
0.0175326 0.492775 0.0407416
0.0866102 0.518807 0.028275
0.344701 0.599741 0.0926833
0.678386 0.717906 0.228931
0.829252 0.749065 0.270436
0.903426 0.764935 0.313954
0.928328 0.762295 0.345327
0.92958 0.758953 0.41352
0.0706951 0.565637 0.134264
0.0553597 0.56849 0.050248
0.139696 0.57612 0.0429084
0.413031 0.701823 0.139361
0.705806 0.823728 0.273136
0.840024 0.850309 0.304677
0.904295 0.853605 0.320836
0.933516 0.856672 0.380453
0.935927 0.86305 0.507088
0.0970932 0.616297 0.122606
0.124437 0.588479 0.0943313
0.277058 0.615503 0.144533
0.50428 0.742535 0.309255
0.688121 0.842206 0.422843
0.816632 0.87895 0.442222
0.881804 0.887251 0.453651
0.91603 0.889906 0.489998
0.935378 0.897154 0.555596
0.0238804 0.0238804 0.0281376
0.0291752 0.0243992 0.0292515
0.0622568 0.0293431 0.0301976
0.111147 0.0357671 0.0297704
0.166659 0.0465705 0.0307317
0.225299 0.0576333 0.0316472
0.289616 0.0710155 0.0341192
0.359365 0.0859846 0.0376745
0.429175 0.0995956 0.0410468
0.0286107 0.0355383 0.0350195
0.0356146 0.037171 0.0367895
0.0740978 0.0400549 0.0343328
0.130663 0.0498665 0.0336461
0.192081 0.0600595 0.0341802
0.254612 0.0720226 0.0360266
0.325154 0.0880751 0.0398108
0.397803 0.103273 0.0435492
0.471977 0.120378 0.0487678
0.0395819 0.0934768 0.0503548
0.042771 0.101427 0.0440375
0.117784 0.103014 0.0607309
0.213092 0.108095 0.0600595
0.293431 0.112718 0.05449
0.365911 0.125811 0.0576028
0.434882 0.13814 0.0597238
0.511406 0.154589 0.0659495
0.577081 0.174746 0.0752117
0.0312352 0.169604 0.0689403
0.0260319 0.185107 0.0533455
0.0752422 0.197162 0.037583
0.282704 0.220401 0.116823
0.428138 0.225513 0.114031
0.525841 0.225513 0.105028
0.608377 0.230594 0.104479
0.66212 0.241337 0.110674
0.717388 0.260884 0.122957
0.0268864 0.263111 0.0950484
0.0172427 0.291432 0.0657664
0.0426795 0.316014 0.0254826
0.263416 0.346944 0.0976577
0.536568 0.397986 0.19855
0.703273 0.400015 0.185672
0.795483 0.403143 0.187976
0.824231 0.396643 0.188586
0.858228 0.410803 0.20502
0.0378576 0.37528 0.141085
0.0208591 0.409781 0.0880446
0.030869 0.432258 0.0259098
0.234501 0.457542 0.0747082
0.599451 0.565728 0.217777
0.788586 0.599542 0.253346
0.891768 0.628992 0.278477
0.908095 0.608743 0.284489
0.917632 0.611872 0.322377
0.0815747 0.49247 0.215427
0.0522011 0.525063 0.125902
0.0427863 0.52491 0.0317845
0.259205 0.584695 0.072694
0.646601 0.728542 0.219272
0.829633 0.771237 0.274998
0.907515 0.784909 0.3149
0.930358 0.778134 0.353368
0.930312 0.781796 0.454429
0.148974 0.626139 0.267277
0.0931563 0.61294 0.130709
0.117067 0.576211 0.0597848
0.347509 0.666545 0.138109
0.665553 0.815747 0.291981
0.831815 0.858717 0.317632
0.903563 0.860136 0.323537
0.934279 0.86482 0.381201
0.935958 0.870008 0.531792
0.163485 0.683345 0.246006
0.163775 0.637736 0.184955
0.279286 0.629786 0.199863
0.488167 0.737606 0.340185
0.66038 0.836378 0.458488
0.804303 0.881666 0.488228
0.877913 0.8934 0.499001
0.914733 0.894911 0.52845
0.934798 0.901534 0.576196
0.0241245 0.024979 0.0496529
0.0289769 0.0244602 0.0494698
0.0534524 0.0243381 0.0485084
0.0965133 0.0282292 0.0481422
0.151858 0.031632 0.045304
0.211887 0.0358892 0.0406806
0.269154 0.0394598 0.0352941
0.331197 0.0436561 0.0314946
0.389761 0.0522774 0.0317693
0.0278019 0.0367437 0.057145
0.0301061 0.0353704 0.0647135
0.0675517 0.0319524 0.0637675
0.121675 0.0358129 0.0561074
0.184314 0.037705 0.0452277
0.243442 0.040238 0.0372168
0.301595 0.0424201 0.0308843
0.363073 0.0518196 0.0306706
0.421027 0.0677043 0.0344549
0.0387732 0.0735027 0.0775006
0.0452277 0.0860914 0.0909895
0.08748 0.100237 0.0956893
0.188937 0.0962234 0.0733043
0.281422 0.0937362 0.0563058
0.35169 0.0931411 0.0476387
0.414069 0.0976577 0.0441138
0.469368 0.109483 0.0470893
0.523629 0.128664 0.0551156
0.0525673 0.148028 0.123369
0.0535286 0.179156 0.139025
0.0541848 0.202365 0.0876936
0.237766 0.217609 0.138476
0.400854 0.219287 0.131579
0.512886 0.200214 0.0992142
0.588403 0.192035 0.0875563
0.622385 0.197879 0.089189
0.703914 0.229694 0.110964
0.0638743 0.257511 0.194736
0.0600137 0.305516 0.194415
0.0391546 0.341665 0.0983902
0.16939 0.329488 0.0879072
0.50338 0.407324 0.226825
0.69778 0.403464 0.205356
0.798886 0.372534 0.178882
0.816632 0.356725 0.172198
0.865736 0.410468 0.225376
0.0914473 0.386328 0.273915
0.0921035 0.442985 0.256229
0.0438544 0.463737 0.106477
0.133806 0.435142 0.0620737
0.539727 0.564584 0.225589
0.780392 0.612207 0.27306
0.89572 0.628763 0.285451
0.912596 0.60705 0.297307
0.915938 0.635142 0.386481
0.1673 0.532784 0.374792
0.168688 0.596094 0.335592
0.0749218 0.580545 0.123873
0.162219 0.5449 0.0647746
0.561776 0.710185 0.223682
0.813993 0.786831 0.29662
0.908904 0.797436 0.323613
0.931487 0.798428 0.389319
0.930114 0.806439 0.522286
0.262394 0.704189 0.462882
0.212421 0.704021 0.345815
0.146319 0.638163 0.17116
0.270665 0.613382 0.139208
0.590143 0.789899 0.327169
0.808774 0.864851 0.370916
0.899153 0.867903 0.357366
0.934401 0.872862 0.409369
0.93576 0.880156 0.587472
0.294408 0.772427 0.473671
0.29453 0.745937 0.41149
0.33933 0.700343 0.351492
0.476051 0.7449 0.399344
0.63621 0.836179 0.509071
0.780819 0.885084 0.558511
0.872709 0.901671 0.569528
0.912551 0.903014 0.583581
0.934524 0.906157 0.611902
0.0238041 0.026627 0.072221
0.0287633 0.0257115 0.0708019
0.0465705 0.0239719 0.0674601
0.0797284 0.0264744 0.066041
0.134463 0.0302739 0.0665904
0.200809 0.0344701 0.061677
0.268467 0.04065 0.0556802
0.336965 0.0454414 0.0499886
0.392798 0.0493324 0.0465248
0.0275883 0.0401465 0.0808423
0.0269169 0.0361944 0.0937057
0.0509194 0.0296483 0.0962387
0.106401 0.030808 0.0906233
0.171847 0.0352178 0.0764477
0.239429 0.0392615 0.0645457
0.307759 0.043946 0.0555428
0.372457 0.0475776 0.049897
0.416312 0.0541085 0.0504768
0.0357977 0.0688029 0.100359
0.0377356 0.0762951 0.122057
0.0579843 0.0863508 0.16257
0.159945 0.0784161 0.147448
0.264866 0.0741283 0.101518
0.341176 0.0634012 0.0712596
0.389715 0.054963 0.0518654
0.413397 0.0541238 0.0453193
0.478386 0.0873732 0.0647898
0.0478981 0.108156 0.134005
0.0524453 0.136645 0.172778
0.0686198 0.187396 0.233646
0.195178 0.231098 0.222019
0.362448 0.225925 0.186908
0.483543 0.182803 0.122774
0.542107 0.139284 0.0751965
0.552987 0.136324 0.0682078
0.689433 0.216999 0.133532
0.0680858 0.219272 0.228473
0.0810407 0.287663 0.291371
0.0970932 0.364126 0.318639
0.135851 0.351858 0.192233
0.46746 0.436698 0.307622
0.674495 0.412589 0.262303
0.791959 0.334462 0.181903
0.805966 0.320439 0.173342
0.863828 0.446784 0.304463
0.109361 0.379171 0.351659
0.144854 0.457618 0.404608
0.153658 0.527947 0.375463
0.1393 0.483131 0.197238
0.441611 0.556695 0.26833
0.752926 0.63473 0.335805
0.895338 0.63267 0.324987
0.913634 0.603677 0.335058
0.912856 0.672663 0.485039
0.204395 0.549783 0.467796
0.26389 0.648096 0.524422
0.252705 0.711162 0.462074
0.172747 0.614069 0.209995
0.432532 0.651743 0.24036
0.778088 0.800351 0.353521
0.906584 0.811093 0.353033
0.931807 0.815961 0.446464
0.92961 0.827665 0.611185
0.322515 0.744869 0.588067
0.336797 0.788846 0.589746
0.3187 0.781949 0.49659
0.314839 0.695689 0.327108
0.513481 0.757061 0.371481
0.756237 0.864744 0.461997
0.887587 0.88217 0.442847
0.933242 0.884321 0.468086
0.936095 0.893034 0.645609
0.384787 0.827207 0.641489
0.418051 0.83212 0.629694
0.462913 0.818998 0.588785
0.51902 0.808209 0.540856
0.629953 0.849989 0.562219
0.76791 0.887388 0.608499
0.872053 0.906874 0.628504
0.916854 0.908827 0.637003
0.935256 0.910338 0.654978
0.0238956 0.0285039 0.0885023
0.0287785 0.0272831 0.0877852
0.0437324 0.0249638 0.0863203
0.0654154 0.0257572 0.0872663
0.117037 0.0292363 0.0905013
0.187091 0.0330663 0.0894331
0.26038 0.0393988 0.0825971
0.335332 0.0466163 0.076173
0.401709 0.052491 0.076997
0.0278935 0.0430304 0.100984
0.0263371 0.0382391 0.115145
0.0412451 0.0294652 0.124697
0.0783856 0.0285344 0.124788
0.155367 0.0325475 0.12224
0.23035 0.037171 0.108156
0.304417 0.0431067 0.0948196
0.3776 0.0494545 0.0872511
0.429175 0.0579538 0.0983597
0.0344244 0.0686809 0.124514
0.0348974 0.0728466 0.146792
0.0399634 0.0782788 0.205356
0.0941329 0.0662699 0.21268
0.23595 0.0623484 0.190921
0.325643 0.0555123 0.143496
0.384115 0.051606 0.111604
0.421622 0.0559548 0.103655
0.491142 0.0899825 0.138811
0.0440528 0.103487 0.158434
0.0462043 0.125719 0.197925
0.0454414 0.166201 0.274495
0.113756 0.211429 0.31487
0.319387 0.21178 0.302525
0.457664 0.159731 0.22121
0.504265 0.107088 0.144701
0.521935 0.109224 0.128679
0.692561 0.254154 0.259083
0.0561532 0.176425 0.226398
0.0628672 0.232212 0.295399
0.0736858 0.306477 0.38529
0.161166 0.379126 0.438743
0.437308 0.481147 0.458839
0.622751 0.445975 0.395117
0.759533 0.336355 0.264988
0.780758 0.317418 0.239414
0.861295 0.517952 0.447456
0.0967727 0.343694 0.37261
0.135943 0.428931 0.449683
0.193133 0.530724 0.532189
0.246555 0.585046 0.538689
0.407584 0.594842 0.43267
0.713497 0.678538 0.501778
0.878096 0.644831 0.440803
0.9037 0.621027 0.444968
0.910857 0.718257 0.605341
0.207919 0.549233 0.5205
0.279133 0.65333 0.597757
0.348058 0.763119 0.670832
0.37232 0.788388 0.63859
0.417288 0.705501 0.436179
0.696132 0.810864 0.492729
0.892821 0.837171 0.470848
0.929152 0.833768 0.561868
0.930449 0.85182 0.703838
0.354955 0.769024 0.667826
0.388678 0.815839 0.705425
0.431128 0.847303 0.720745
0.49691 0.853483 0.683375
0.533242 0.814984 0.552407
0.69308 0.863081 0.561334
0.868513 0.899092 0.577188
0.930983 0.900893 0.587579
0.936553 0.905699 0.724025
0.414755 0.842893 0.727443
0.452491 0.857542 0.74078
0.526986 0.870283 0.747005
0.595407 0.874266 0.72636
0.641474 0.874861 0.666697
0.764874 0.896498 0.675151
0.877256 0.915404 0.710781
0.921553 0.917235 0.720363
0.936584 0.917617 0.732769
0.0240024 0.0298466 0.100481
0.0285191 0.0287938 0.103288
0.0411688 0.0264286 0.110201
0.0565042 0.0260014 0.11809
0.0989242 0.0280613 0.12311
0.172854 0.0323491 0.127779
0.252064 0.0385595 0.124804
0.33254 0.0447395 0.117525
0.403357 0.0511635 0.121538
0.0279088 0.0449073 0.120974
0.0261997 0.0397192 0.136278
0.0357061 0.0306401 0.152178
0.059678 0.0283818 0.160082
0.122927 0.0306401 0.165911
0.218982 0.0369116 0.163928
0.300893 0.0433509 0.1505
0.377676 0.0489357 0.14287
0.431754 0.0587625 0.166476
0.0337682 0.0695201 0.152728
0.0329747 0.0717327 0.176471
0.0297856 0.0711986 0.2336
0.0529946 0.059678 0.261585
0.151873 0.0510872 0.246433
0.294697 0.051194 0.226017
0.374441 0.0514839 0.192081
0.426947 0.0588235 0.191287
0.505943 0.107256 0.247639
0.042649 0.109041 0.194476
0.0423285 0.127825 0.236545
0.0361181 0.156603 0.311528
0.0522927 0.207019 0.399008
0.183505 0.197925 0.39115
0.429984 0.165499 0.365286
0.489433 0.111986 0.293385
0.533379 0.132998 0.281743
0.705226 0.29247 0.405203
0.0497444 0.178195 0.263447
0.05037 0.219669 0.323232
0.0543069 0.279362 0.40737
0.0763409 0.342428 0.488045
0.291203 0.439963 0.540658
0.589563 0.457557 0.56965
0.720226 0.350454 0.459892
0.756909 0.353384 0.431312
0.858732 0.546929 0.590753
0.0829023 0.307149 0.378195
0.111955 0.376394 0.454948
0.177417 0.486793 0.566247
0.227451 0.555306 0.638086
0.446403 0.664347 0.696773
0.691447 0.727565 0.70248
0.851789 0.671977 0.626719
0.89099 0.648875 0.599252
0.911009 0.751949 0.714733
0.202533 0.530266 0.550607
0.271778 0.629191 0.637003
0.361517 0.755581 0.743786
0.417288 0.81796 0.798398
0.549935 0.851957 0.788602
0.670497 0.84387 0.682918
0.875807 0.867399 0.680568
0.927916 0.85333 0.711681
0.932631 0.874586 0.799558
0.366659 0.775479 0.722713
0.402197 0.82063 0.767849
0.453193 0.853941 0.802899
0.550011 0.879499 0.823377
0.659892 0.898466 0.809384
0.709438 0.893156 0.718074
0.860288 0.914061 0.731151
0.930388 0.916777 0.749096
0.937789 0.918563 0.817502
0.420203 0.844282 0.781613
0.449439 0.856825 0.802548
0.520912 0.874037 0.824445
0.630091 0.897597 0.839765
0.71191 0.909819 0.828214
0.787121 0.917357 0.797482
0.888289 0.927657 0.812741
0.929473 0.92781 0.821744
0.938781 0.927825 0.829725
0.024094 0.0334478 0.141604
0.0278325 0.0323033 0.145632
0.0368811 0.0294041 0.153079
0.0469825 0.0277409 0.160861
0.0822003 0.0288243 0.166262
0.14995 0.0316777 0.170062
0.242054 0.0388037 0.171237
0.332372 0.0463111 0.169863
0.408804 0.0536812 0.181262
0.0276341 0.049012 0.164981
0.0261234 0.0428016 0.17995
0.0322271 0.0336156 0.195911
0.047364 0.0300603 0.204486
0.0931106 0.030869 0.21091
0.179767 0.0354467 0.214343
0.291279 0.0446021 0.209888
0.379812 0.051667 0.205463
0.435935 0.0647593 0.240055
0.0325322 0.07364 0.198886
0.0311437 0.0738842 0.22237
0.0270848 0.0673991 0.267292
0.0341497 0.0523842 0.296422
0.0891585 0.0416114 0.288487
0.211429 0.0449531 0.285542
0.360418 0.0547341 0.270817
0.426505 0.0660563 0.27895
0.502693 0.127489 0.34931
0.0392615 0.117357 0.247562
0.0372625 0.133684 0.290364
0.0309758 0.153674 0.355825
0.0268254 0.19527 0.45832
0.0678874 0.199634 0.492454
0.287007 0.170642 0.452796
0.459693 0.114122 0.386313
0.53196 0.163668 0.416617
0.702434 0.322469 0.537408
0.0408179 0.192401 0.319341
0.0399481 0.228031 0.373892
0.0422522 0.275303 0.450004
0.0449531 0.328771 0.543587
0.140383 0.399985 0.606851
0.397116 0.441642 0.637171
0.694682 0.373739 0.632837
0.766827 0.413886 0.635599
0.856443 0.565209 0.719036
0.0718547 0.310048 0.417304
0.0981308 0.368078 0.485496
0.143877 0.447013 0.58053
0.184192 0.51902 0.67071
0.312108 0.601495 0.737896
0.575158 0.703624 0.79649
0.835492 0.691295 0.818173
0.88864 0.674159 0.780026
0.909834 0.764569 0.82385
0.192462 0.505028 0.571252
0.255268 0.591348 0.654261
0.346731 0.706386 0.764309
0.420691 0.788586 0.840162
0.550164 0.852781 0.874617
0.734646 0.891661 0.887861
0.874662 0.892515 0.867796
0.929519 0.876234 0.851331
0.937957 0.895994 0.881193
0.374228 0.770199 0.764477
0.409567 0.815229 0.810376
0.451972 0.848386 0.846281
0.544076 0.876204 0.866743
0.704189 0.913909 0.889586
0.798138 0.927611 0.890913
0.883696 0.934432 0.878157
0.936095 0.933547 0.881834
0.942611 0.934539 0.896254
0.41912 0.833677 0.818769
0.438773 0.846937 0.837736
0.492958 0.863859 0.857633
0.610101 0.893919 0.877531
0.747768 0.922362 0.897887
0.830869 0.932342 0.899001
0.903029 0.940215 0.899657
0.939879 0.939651 0.904646
0.944015 0.939773 0.909178
0.0248112 0.0374456 0.191943
0.0276036 0.035935 0.196948
0.0331731 0.0327001 0.204807
0.0403601 0.0308995 0.212131
0.0658579 0.0297856 0.216358
0.125582 0.0321355 0.220417
0.21828 0.0382544 0.2215
0.32546 0.0481575 0.223362
0.414954 0.0563516 0.238773
0.0269322 0.0516365 0.215869
0.0255436 0.0458076 0.229313
0.0293584 0.0370642 0.243778
0.0397803 0.0325933 0.251392
0.0690929 0.0307469 0.257359
0.139712 0.0344549 0.266667
0.249104 0.0438239 0.267048
0.370855 0.0546426 0.264942
0.430167 0.0677653 0.304387
0.0299992 0.076051 0.25153
0.0292973 0.0777295 0.278676
0.0264286 0.0755474 0.324331
0.0270085 0.0564584 0.35491
0.0556649 0.0411841 0.349187
0.143328 0.0474403 0.354803
0.305715 0.057847 0.336675
0.420722 0.0713664 0.336034
0.483909 0.12842 0.401312
0.0338903 0.127306 0.312703
0.0309758 0.145602 0.355642
0.0245212 0.167803 0.421851
0.0196536 0.196262 0.508797
0.0327916 0.22118 0.589944
0.151141 0.202701 0.548699
0.446265 0.166491 0.460349
0.543954 0.184543 0.467262
0.692073 0.329778 0.614404
0.030869 0.214252 0.391959
0.0304723 0.247852 0.439567
0.0321508 0.29044 0.512001
0.0396429 0.340948 0.603906
0.111528 0.411383 0.684077
0.275959 0.453635 0.709758
0.644831 0.448432 0.723552
0.782223 0.45069 0.720088
0.856519 0.584237 0.810803
0.0693675 0.335348 0.481895
0.0913252 0.379583 0.536446
0.119371 0.434104 0.610178
0.157427 0.489693 0.684916
0.307668 0.594491 0.768948
0.530144 0.706416 0.840726
0.757137 0.722408 0.863539
0.893263 0.715587 0.865522
0.911894 0.784665 0.882216
0.192798 0.507958 0.613825
0.236683 0.567697 0.676081
0.281697 0.629786 0.745052
0.345357 0.691356 0.803006
0.539452 0.802472 0.870222
0.715602 0.87306 0.904692
0.851591 0.898085 0.918135
0.93138 0.897719 0.918868
0.939406 0.909178 0.921096
0.374182 0.749966 0.787427
0.405478 0.785153 0.823835
0.444053 0.818051 0.85481
0.525353 0.85742 0.879667
0.707134 0.910887 0.912825
0.820996 0.930953 0.924239
0.898619 0.940658 0.931243
0.944228 0.947372 0.93579
0.948638 0.948272 0.938216
0.41326 0.80177 0.833219
0.428275 0.812253 0.847913
0.462806 0.834165 0.863615
0.571008 0.873335 0.891752
0.744381 0.91902 0.919188
0.838132 0.932876 0.927901
0.908812 0.94197 0.935866
0.946838 0.948455 0.938903
0.948898 0.948806 0.939055
0.024094 0.041001 0.247898
0.0260166 0.0396887 0.252338
0.0296635 0.037232 0.259113
0.0341344 0.0346838 0.267094
0.051667 0.0307012 0.272801
0.0989548 0.032578 0.279896
0.181338 0.0384527 0.285557
0.306096 0.0497444 0.280278
0.408286 0.0606394 0.293965
0.0251926 0.0521248 0.27631
0.0242771 0.0494698 0.292073
0.0266117 0.0437781 0.309804
0.0339818 0.0379797 0.31516
0.0534218 0.0330358 0.320302
0.106081 0.0360723 0.330312
0.204257 0.0455329 0.332631
0.345006 0.0575875 0.323384
0.423636 0.0688945 0.33518
0.0274815 0.0791791 0.32462
0.0271916 0.0877699 0.355261
0.0248722 0.0977035 0.408942
0.0232395 0.0974746 0.458854
0.0408484 0.0916609 0.46804
0.106905 0.102998 0.464958
0.30042 0.113329 0.429297
0.436011 0.0944228 0.37496
0.471336 0.118227 0.395773
0.0270695 0.144869 0.397467
0.0227054 0.1682 0.44004
0.0180362 0.204547 0.509255
0.0245212 0.265476 0.602167
0.0673533 0.317632 0.66038
0.197787 0.339727 0.648829
0.505776 0.362951 0.658366
0.670344 0.316106 0.604089
0.688212 0.322606 0.613672
0.0216068 0.243549 0.477348
0.022797 0.277256 0.52398
0.0304265 0.327398 0.595422
0.0762036 0.393927 0.666331
0.234241 0.493172 0.733166
0.448661 0.598062 0.798169
0.695277 0.62707 0.833066
0.854734 0.596063 0.822904
0.861692 0.596002 0.823255
0.0711681 0.36582 0.56173
0.0865339 0.398993 0.605066
0.111788 0.442084 0.661097
0.193652 0.514855 0.720989
0.421576 0.655787 0.812726
0.620203 0.766247 0.869596
0.82005 0.819654 0.895888
0.911254 0.803723 0.892546
0.916899 0.806394 0.892439
0.19678 0.52433 0.670481
0.217975 0.556466 0.704799
0.256291 0.604959 0.749691
0.35555 0.682261 0.810559
0.596445 0.821607 0.88069
0.754025 0.882658 0.910384
0.885786 0.915099 0.925887
0.938262 0.919097 0.928634
0.941497 0.921721 0.929
0.383886 0.749584 0.811795
0.407477 0.774395 0.835645
0.440803 0.804776 0.857114
0.533028 0.855344 0.885618
0.72697 0.913695 0.919127
0.833204 0.931609 0.928435
0.908431 0.941665 0.936004
0.946883 0.948302 0.939162
0.948821 0.94873 0.939315
0.409705 0.782605 0.833799
0.425193 0.793957 0.848875
0.457343 0.818753 0.864134
0.582116 0.872663 0.897398
0.75642 0.920363 0.92253
0.849027 0.934066 0.929885
0.918502 0.943404 0.936889
0.94757 0.948623 0.939223
0.948898 0.948898 0.939406
