3DLUTS/Emulsions/ELITECOLOR_7.cube
TITLE "Generated by Resolve"
LUT_3D_SIZE 33
0.0234989 0.0234989 0.0234989
0.0234989 0.0234989 0.0234989
0.0235142 0.0234989 0.0234989
0.0252232 0.0242466 0.024033
0.0283818 0.0254368 0.024918
0.0337377 0.0270085 0.025803
0.0407263 0.0289769 0.0267948
0.0489662 0.0309453 0.0274968
0.0580301 0.0330053 0.027985
0.0683604 0.0350805 0.0285649
0.0795758 0.0371557 0.0292515
0.0921798 0.0401617 0.0301061
0.105867 0.044007 0.0310979
0.119707 0.0473487 0.031754
0.133684 0.0502937 0.0322423
0.147494 0.0530861 0.0326696
0.161105 0.0557717 0.0329595
0.175601 0.0589456 0.0334936
0.190661 0.0623941 0.0342412
0.206683 0.0665751 0.0351873
0.223255 0.0711528 0.0362707
0.240253 0.0756695 0.0373083
0.257282 0.0800641 0.0383459
0.273991 0.0843366 0.0392767
0.290227 0.0885176 0.0402075
0.307378 0.0932021 0.041474
0.325231 0.0982223 0.0429847
0.343313 0.103212 0.0445563
0.36173 0.108034 0.0460975
0.37966 0.112825 0.0476081
0.397375 0.117449 0.0491646
0.415457 0.122179 0.0506752
0.433753 0.126909 0.0523537
0.0234989 0.0234989 0.0234989
0.0234989 0.0234989 0.0234989
0.0235142 0.0234989 0.0234989
0.0252079 0.024155 0.024033
0.028275 0.0254215 0.024918
0.0335393 0.0270085 0.025803
0.040528 0.0288853 0.0267948
0.0487678 0.0309453 0.0274968
0.057908 0.0330053 0.027985
0.0682536 0.0350805 0.0285649
0.0793927 0.0371405 0.0292515
0.0920882 0.0401617 0.0301061
0.105852 0.044007 0.0310979
0.119707 0.0473487 0.031754
0.133684 0.0502937 0.0322423
0.147524 0.0531014 0.0326696
0.161212 0.0557717 0.0329595
0.175769 0.0589456 0.0335546
0.190906 0.0624857 0.0343328
0.206973 0.0666209 0.0352483
0.223651 0.0712444 0.0363317
0.24065 0.0757763 0.0373541
0.257771 0.0802014 0.0383459
0.274525 0.0844892 0.0393225
0.290822 0.088716 0.0402686
0.308141 0.0934005 0.0415045
0.326085 0.0984817 0.0430762
0.344305 0.10341 0.0446632
0.362646 0.108324 0.0462348
0.380743 0.113115 0.047715
0.398459 0.117754 0.0491798
0.41677 0.122576 0.0508736
0.435233 0.127306 0.0525521
0.0235904 0.023682 0.0235904
0.0235904 0.023682 0.0234989
0.0236057 0.023682 0.0235142
0.0252995 0.0243381 0.0241245
0.028275 0.0255131 0.0250095
0.0336309 0.0271 0.0258946
0.0406195 0.0289769 0.0268864
0.0488594 0.0309453 0.0275731
0.0579232 0.0330968 0.0280766
0.0683452 0.0352636 0.0286564
0.0795605 0.0372473 0.0292515
0.092256 0.0403601 0.0301061
0.106035 0.0440986 0.0310979
0.119966 0.0474403 0.0318303
0.133974 0.0503853 0.0323186
0.147875 0.0532692 0.0326696
0.161547 0.0559243 0.0330358
0.176181 0.0591287 0.0335546
0.191485 0.0626841 0.0343481
0.207553 0.0667735 0.0352789
0.224384 0.0714427 0.0363622
0.241413 0.0760052 0.0374456
0.258595 0.0804913 0.0384375
0.27538 0.0848249 0.0394141
0.291829 0.0890516 0.0403601
0.309209 0.0937819 0.0415961
0.327291 0.0988785 0.043183
0.345586 0.103899 0.0447547
0.364065 0.108812 0.0463264
0.382284 0.113603 0.0478981
0.400122 0.118227 0.0493782
0.418524 0.123079 0.0510719
0.437217 0.127901 0.0528267
0.0264591 0.028748 0.0252232
0.0264439 0.0287327 0.0252079
0.0263828 0.0286564 0.0251316
0.0287022 0.0289769 0.0269169
0.0320897 0.0299077 0.0286412
0.0381628 0.0304875 0.0284123
0.0457771 0.0315557 0.0285039
0.054963 0.0339055 0.0291142
0.0648814 0.0362554 0.0296025
0.0762036 0.0392157 0.0302739
0.0882429 0.0420233 0.0309758
0.101289 0.04477 0.0314946
0.115297 0.0482948 0.0323339
0.129 0.0509194 0.0326696
0.142855 0.0533608 0.0329137
0.158068 0.0572366 0.0337835
0.172763 0.0607309 0.0343938
0.188235 0.0642863 0.0350805
0.204227 0.0680705 0.0359503
0.219989 0.0717937 0.036759
0.23653 0.076112 0.0377966
0.254047 0.0807965 0.0389258
0.271595 0.085359 0.0400092
0.289326 0.0902571 0.0412757
0.306462 0.0948959 0.0425116
0.32401 0.0994736 0.0437629
0.342229 0.104448 0.0452888
0.361044 0.10956 0.0469825
0.379873 0.114549 0.0486152
0.399908 0.120134 0.050721
0.419165 0.125399 0.0527199
0.439139 0.130739 0.0547646
0.459113 0.136019 0.0567483
0.0294957 0.0345006 0.0268101
0.0294041 0.0343938 0.0267948
0.0294041 0.034287 0.0267948
0.0315557 0.0346227 0.028336
0.0355383 0.0352178 0.0313878
0.0425422 0.0355383 0.0323339
0.0509041 0.0355535 0.0312505
0.060914 0.0370794 0.0310521
0.071809 0.0396582 0.0314488
0.0840162 0.0429084 0.0320287
0.0970932 0.0466316 0.0327153
0.110887 0.0498817 0.0333257
0.125231 0.0531319 0.0338445
0.139223 0.0555581 0.0341039
0.152834 0.0573434 0.0340124
0.167941 0.0607309 0.0345922
0.184054 0.0652628 0.0356603
0.200549 0.0695811 0.0367132
0.21735 0.0737011 0.0376287
0.233783 0.0776989 0.0385748
0.250034 0.0816052 0.0394446
0.267262 0.0859693 0.0404974
0.285313 0.0905928 0.0416724
0.303487 0.0956436 0.043122
0.321569 0.100847 0.0446021
0.339834 0.105837 0.0461433
0.358144 0.110658 0.0475929
0.377111 0.115633 0.0492256
0.39649 0.120714 0.0510414
0.416892 0.12639 0.0532692
0.438087 0.132509 0.0558175
0.459373 0.138491 0.0583047
0.480995 0.144274 0.0606699
0.0330205 0.0469825 0.027451
0.0330205 0.0468757 0.027451
0.032929 0.0467689 0.0274357
0.0349584 0.0479438 0.0280156
0.0387732 0.0492561 0.0302739
0.0501564 0.0490425 0.035935
0.0621042 0.0487068 0.0384375
0.0740826 0.0490272 0.0370794
0.0865492 0.0507668 0.0367437
0.10042 0.0536202 0.0365301
0.114794 0.0570687 0.0367132
0.129839 0.0598611 0.03682
0.145144 0.0625772 0.0369726
0.159838 0.0654765 0.0373846
0.17409 0.0676127 0.0375372
0.189715 0.0704356 0.0379034
0.206271 0.0745708 0.0389258
0.223392 0.07953 0.0402228
0.240696 0.0842145 0.0413977
0.257679 0.0882887 0.0423743
0.274281 0.0922713 0.0433509
0.291478 0.0964218 0.0443732
0.309453 0.100908 0.0455177
0.328252 0.106203 0.0472725
0.34696 0.11165 0.0491188
0.365835 0.116945 0.0509041
0.38468 0.122026 0.0526284
0.403876 0.126986 0.0543069
0.423468 0.132036 0.0561379
0.444602 0.137682 0.0584421
0.466377 0.143801 0.0610666
0.48838 0.150484 0.0640116
0.51046 0.156878 0.066804
0.0363165 0.0601205 0.0279698
0.0363165 0.0601053 0.0279545
0.0363317 0.0600137 0.0279393
0.0384375 0.061265 0.0285039
0.0420233 0.0634318 0.0297093
0.0532998 0.0639353 0.0346532
0.0701305 0.0630503 0.042237
0.0859693 0.0630198 0.0445258
0.100587 0.0635996 0.0429694
0.116197 0.0656291 0.0420844
0.132219 0.0686046 0.0415198
0.14873 0.0712444 0.0411841
0.165255 0.0733349 0.0408026
0.181231 0.0758068 0.0408789
0.196185 0.0784466 0.0412757
0.212253 0.0815137 0.0417792
0.22945 0.0851148 0.0425879
0.247059 0.0896925 0.0438392
0.264942 0.0948959 0.045243
0.282445 0.0994736 0.0465248
0.29955 0.103563 0.0475471
0.317006 0.107744 0.048661
0.334874 0.112123 0.0497597
0.353658 0.117266 0.0514687
0.373037 0.122988 0.0537118
0.392691 0.128527 0.0558022
0.412116 0.133898 0.0577859
0.431815 0.13904 0.0597543
0.451682 0.14406 0.0616465
0.472679 0.14963 0.0639048
0.495171 0.155734 0.0665599
0.517494 0.162356 0.0695811
0.540139 0.169421 0.0728923
0.0368811 0.076112 0.0281834
0.0368811 0.0760967 0.0281834
0.0368658 0.0760815 0.0280766
0.0393378 0.0778973 0.0281987
0.0433814 0.0804913 0.0289311
0.0551766 0.0818799 0.0340276
0.0725719 0.0817884 0.0417639
0.0954299 0.0810254 0.0487678
0.115328 0.0810864 0.0507057
0.134234 0.082414 0.0494087
0.152956 0.0849165 0.0486305
0.171572 0.0880293 0.0483864
0.18996 0.0906081 0.0482643
0.20856 0.0927596 0.0478065
0.22594 0.09514 0.0478065
0.241856 0.0977493 0.0480201
0.258762 0.100862 0.0484932
0.277089 0.104982 0.0497902
0.295537 0.109926 0.0514076
0.313741 0.115053 0.0530098
0.331456 0.119524 0.0543526
0.348791 0.123522 0.0555123
0.3664 0.127687 0.0566415
0.385 0.132647 0.0581369
0.404211 0.138186 0.0602121
0.425666 0.144183 0.0627756
0.446754 0.14995 0.065156
0.467277 0.1552 0.0674144
0.487861 0.160311 0.0694896
0.50695 0.165194 0.0715953
0.527672 0.170703 0.074052
0.548821 0.177218 0.0770886
0.570367 0.184207 0.0804303
0.0368505 0.0925765 0.0285039
0.0368505 0.0925765 0.0285039
0.0368505 0.0924849 0.0284886
0.0389715 0.094377 0.0280003
0.0434424 0.097612 0.0281224
0.0557565 0.0996109 0.0327764
0.0737774 0.100465 0.0407721
0.0978561 0.100618 0.0488136
0.125139 0.0999924 0.0555276
0.149767 0.100679 0.0576333
0.171878 0.102571 0.0565499
0.19353 0.105394 0.0560464
0.214145 0.108598 0.0561379
0.234623 0.111162 0.055848
0.25481 0.113344 0.055375
0.27306 0.115709 0.0552071
0.289677 0.118181 0.0552224
0.30779 0.121813 0.0562753
0.326986 0.12636 0.0580301
0.345815 0.131136 0.0596933
0.364233 0.136065 0.0614481
0.382147 0.140368 0.0628214
0.399542 0.14432 0.0640421
0.417945 0.148959 0.0655222
0.436957 0.154284 0.0673838
0.458305 0.16022 0.0698711
0.4813 0.166491 0.0727092
0.503014 0.172045 0.0752575
0.524376 0.177234 0.0776837
0.543862 0.182101 0.0799573
0.562448 0.186862 0.0821393
0.58143 0.192691 0.0849317
0.601556 0.199496 0.088365
0.0349126 0.110445 0.0310063
0.0348974 0.110521 0.0310063
0.0348363 0.110597 0.0309911
0.0347295 0.11252 0.0276341
0.0371557 0.115923 0.0251011
0.0503243 0.119265 0.0289158
0.0690013 0.121187 0.0362249
0.0975204 0.123507 0.0488899
0.128603 0.124514 0.0594492
0.162081 0.124117 0.0662852
0.19089 0.125078 0.0686046
0.217578 0.128069 0.0676127
0.242313 0.131594 0.0673228
0.264836 0.134646 0.066865
0.286687 0.137118 0.0662547
0.307958 0.139055 0.0659953
0.327031 0.141222 0.0659953
0.344961 0.144381 0.0665599
0.363989 0.148455 0.0679789
0.383642 0.152575 0.0695201
0.402838 0.156985 0.0711528
0.421592 0.161547 0.072755
0.43978 0.165637 0.0740978
0.458289 0.169299 0.0753643
0.477455 0.173785 0.0769665
0.498421 0.179858 0.0796368
0.521141 0.186343 0.0827649
0.542168 0.191821 0.0854353
0.562753 0.196857 0.0879377
0.581689 0.201785 0.0903944
0.599557 0.206485 0.0927138
0.615167 0.211139 0.0949722
0.632258 0.216938 0.0978866
0.0323033 0.128588 0.0333562
0.0322271 0.12871 0.0333562
0.0322271 0.128923 0.0333257
0.0318914 0.131167 0.0297246
0.0316625 0.134615 0.0237736
0.0431983 0.138094 0.0253605
0.0628672 0.141543 0.0318303
0.0914626 0.144778 0.0434272
0.127672 0.148211 0.0594644
0.165545 0.150179 0.0710155
0.203586 0.150011 0.0779431
0.237247 0.151965 0.0807202
0.267353 0.155779 0.0798657
0.29427 0.15906 0.0790112
0.318074 0.161913 0.0782177
0.340963 0.16408 0.0776989
0.363104 0.165942 0.0776532
0.383612 0.168688 0.0780194
0.402426 0.172259 0.0790112
0.422217 0.176059 0.080293
0.442176 0.179873 0.0817578
0.462013 0.183841 0.083299
0.481102 0.188067 0.0847639
0.500053 0.191775 0.0861067
0.519432 0.195224 0.0873884
0.539879 0.200305 0.0898299
0.562219 0.206928 0.0932021
0.582498 0.212573 0.0960708
0.602029 0.217426 0.0986343
0.619669 0.222156 0.101152
0.63682 0.226871 0.103639
0.651728 0.231418 0.10602
0.665202 0.23592 0.108309
0.0269932 0.147066 0.0330053
0.026978 0.14725 0.0330053
0.0268864 0.147463 0.0329747
0.0259403 0.151141 0.0285649
0.0250858 0.155825 0.0218509
0.0356909 0.159472 0.0216373
0.0549172 0.163043 0.0271
0.0817884 0.167132 0.0363317
0.116304 0.170962 0.0503395
0.16228 0.178378 0.0708171
0.206653 0.182544 0.0848096
0.250629 0.182803 0.0933089
0.288426 0.185306 0.096849
0.322179 0.188876 0.0956283
0.351522 0.191928 0.0945449
0.375937 0.19408 0.0933852
0.399359 0.195773 0.0926833
0.423285 0.198001 0.0921798
0.444984 0.201099 0.0923323
0.46537 0.205112 0.0936904
0.486076 0.209171 0.0951705
0.507851 0.212482 0.0968948
0.528771 0.216068 0.0985885
0.547448 0.219562 0.0997482
0.566323 0.222721 0.100893
0.584466 0.226032 0.102602
0.604425 0.231037 0.105333
0.622858 0.236652 0.108293
0.640436 0.241535 0.110979
0.655344 0.245945 0.113466
0.669841 0.25034 0.115999
0.684321 0.254505 0.118379
0.697307 0.258671 0.120699
0.0215305 0.16582 0.0323796
0.0215305 0.166033 0.0323796
0.0214847 0.166323 0.0323033
0.0205997 0.170535 0.0278782
0.0189822 0.176852 0.0202029
0.028809 0.181781 0.0190433
0.0474556 0.185595 0.0231785
0.0738384 0.189715 0.0313268
0.105959 0.194202 0.0426032
0.1514 0.201999 0.0613718
0.204623 0.212284 0.0851453
0.255253 0.21738 0.101289
0.303639 0.218021 0.110979
0.344137 0.220005 0.113664
0.380621 0.223285 0.112139
0.4103 0.225879 0.110704
0.435142 0.227451 0.10927
0.46038 0.229023 0.107836
0.485634 0.23154 0.106996
0.508965 0.235325 0.107713
0.530465 0.239734 0.109346
0.55288 0.243305 0.110994
0.575967 0.246189 0.112947
0.596185 0.24918 0.114473
0.614481 0.252094 0.115404
0.63151 0.254826 0.116732
0.64863 0.257969 0.11873
0.664424 0.262058 0.12108
0.679988 0.26688 0.123888
0.692912 0.271092 0.126329
0.704341 0.275135 0.128817
0.716762 0.279026 0.131182
0.729366 0.282795 0.133547
0.0178378 0.186328 0.032517
0.017792 0.186572 0.0325628
0.017731 0.186999 0.0325933
0.0173648 0.192935 0.0282292
0.0162051 0.200916 0.0206302
0.0244907 0.207614 0.0176852
0.0419165 0.212696 0.0202792
0.067216 0.216815 0.0269474
0.0985733 0.221225 0.0370184
0.146212 0.22945 0.0543221
0.201846 0.239994 0.0772412
0.262837 0.252811 0.10573
0.318853 0.259251 0.124666
0.366079 0.258503 0.131594
0.406775 0.259602 0.132769
0.442786 0.263233 0.131075
0.472358 0.265812 0.129473
0.499031 0.265187 0.126223
0.525521 0.265583 0.123705
0.552331 0.269566 0.124376
0.576791 0.27422 0.126101
0.599496 0.278279 0.127398
0.622858 0.281559 0.129015
0.644388 0.284428 0.131304
0.66363 0.287297 0.133074
0.678203 0.288853 0.133822
0.69279 0.290806 0.135134
0.705303 0.293584 0.136965
0.717769 0.297337 0.139254
0.728954 0.300923 0.141405
0.738689 0.304341 0.143557
0.750042 0.307866 0.145846
0.762036 0.311299 0.14815
0.0146181 0.207675 0.0331426
0.0146029 0.20798 0.0331426
0.0145113 0.208545 0.0331579
0.0142061 0.214969 0.0285801
0.0136416 0.225177 0.0211032
0.0221256 0.23299 0.0180514
0.0378119 0.239887 0.0186313
0.061799 0.244663 0.0240482
0.0919661 0.248951 0.0325017
0.138979 0.257359 0.0486458
0.198032 0.26836 0.0703746
0.262226 0.28159 0.0981308
0.328939 0.296223 0.130114
0.383307 0.301503 0.146395
0.429725 0.299657 0.151308
0.469871 0.300786 0.151904
0.505577 0.304631 0.150088
0.536629 0.305562 0.147219
0.564538 0.303334 0.142626
0.592828 0.304784 0.141299
0.620768 0.309804 0.14313
0.645716 0.314336 0.144945
0.669276 0.318166 0.14609
0.690471 0.321279 0.148119
0.710826 0.324163 0.150744
0.72575 0.325856 0.152285
0.737545 0.326467 0.152926
0.747814 0.327794 0.154055
0.756893 0.330388 0.15581
0.765667 0.333043 0.15761
0.773648 0.335683 0.159319
0.783413 0.338628 0.161456
0.794751 0.341787 0.163638
0.0125734 0.232761 0.0352331
0.0125582 0.23331 0.0352331
0.0125124 0.234028 0.0352026
0.0124208 0.242039 0.0295415
0.0121157 0.253742 0.0209964
0.0201724 0.26186 0.0175479
0.0353552 0.268589 0.0177768
0.0573739 0.272801 0.0218051
0.0860609 0.276265 0.0294957
0.132494 0.285496 0.0440986
0.191272 0.297246 0.0647746
0.261845 0.311757 0.0919661
0.333654 0.327352 0.123644
0.396948 0.342031 0.152895
0.449256 0.347005 0.167178
0.494743 0.344167 0.170077
0.534279 0.3449 0.169528
0.570275 0.349248 0.16846
0.601831 0.350057 0.165591
0.632197 0.347539 0.160998
0.66212 0.349065 0.159899
0.68835 0.354772 0.163073
0.712474 0.359731 0.165652
0.732036 0.362875 0.167285
0.750713 0.365652 0.169619
0.764965 0.367971 0.172229
0.775738 0.369238 0.173739
0.784497 0.368521 0.173953
0.792416 0.369085 0.174777
0.799893 0.370993 0.176272
0.807095 0.373114 0.177813
0.814939 0.375616 0.180179
0.824628 0.378347 0.182696
0.0108492 0.258595 0.0372473
0.0108492 0.259266 0.0371405
0.0107576 0.260227 0.0371252
0.0108034 0.268711 0.0317235
0.0108339 0.282399 0.0218204
0.0189822 0.291524 0.0173495
0.0333562 0.298131 0.0169985
0.0545357 0.301991 0.0205386
0.081239 0.304204 0.0271763
0.126192 0.312428 0.0409705
0.184527 0.325307 0.0600595
0.255833 0.34078 0.0862898
0.33489 0.3579 0.117525
0.40325 0.373816 0.147219
0.464012 0.388479 0.174563
0.513924 0.392264 0.185763
0.558633 0.388708 0.18706
0.598764 0.390356 0.187457
0.634897 0.395132 0.186954
0.668803 0.395712 0.184131
0.700999 0.392966 0.179431
0.728771 0.395819 0.180209
0.753628 0.402121 0.184482
0.7729 0.40621 0.187411
0.789471 0.408865 0.189395
0.801938 0.410803 0.191577
0.811643 0.412787 0.194171
0.819348 0.412284 0.194873
0.826017 0.410636 0.194736
0.832837 0.410758 0.195529
0.839277 0.412222 0.196841
0.846128 0.414466 0.199603
0.853834 0.416846 0.202487
0.00976577 0.284642 0.037995
0.00976577 0.286076 0.0374914
0.00972 0.287709 0.0370794
0.0100252 0.297398 0.0326848
0.0103456 0.312245 0.0236667
0.0180819 0.321859 0.0178531
0.0321355 0.32845 0.0164645
0.0513313 0.331502 0.0192264
0.0764477 0.333013 0.0252232
0.119234 0.339406 0.0376287
0.176028 0.350881 0.0557412
0.250843 0.368414 0.0807965
0.333181 0.387152 0.111376
0.408911 0.405463 0.143114
0.474708 0.421973 0.172457
0.527596 0.43473 0.19324
0.573236 0.437324 0.200641
0.61976 0.436042 0.203479
0.660883 0.438911 0.204822
0.698863 0.444068 0.204807
0.734234 0.4448 0.202213
0.76321 0.445243 0.20087
0.78883 0.449958 0.203723
0.80618 0.454688 0.207935
0.820493 0.457725 0.21088
0.830945 0.458351 0.21236
0.838941 0.459007 0.214298
0.844923 0.45803 0.215122
0.850034 0.455619 0.214771
0.857053 0.454185 0.215213
0.863874 0.454337 0.216297
0.869032 0.456962 0.220737
0.875135 0.459907 0.225437
0.00886549 0.31078 0.0387427
0.00886549 0.312505 0.0382391
0.00886549 0.315084 0.0373388
0.00914015 0.325231 0.0324102
0.00976577 0.341482 0.0246738
0.0175631 0.351781 0.019501
0.0310979 0.35848 0.0167391
0.0505531 0.361395 0.0189059
0.0734112 0.361791 0.0238804
0.114656 0.367941 0.0354009
0.169314 0.377401 0.0521401
0.242878 0.394064 0.0762493
0.329763 0.415076 0.10576
0.409491 0.435264 0.137423
0.482765 0.454459 0.169604
0.539818 0.468956 0.192554
0.586801 0.480308 0.208545
0.632929 0.484031 0.21561
0.680705 0.484291 0.219471
0.723064 0.488396 0.222232
0.762448 0.493828 0.222568
0.794156 0.497398 0.223041
0.820676 0.500191 0.224155
0.838163 0.503853 0.227558
0.849897 0.507393 0.231647
0.858503 0.508019 0.233936
0.864485 0.507103 0.23508
0.869047 0.504829 0.235447
0.872343 0.50161 0.234974
0.877791 0.499199 0.235264
0.885145 0.497932 0.23624
0.890349 0.500114 0.241382
0.894636 0.503731 0.248188
0.00842298 0.336767 0.0412757
0.00842298 0.339773 0.0406958
0.0084535 0.343511 0.0396887
0.00863661 0.353475 0.0337835
0.00907912 0.36939 0.0252689
0.0166629 0.379705 0.0201114
0.0297856 0.386038 0.0171664
0.0512093 0.388434 0.0192874
0.0758679 0.388449 0.0245975
0.115068 0.395239 0.0342565
0.168292 0.405554 0.0494392
0.240391 0.421866 0.0719921
0.326497 0.443 0.100389
0.414115 0.466239 0.133654
0.4934 0.4878 0.167437
0.554513 0.504707 0.193881
0.603571 0.517571 0.21236
0.645792 0.525811 0.221286
0.689769 0.528344 0.225055
0.73666 0.532921 0.233585
0.778988 0.539345 0.238834
0.81355 0.546258 0.240986
0.842054 0.551232 0.243061
0.858732 0.554955 0.246799
0.869337 0.558953 0.251652
0.876677 0.558862 0.254505
0.881819 0.557046 0.256016
0.885649 0.553597 0.25655
0.888426 0.549447 0.256382
0.891722 0.545464 0.256687
0.897246 0.542565 0.257588
0.901946 0.546014 0.265339
0.90547 0.551125 0.274922
0.00817884 0.3626 0.0445716
0.00810254 0.365805 0.0435645
0.00816358 0.371023 0.0425116
0.00842298 0.381598 0.0365301
0.00875868 0.397086 0.0268101
0.0158846 0.407218 0.0206912
0.0285801 0.413123 0.0175021
0.0497902 0.415656 0.0194553
0.076997 0.414984 0.0251621
0.117784 0.421408 0.0349889
0.168978 0.432822 0.0479744
0.240558 0.450538 0.069337
0.325475 0.471839 0.0961929
0.413321 0.495613 0.12874
0.501472 0.520607 0.164782
0.567529 0.539437 0.192721
0.619562 0.554574 0.214939
0.663386 0.564294 0.226413
0.701976 0.570138 0.230137
0.744732 0.576043 0.237873
0.790921 0.58381 0.24976
0.827054 0.591333 0.256519
0.858091 0.599268 0.259922
0.877058 0.605234 0.264851
0.886412 0.609735 0.270542
0.892943 0.609781 0.274067
0.897063 0.606989 0.276051
0.900343 0.602975 0.27744
0.902693 0.597711 0.277546
0.905348 0.593301 0.278965
0.908629 0.588663 0.279896
0.911772 0.590616 0.288197
0.914504 0.597635 0.301076
0.00894179 0.387304 0.0505379
0.00839246 0.391135 0.0483711
0.00801099 0.39704 0.0460365
0.00885023 0.406958 0.0399939
0.00973526 0.421576 0.0303197
0.015671 0.431693 0.0224918
0.0273442 0.437736 0.0179141
0.0483558 0.441855 0.0195315
0.0755322 0.442664 0.0250248
0.117983 0.448539 0.0348363
0.170184 0.459571 0.047776
0.243366 0.48101 0.0681315
0.330053 0.505364 0.0946365
0.420844 0.530922 0.127199
0.511803 0.557336 0.163531
0.581964 0.578027 0.193332
0.635935 0.594171 0.216785
0.680964 0.605982 0.232059
0.720088 0.613275 0.238361
0.755886 0.61854 0.243153
0.796887 0.625086 0.252461
0.831617 0.632593 0.264836
0.860731 0.64033 0.27216
0.883497 0.648951 0.279026
0.89604 0.655406 0.28629
0.902068 0.655207 0.290425
0.905989 0.651972 0.292805
0.908995 0.647883 0.29604
0.911299 0.642741 0.2981
0.912993 0.639231 0.302678
0.915282 0.63566 0.306722
0.917189 0.635966 0.316625
0.919081 0.641566 0.331243
0.0104067 0.411994 0.057969
0.00941482 0.415702 0.0543832
0.00848402 0.422309 0.0504616
0.00923171 0.432624 0.043595
0.0107271 0.445991 0.0338598
0.0166323 0.455528 0.0257115
0.0268711 0.461662 0.0193179
0.0478981 0.466178 0.0201114
0.0750896 0.469078 0.0252995
0.116884 0.476249 0.0345159
0.170459 0.486809 0.0472725
0.2448 0.508461 0.0678111
0.334096 0.537255 0.0936294
0.426474 0.565682 0.126009
0.521492 0.594293 0.162753
0.594308 0.616464 0.193362
0.651194 0.634043 0.218677
0.697536 0.646448 0.234836
0.737331 0.655818 0.244938
0.773205 0.662165 0.251728
0.806882 0.666941 0.257252
0.836973 0.673304 0.267414
0.863325 0.68069 0.280156
0.884337 0.688502 0.290349
0.901061 0.69749 0.299672
0.910002 0.699504 0.30573
0.913603 0.695781 0.308583
0.916381 0.691249 0.312184
0.918654 0.686244 0.316442
0.920195 0.682948 0.323339
0.921431 0.680812 0.331243
0.922469 0.681758 0.344213
0.9234 0.685573 0.360708
0.0168154 0.437461 0.0722972
0.0136721 0.440543 0.0632334
0.0107271 0.44654 0.0539254
0.0119173 0.456535 0.0469673
0.0139467 0.469459 0.0373999
0.0179751 0.478721 0.0275578
0.0264134 0.484855 0.0196689
0.0509041 0.490547 0.0210269
0.0813611 0.494423 0.0270237
0.120577 0.502937 0.0340887
0.171862 0.514351 0.0451514
0.248493 0.538247 0.0665904
0.339544 0.568978 0.0932937
0.433677 0.601724 0.125917
0.52961 0.633158 0.163012
0.606378 0.657603 0.196628
0.665812 0.676692 0.224308
0.711986 0.688548 0.24094
0.751125 0.697185 0.251041
0.785809 0.703807 0.258473
0.818311 0.708568 0.263951
0.843717 0.71339 0.272389
0.86717 0.719753 0.284199
0.886244 0.724376 0.297078
0.901732 0.730739 0.307988
0.913588 0.736507 0.317601
0.919203 0.735851 0.323537
0.921645 0.730358 0.326925
0.923629 0.724636 0.330968
0.925002 0.721416 0.341543
0.925963 0.719371 0.352712
0.926192 0.719799 0.368917
0.926467 0.722866 0.388098
0.0242771 0.463203 0.0876326
0.0206912 0.466026 0.0773327
0.0152438 0.47129 0.0613565
0.0148775 0.4804 0.0500038
0.0175326 0.492775 0.0407416
0.0221103 0.50106 0.0310369
0.0280461 0.507271 0.0211032
0.0515602 0.513466 0.0211948
0.0866102 0.518807 0.028275
0.129168 0.528771 0.0364691
0.177279 0.541344 0.0449989
0.251194 0.566049 0.0648508
0.344701 0.599741 0.0926833
0.44007 0.634104 0.126162
0.537453 0.669673 0.163775
0.615106 0.69659 0.197665
0.678386 0.717906 0.228931
0.72636 0.730892 0.247623
0.764523 0.738491 0.257801
0.798367 0.744411 0.265003
0.829252 0.749065 0.270436
0.853635 0.753704 0.278416
0.872999 0.758511 0.288914
0.889647 0.762249 0.300969
0.903426 0.764935 0.313954
0.914229 0.768414 0.325582
0.922469 0.771786 0.335378
0.926665 0.76907 0.341665
0.928328 0.762295 0.345327
0.929366 0.758556 0.356985
0.930068 0.756619 0.372122
0.930144 0.756771 0.391272
0.92958 0.758953 0.41352
0.0358129 0.490211 0.1037
0.0303044 0.49192 0.0881514
0.0230106 0.496056 0.0673228
0.0224918 0.503639 0.0537575
0.0254063 0.514626 0.043473
0.0304723 0.519997 0.0339513
0.0367742 0.523674 0.024155
0.0614328 0.532357 0.0233005
0.0979019 0.539864 0.0298161
0.145708 0.553933 0.0407111
0.197528 0.569802 0.0514076
0.265538 0.595544 0.0694285
0.354543 0.629847 0.0960403
0.449531 0.665263 0.130571
0.54638 0.701305 0.168948
0.624933 0.730159 0.203204
0.688807 0.752483 0.234668
0.736324 0.765743 0.254948
0.773587 0.773205 0.265995
0.805661 0.778058 0.272007
0.835218 0.781964 0.276402
0.858366 0.78584 0.282094
0.876997 0.790051 0.290623
0.892302 0.793133 0.302159
0.90544 0.795483 0.314839
0.91545 0.79733 0.330648
0.923354 0.799771 0.343847
0.92874 0.79971 0.353262
0.931121 0.794827 0.359258
0.931517 0.791409 0.376654
0.93164 0.789929 0.39733
0.931838 0.788724 0.418555
0.931456 0.789609 0.442359
0.0476997 0.517082 0.119188
0.0421149 0.518547 0.103105
