3DLUTS/Emulsions/KODAK PREFEREE_7.cube
TITLE "Generated by Resolve"
LUT_3D_SIZE 33
0.0162051 0.0191806 0.0267338
0.0176242 0.0201114 0.0273136
0.021622 0.0213016 0.0278477
0.0273442 0.0233158 0.028275
0.0285191 0.0253605 0.0286259
0.03122 0.0265354 0.0288701
0.0425116 0.0277409 0.0289464
0.0575723 0.0296025 0.0288548
0.0679332 0.0322881 0.0287633
0.0854963 0.0349432 0.028275
0.114031 0.0366674 0.0269169
0.144213 0.0385443 0.0227207
0.174655 0.0400549 0.0121462
0.210758 0.037583 0.00183108
0.254292 0.0266575 0
0.30045 0.00170901 0
0.344167 0 0
0.383276 0 0
0.420142 0 0
0.455726 0 0
0.487098 0 0
0.512535 0 0
0.533547 0 0
0.551308 0 0
0.566461 0 0
0.578851 0 0
0.588876 0 0
0.597086 0 0
0.604212 0 0
0.609918 0 0
0.614511 0 0
0.618845 0 0
0.620203 0 0
0.0165408 0.0214389 0.0273136
0.0178073 0.0223697 0.027863
0.0217899 0.0236057 0.0283665
0.0275578 0.02533 0.0287785
0.0288243 0.0264134 0.02916
0.0317388 0.0273442 0.0294652
0.0436713 0.0286717 0.0295415
0.0590219 0.0307012 0.0294499
0.0700999 0.0336309 0.0292973
0.0880751 0.0365301 0.0287175
0.117525 0.0384222 0.0272679
0.148928 0.0403906 0.0231632
0.180591 0.0419318 0.0116884
0.21796 0.0392004 0.00158694
0.262089 0.0277256 0
0.309392 0.00177005 0
0.353689 0 0
0.393622 0 0
0.431037 0 0
0.46685 0 0
0.498436 0 0
0.52401 0 0
0.544717 0 0
0.562387 0 0
0.577096 0 0
0.589364 0 0
0.598978 0 0
0.606928 0 0
0.613977 0 0
0.619425 0 0
0.623774 0 0
0.628031 0 0
0.629389 0 0
0.0161135 0.0250858 0.0280461
0.0172885 0.0258488 0.0285649
0.0214542 0.0264439 0.0290379
0.0276341 0.0270085 0.0294499
0.0289769 0.027863 0.0298619
0.032105 0.0289464 0.0301976
0.0447395 0.0304417 0.0302892
0.0604868 0.0327306 0.0301518
0.072282 0.0360418 0.0299535
0.0908064 0.0393225 0.0292668
0.121248 0.0415351 0.0276646
0.153979 0.0438239 0.0233768
0.186908 0.0456703 0.0112764
0.225177 0.0428321 0.00131228
0.270207 0.030808 0
0.318761 0.00227359 0
0.364004 0 0
0.404517 0 0
0.442176 0 0
0.478401 0 0
0.510201 0 0
0.535775 0 0
0.556451 0 0
0.573739 0 0
0.588357 0 0
0.600305 0 0
0.60972 0 0
0.617456 0 0
0.624155 0 0
0.629526 0 0
0.633875 0 0
0.638102 0 0
0.639445 0 0
0.0140536 0.0284886 0.02916
0.0152438 0.028748 0.0296635
0.0198978 0.02916 0.0301366
0.0273136 0.0299535 0.0305333
0.0288243 0.0310063 0.0309453
0.0321813 0.0323339 0.0313115
0.0457008 0.0341802 0.0314031
0.0621347 0.0369879 0.03122
0.0742351 0.04094 0.03093
0.0939193 0.0449683 0.0301213
0.125719 0.0479286 0.0283207
0.159747 0.050309 0.0239414
0.193835 0.0522011 0.0111086
0.233036 0.0504921 0.00106813
0.279393 0.0398566 0
0.329381 0.0145876 0
0.376089 0 0
0.417227 0 0
0.45536 0 0
0.491814 0 0
0.523766 0 0
0.54934 0 0
0.569787 0 0
0.586847 0 0
0.601175 0 0
0.613016 0 0
0.622202 0 0
0.629755 0 0
0.636469 0 0
0.641794 0 0
0.646097 0 0
0.650294 0 0
0.651591 0 0
0.0131228 0.0308843 0.0306554
0.0145266 0.0311894 0.0311589
0.0196384 0.0316625 0.0316167
0.0275883 0.0325475 0.0320287
0.02916 0.0337835 0.0324712
0.0327916 0.0353552 0.0328374
0.0472267 0.0375677 0.0329137
0.0642863 0.0408637 0.0326696
0.0766918 0.0455024 0.0323339
0.0976883 0.0501259 0.0314031
0.130434 0.0526284 0.0294041
0.16553 0.0548104 0.0252079
0.200931 0.056733 0.0121767
0.241733 0.0558938 0.00109865
0.289097 0.0487678 0
0.340703 0.026627 0
0.389151 0 0
0.430976 4.57771e-05 0
0.469459 0 0
0.506157 0 0
0.538186 0 0
0.563668 0 0
0.583963 0 0
0.600687 0 0
0.614847 0 0
0.626505 0 0
0.635752 0 0
0.643275 0 0
0.649927 0 0
0.655299 0 0
0.659709 0 0
0.663996 0 0
0.665324 0 0
0.0107576 0.0345769 0.0324559
0.0124666 0.0348974 0.0329595
0.0182498 0.0354314 0.033463
0.0273899 0.0364996 0.033875
0.0292363 0.037995 0.034287
0.0331426 0.0399481 0.0346532
0.048661 0.0426184 0.0347143
0.0665293 0.0466316 0.0344091
0.0794232 0.0512703 0.0339971
0.101061 0.0547646 0.0329442
0.135027 0.0573892 0.0306554
0.171633 0.0601968 0.0265965
0.208713 0.0628977 0.0134279
0.250736 0.0625925 0.00117494
0.299519 0.0569772 0
0.352453 0.0433204 0
0.402899 0.014786 0
0.446006 0 0
0.48484 1.5259e-05 0
0.521569 0 0
0.553628 0 0
0.579187 0 0
0.599176 0 0
0.615656 0 0
0.629511 0 0
0.64123 0 0
0.650401 0 0
0.65803 0 0
0.664881 0 0
0.670298 0 0
0.674723 0 0
0.679072 0 0
0.68043 0 0
0.00189212 0.0439155 0.0346532
0.0034638 0.044358 0.0351873
0.00843824 0.0451057 0.0356909
0.0209354 0.0465248 0.0361028
0.0261692 0.0483864 0.0365148
0.0311742 0.0508278 0.0368658
0.048127 0.0536812 0.0368505
0.0679789 0.0566415 0.036408
0.0817884 0.0607309 0.0358282
0.104295 0.0651102 0.0345006
0.139956 0.0686656 0.0317845
0.178576 0.0725872 0.0271611
0.217319 0.0765393 0.0123598
0.260685 0.0774395 0.00062562
0.310872 0.0730907 0
0.365499 0.0647135 0
0.417609 0.0503548 0
0.462974 0.0200809 0
0.502892 0.00463874 0
0.539986 0 0
0.572076 1.5259e-05 0
0.597436 0 0
0.617288 0 0
0.633448 0 0
0.647211 0 0
0.658778 0 0
0.668086 0 0
0.675761 0 0
0.682567 0 0
0.688197 0 0
0.692897 0 0
0.697414 0 0
0.698817 0 0
3.0518e-05 0.0547036 0.0374456
4.57771e-05 0.0552377 0.0380102
0.000122072 0.0563211 0.0385443
0.00523384 0.0582589 0.0389563
0.0122377 0.0599832 0.0393988
0.0261082 0.0620737 0.0397498
0.0458076 0.0651408 0.0396582
0.0687114 0.0694743 0.0390173
0.0839857 0.0744945 0.0381323
0.107881 0.0797284 0.036408
0.145647 0.0838636 0.033051
0.186343 0.0882277 0.0275425
0.226673 0.0927291 0.0100557
0.271794 0.0947585 0
0.323613 0.0929885 0
0.379797 0.088014 0
0.433478 0.0800641 0
0.480232 0.0690623 0
0.522316 0.0465858 0
0.560906 0.014725 0
0.593591 0 0
0.619013 0 0
0.638712 3.0518e-05 0
0.654704 3.0518e-05 0
0.668238 0 0
0.679835 0 0
0.688991 0 0
0.696757 0 0
0.703731 0 0
0.709499 3.0518e-05 0
0.714382 0 0
0.719203 0 0
0.720714 0 0
0 0.0621195 0.041001
0 0.0628214 0.0416114
0 0.0641794 0.0421759
0.00015259 0.0671092 0.0426337
0.000823987 0.0699626 0.0431678
0.0112306 0.0732128 0.043595
0.0441444 0.0762036 0.0434272
0.0697337 0.0805676 0.0425879
0.0867781 0.0859693 0.0413977
0.112352 0.0915541 0.0391852
0.152331 0.0969711 0.0351263
0.194583 0.10193 0.0290684
0.236942 0.107027 0.0108797
0.283757 0.110048 0
0.337224 0.109697 0
0.395285 0.1066 0
0.450568 0.101457 0
0.498421 0.0946365 0
0.5411 0.0833143 0
0.581033 0.0657206 0
0.61532 0.0362249 0
0.64184 0.022858 0
0.662043 0.0030518 0
0.678019 0 0
0.691417 0 0
0.702953 0 0
0.712123 0 0
0.719753 0 0
0.726879 0 0
0.733059 0 0
0.738231 0.00213626 0
0.74287 0.022034 0
0.744335 0.0252842 0
0 0.075288 0.0446174
0 0.0759899 0.0452735
0 0.0772717 0.0458686
0 0.0799268 0.0463264
0 0.0827039 0.0468605
0.000976577 0.0865339 0.0472877
0.0363317 0.0916304 0.0469825
0.0685893 0.0970016 0.0457618
0.087953 0.102998 0.044007
0.11603 0.109117 0.0410468
0.158267 0.115297 0.0360113
0.202976 0.121752 0.0266117
0.247532 0.127596 0.00875868
0.296315 0.131289 0
0.351659 0.132494 0
0.411566 0.131701 0
0.468498 0.12929 0
0.517647 0.125475 0
0.561059 0.118456 0
0.601373 0.108629 0
0.636194 0.0983291 0
0.663539 0.0871901 0
0.684535 0.0737011 0
0.701122 0.0648814 0
0.715099 0.0609751 0
0.726665 0.0591745 0
0.735729 0.0607462 0
0.743114 0.0638895 0
0.749844 0.0679484 0
0.755596 0.0738842 0
0.760464 0.0830854 0
0.765118 0.0955062 0
0.766567 0.0981003 0
0 0.0928969 0.0475929
0 0.0939193 0.048249
0 0.0956436 0.0488136
0 0.0990768 0.049134
0 0.1028 0.0495155
0 0.106981 0.0496986
0.0099794 0.114199 0.0489662
0.061326 0.121157 0.046952
0.0846723 0.128771 0.0442054
0.116915 0.135988 0.0399176
0.1626 0.143099 0.0329137
0.210636 0.150805 0.0169833
0.257923 0.157946 0.0011902
0.308965 0.162921 0
0.366293 0.165896 0
0.428321 0.167224 0
0.487175 0.167117 0
0.537591 0.16556 0
0.581979 0.16202 0
0.622889 0.156497 0
0.658076 0.150179 0
0.685771 0.144854 0
0.706859 0.140444 0
0.723644 0.136599 0
0.737636 0.134157 0
0.74934 0.133837 0
0.758175 0.135439 0
0.765484 0.138506 0
0.772183 0.142733 0
0.777768 0.148684 0
0.782513 0.155566 0
0.787198 0.161349 0
0.788663 0.162997 0
0 0.113634 0.050309
0 0.114885 0.0508736
0 0.116686 0.0512856
0 0.120134 0.0513466
0 0.124102 0.0513771
0 0.129473 0.0512245
0.00300603 0.138338 0.0499733
0.0395056 0.148379 0.0468452
0.0776379 0.157214 0.0426184
0.115602 0.166018 0.0365148
0.166064 0.174472 0.0245518
0.218296 0.183337 0.00373846
0.268559 0.191501 0
0.322484 0.198077 0
0.382086 0.202792 0
0.446265 0.205997 0
0.50692 0.207736 0
0.55877 0.20798 0
0.604044 0.20621 0
0.645808 0.202625 0
0.681559 0.198657 0
0.70956 0.195483 0
0.73077 0.192706 0
0.747646 0.190341 0
0.761593 0.189212 0
0.773312 0.189899 0
0.782147 0.191959 0
0.789288 0.195132 0
0.795941 0.199298 0
0.801602 0.204639 0
0.806302 0.210941 0
0.81088 0.21709 0
0.812314 0.21883 0
0 0.134676 0.0521096
0 0.136278 0.05243
0 0.138491 0.0526284
0 0.142519 0.052491
0 0.146899 0.0522316
0 0.15256 0.0517281
1.5259e-05 0.162448 0.049836
0.0081178 0.175509 0.045304
0.0628061 0.186465 0.0392462
0.1122 0.196704 0.0311589
0.168658 0.206577 0.00898756
0.225269 0.216571 0.000442512
0.279622 0.226047 0
0.336187 0.234333 0
0.398184 0.240589 0
0.464546 0.245182 0
0.527245 0.248356 0
0.580621 0.250004 0
0.627008 0.249683 0
0.669444 0.247608 0
0.705882 0.244968 0
0.734295 0.242863 0
0.755795 0.240909 0
0.772686 0.239216 0
0.78674 0.238743 0
0.798413 0.239933 0
0.807309 0.24242 0
0.814389 0.246021 0
0.82092 0.250629 0
0.826474 0.256245 0
0.831174 0.262547 0
0.835676 0.268681 0
0.837079 0.270512 0
0 0.1579 0.0523384
0 0.159686 0.0525978
0 0.162325 0.0526894
0 0.167117 0.0522774
0 0.172595 0.0516823
0 0.178958 0.0501106
0 0.189441 0.0463874
0 0.204074 0.0400702
0.0343023 0.218723 0.0320134
0.104143 0.230716 0.0101015
0.168612 0.241947 0.00135805
0.230457 0.253346 0
0.288762 0.264622 0
0.34873 0.274601 0
0.41326 0.282322 0
0.482078 0.288533 0
0.546838 0.293431 0
0.601801 0.296544 0
0.649363 0.29752 0
0.692729 0.296712 0
0.729793 0.295354 0
0.758755 0.29427 0
0.78056 0.292973 0
0.797543 0.291737 0
0.811719 0.291661 0
0.823423 0.293202 0
0.832258 0.295872 0
0.839399 0.299458 0
0.845823 0.303899 0
0.851209 0.30959 0
0.855711 0.316045 0
0.860136 0.322179 0
0.861509 0.323919 0
0 0.184878 0.0500343
0 0.186984 0.0503548
0 0.189944 0.0501869
0 0.195254 0.0487984
0 0.20177 0.0467231
0 0.209186 0.0436408
0 0.220645 0.0377203
0.000122072 0.236332 0.0253147
0.00215152 0.253529 0.00788891
0.0812238 0.269047 0.00132753
0.164569 0.282002 1.5259e-05
0.232715 0.29514 0
0.295537 0.308507 0
0.358999 0.320363 0
0.426551 0.330114 0
0.498009 0.338033 0
0.565011 0.344579 0
0.62179 0.349371 0
0.670588 0.351827 0
0.715053 0.352331 0
0.752911 0.352041 0
0.782452 0.351705 0
0.804547 0.350851 0
0.821744 0.349859 0
0.83595 0.34992 0
0.847822 0.351659 0
0.856565 0.354513 0
0.86363 0.358114 0
0.870054 0.362356 0
0.875257 0.367651 0
0.87953 0.373678 0
0.883696 0.379629 0
0.885023 0.381369 0
0 0.21416 0.0435035
0 0.216587 0.0436561
0 0.219989 0.0431525
0 0.22594 0.041001
0 0.233371 0.0378271
0 0.241932 0.0308537
0 0.254597 0.0185855
1.5259e-05 0.271336 0.00205997
0 0.289631 0.000335698
0.041825 0.310063 0
0.155581 0.325307 0
0.232288 0.340642 0
0.300557 0.356085 0
0.368078 0.370138 0
0.438743 0.381659 0
0.513146 0.391806 0
0.582757 0.400061 0
0.641352 0.406302 0
0.69163 0.410117 0
0.737179 0.411841 0
0.776059 0.412543 0
0.80621 0.412879 0
0.828656 0.412299 0
0.846128 0.411353 0
0.860426 0.411414 0
0.872374 0.41323 0
0.881193 0.416175 0
0.888106 0.419806 0
0.894392 0.423926 0
0.899489 0.428885 0
0.903502 0.43447 0
0.907393 0.440055 0
0.908629 0.441733 0
0 0.242481 0.0349126
0 0.245289 0.0348211
0 0.249088 0.0339208
0 0.255695 0.0281224
0 0.264042 0.018677
0 0.273594 0.00953689
0 0.287266 0.000579843
0 0.305074 1.5259e-05
0.000106813 0.324804 0
0 0.348257 0
0.135729 0.3673 0
0.23006 0.384405 0
0.304021 0.402106 0
0.375586 0.418112 0
0.449607 0.431617 0
0.527031 0.443412 0
0.599084 0.453651 0
0.659648 0.461326 0
0.711421 0.466316 0
0.758221 0.469078 0
0.797955 0.470649 0
0.828824 0.47158 0
0.851789 0.471275 0
0.869429 0.470405 0
0.88397 0.470481 0
0.895933 0.472297 0
0.904814 0.475273 0
0.911696 0.47892 0
0.917784 0.482948 0
0.922606 0.487556 0
0.926375 0.492668 0
0.930022 0.497795 0
0.931182 0.499321 0
0 0.267567 0.0175326
0 0.270954 0.015671
0 0.275319 0.0121614
0 0.282322 0.00727855
0 0.291249 0.000610361
0 0.301778 0
0 0.316258 3.0518e-05
0 0.335286 0
0 0.356374 0
1.5259e-05 0.381079 0
0.120638 0.404318 0
0.226459 0.423423 0
0.305974 0.442924 0
0.38143 0.460777 0
0.458579 0.47599 0
0.538582 0.489494 0
0.61294 0.501183 0
0.675288 0.510338 0
0.72845 0.516564 0
0.77641 0.520394 0
0.817121 0.522759 0
0.848661 0.5243 0
0.872068 0.524422 0
0.890074 0.523781 0
0.904784 0.523964 0
0.916899 0.52578 0
0.925704 0.528557 0
0.93254 0.531975 0
0.938537 0.53576 0
0.94313 0.540017 0
0.946563 0.544686 0
0.949905 0.549264 0
0.950973 0.550622 0
0 0.290501 0.00166323
0 0.294362 0.000885023
0 0.299367 0
0 0.307073 0
0 0.316396 0
0 0.327977 0
0 0.343267 0
0 0.363363 0
0 0.385626 0
1.5259e-05 0.411612 0
0.0986038 0.43856 0
0.220722 0.459586 0
0.306188 0.480674 0
0.385412 0.500374 0
0.465263 0.517098 0
0.547753 0.532311 0
0.623987 0.545525 0
0.687938 0.556039 0
0.742412 0.563409 0
0.791577 0.568276 0
0.833204 0.571603 0
0.865507 0.573907 0
0.889494 0.574655 0
0.907866 0.574472 0
0.92285 0.574914 0
0.935073 0.576715 0
0.943908 0.579278 0
0.950576 0.582238 0
0.956405 0.585428 0
0.960754 0.589044 0
0.963897 0.592981 0
0.966949 0.596887 0
0.967941 0.598032 0
0 0.312474 0
0 0.316732 0
0 0.322103 0
0 0.330602 0
0 0.340688 0
0 0.352789 0
0 0.369162 0
0 0.390204 0
0 0.413581 0
0 0.440803 0
0.0607767 0.471122 0
0.213107 0.493965 0
0.304784 0.516716 0
0.387762 0.537972 0
0.470192 0.556374 0
0.554833 0.573098 0
0.632975 0.587884 0
0.698421 0.599756 0
0.754147 0.608347 0
0.80441 0.614359 0
0.847074 0.61857 0
0.88014 0.621653 0
0.904692 0.623072 0
0.923568 0.623468 0
0.938842 0.62417 0
0.951232 0.62591 0
0.95996 0.628092 0
0.966522 0.630549 0
0.972198 0.633173 0
0.976272 0.636103 0
0.97908 0.639246 0
0.981811 0.642298 0
0.982712 0.643198 0
0 0.33138 0
0 0.336324 0
0 0.342138 0
0 0.351049 0
0 0.361898 0
0 0.374563 0
0 0.391714 0
0 0.413458 0
0 0.437964 0
0 0.466194 0
0.0216068 0.498482 0
0.204852 0.523552 0
0.303105 0.547677 0
0.38938 0.570336 0
0.474128 0.590097 0
0.560555 0.608179 0
0.640284 0.624323 0
0.706889 0.637324 0
0.763806 0.647028 0
0.815122 0.653849 0
0.858625 0.6589 0
0.892378 0.662745 0
0.917571 0.664851 0
0.936858 0.665766 0
0.952514 0.666804 0
0.964965 0.668544 0
0.973739 0.670436 0
0.980179 0.67245 0
0.985656 0.67451 0
0.989624 0.676677 0
0.992218 0.679011 0
0.994293 0.68162 0
0.994934 0.682445 0
0 0.34583 0
0 0.351217 0
0 0.357733 0
0 0.367178 0
0 0.378393 0
0 0.391623 0
0 0.409186 0
0 0.431647 0
0 0.45687 0
0 0.485786 0
0.0213779 0.518959 0
0.198703 0.546044 0
0.302174 0.571283 0
0.39086 0.594934 0
0.477409 0.615656 0
0.565209 0.634821 0
0.646036 0.651957 0
0.713664 0.665888 0
0.771359 0.676387 0
0.823499 0.683986 0
0.867628 0.689693 0
0.901976 0.694118 0
0.927596 0.696773 0
0.947402 0.698161 0
0.963272 0.699474 0
0.975952 0.701244 0
0.984695 0.702937 0
0.99115 0.704555 0
0.99617 0.706584 0
0.998581 0.709331 0
0.999939 0.711894 0
1 0.715099 0
1 0.716213 0
0 0.356588 0
0 0.362448 0
0 0.369329 0
0 0.379278 0
0 0.390845 0
0 0.404395 0
0 0.422263 0
0 0.445197 0
0 0.470832 0
0 0.500237 0
0.0206149 0.53402 0
0.194156 0.562478 0
0.301472 0.588388 0
0.391806 0.612757 0
0.479637 0.634318 0
0.568429 0.654246 0
0.650065 0.67216 0
0.718425 0.686885 0
0.776669 0.697963 0
0.829267 0.706249 0
0.87396 0.712596 0
0.908766 0.717464 0
0.934783 0.720592 0
0.954925 0.722393 0
0.971145 0.723949 0
0.983932 0.725765 0
0.992844 0.727291 0
0.998138 0.729519 0
1 0.73341 0
1 0.737438 0
1 0.740581 0
1 0.743572 0
1 0.744533 0
0 0.36495 0
0 0.371344 0
0 0.378912 0
0 0.389258 0
0 0.401099 0
0 0.414832 0
0 0.432944 0
0 0.456046 0
0 0.482094 0
0 0.511849 0
0.0201877 0.545937 0
0.191531 0.575296 0
0.301259 0.601709 0
0.39263 0.626551 0
0.4813 0.648615 0
0.570718 0.669245 0
0.652888 0.68777 0
0.721736 0.70309 0
0.780346 0.714794 0
0.833249 0.723537 0
0.878325 0.730358 0
0.913405 0.735759 0
0.939879 0.739406 0
0.960357 0.74165 0
0.976883 0.743481 0
0.989883 0.745281 0
0.997803 0.747417 0
1 0.751431 0
1 0.756374 0
1 0.760143 0
1 0.762951 0
1 0.765667 0
1 0.766552 0
0 0.372396 0
0 0.379675 0
0 0.387854 0
0 0.398535 0
0 0.410803 0
0 0.424643 0
0 0.443 0
0 0.466316 0
0 0.492439 0
0 0.522377 0
0.0202487 0.556649 0
0.192035 0.586252 0
0.302632 0.612894 0
0.394461 0.638132 0
0.483436 0.660578 0
0.573159 0.681544 0
0.655482 0.700633 0
0.724514 0.71635 0
0.783413 0.728405 0
0.8365 0.737606 0
0.881788 0.7449 0
0.917113 0.750607 0
0.943938 0.754559 0
0.964767 0.757153 0
0.981552 0.759228 0
0.994446 0.761334 0
1 0.764858 0
1 0.770382 0
1 0.775051 0
1 0.778546 0
1 0.781079 0
1 0.78352 0
1 0.784314 0
0 0.379263 0
0 0.387335 0
0 0.396033 0
0 0.407492 0
0 0.419959 0
0 0.434195 0
0 0.452537 0
0 0.476081 0
0 0.502403 0
0 0.532372 0
0.020798 0.566629 0
0.195819 0.595987 0
0.305791 0.622629 0
0.397528 0.647868 0
0.486336 0.670527 0
0.575967 0.691752 0
0.658213 0.710994 0
0.727214 0.727016 0
0.786221 0.739345 0
0.839429 0.748821 0
0.884779 0.756268 0
0.920317 0.762325 0
0.947387 0.766613 0
0.968536 0.769497 0
0.985595 0.77174 0
0.997467 0.774655 0
1 0.780011 0
0.999985 0.785397 0
1 0.789975 0
1 0.793362 0
1 0.795743 0
1 0.798016 0
1 0.798749 0
0 0.384802 0
0 0.393545 0
0 0.403235 0
0 0.415198 0
0 0.428153 0
0 0.442542 0
0 0.461143 0
0 0.484535 0
0 0.510857 0
0 0.54081 0
0.0217746 0.574792 0
0.202304 0.603464 0
0.310216 0.630106 0
0.401282 0.655283 0
0.489555 0.677806 0
0.578698 0.699123 0
0.660639 0.71841 0
0.729381 0.734524 0
0.788296 0.747005 0
0.841505 0.756588 0
0.88687 0.764294 0
0.922515 0.77055 0
0.949783 0.775006 0
0.971222 0.778042 0
0.988495 0.780392 0
0.99971 0.783917 0
1 0.790906 0
1 0.796155 0
1 0.800656 0
1 0.803922 0
1 0.806134 0
1 0.808286 0
1 0.809003 0
0 0.390555 0
0 0.400458 0
0 0.411185 0
0 0.423667 0
0 0.437049 0
0 0.451621 0
0 0.470298 0
0 0.493782 0
0 0.519905 0
