3DLUTS/Emulsions/KODAK PREFEREE_7.cube
TITLE "Generated by Resolve"
LUT_3D_SIZE 9
0.0162051 0.0191806 0.0267338
0.0285191 0.0253605 0.0286259
0.0679332 0.0322881 0.0287633
0.174655 0.0400549 0.0121462
0.344167 0 0
0.487098 0 0
0.566461 0 0
0.604212 0 0
0.620203 0 0
0.0131228 0.0308843 0.0306554
0.02916 0.0337835 0.0324712
0.0766918 0.0455024 0.0323339
0.200931 0.056733 0.0121767
0.389151 0 0
0.538186 0 0
0.614847 0 0
0.649927 0 0
0.665324 0 0
0 0.0621195 0.041001
0.000823987 0.0699626 0.0431678
0.0867781 0.0859693 0.0413977
0.236942 0.107027 0.0108797
0.450568 0.101457 0
0.61532 0.0362249 0
0.691417 0 0
0.726879 0 0
0.744335 0.0252842 0
0 0.134676 0.0521096
0 0.146899 0.0522316
0.0628061 0.186465 0.0392462
0.279622 0.226047 0
0.527245 0.248356 0
0.705882 0.244968 0
0.78674 0.238743 0
0.82092 0.250629 0
0.837079 0.270512 0
0 0.242481 0.0349126
0 0.264042 0.018677
0.000106813 0.324804 0
0.304021 0.402106 0
0.599084 0.453651 0
0.797955 0.470649 0
0.88397 0.470481 0
0.917784 0.482948 0
0.931182 0.499321 0
0 0.33138 0
0 0.361898 0
0 0.437964 0
0.303105 0.547677 0
0.640284 0.624323 0
0.858625 0.6589 0
0.952514 0.666804 0
0.985656 0.67451 0
0.994934 0.682445 0
0 0.372396 0
0 0.410803 0
0 0.492439 0
0.302632 0.612894 0
0.655482 0.700633 0
0.881788 0.7449 0
0.981552 0.759228 0
1 0.775051 0
1 0.784314 0
0 0.398444 1.5259e-05
0 0.448417 0
0 0.531258 0
0.326635 0.644663 0
0.666514 0.730816 0
0.889967 0.776761 0
0.992111 0.794308 0
1 0.817197 0
1 0.824979 0
0 0.434073 0.0272068
0 0.497276 0
0 0.578561 0
0.374319 0.674052 0
0.681346 0.750546 0
0.893812 0.794171 0
0.995483 0.812329 0
1 0.838529 0
1 0.845167 0
0.0142367 0.0223697 0.0352026
0.0284886 0.0264591 0.0380102
0.0707408 0.0336614 0.039292
0.182483 0.0408789 0.0332952
0.356146 0 1.5259e-05
0.500542 0 0
0.579324 0 0
0.617151 0 0
0.632959 0 0
0.00834669 0.0328832 0.0418402
0.0286259 0.0359808 0.0444648
0.0792248 0.0487678 0.0460212
0.208927 0.0586252 0.0365454
0.402548 0.000823987 1.5259e-05
0.552682 0 0
0.62916 0 0
0.664332 0 0
0.679591 0 0
0 0.0660258 0.0555734
0 0.074342 0.0574655
0.0887312 0.091783 0.0576944
0.246204 0.113603 0.0437018
0.465187 0.11043 0
0.631556 0.0561685 0
0.708782 0 0
0.743984 0.005066 0
0.761349 0.0443732 0
0 0.143267 0.0687419
0 0.15584 0.0699321
0.0526589 0.199008 0.0632639
0.289082 0.241886 0.00972
0.54345 0.264714 0
0.724407 0.262028 0
0.805188 0.255879 0
0.839246 0.268956 0
0.855451 0.290044 0
0 0.256214 0.0675517
0 0.27895 0.0631876
6.10361e-05 0.343709 0.00999466
0.310002 0.426154 0
0.615122 0.479377 0
0.8168 0.496132 0
0.903227 0.496483 0
0.936645 0.509544 0
0.949874 0.526558 0
0 0.347463 0.0488289
0 0.379858 0.0107118
0 0.45861 0
0.303044 0.572793 0
0.653956 0.651682 0
0.875792 0.686549 0
0.970397 0.695109 0
0.999725 0.70396 0
1 0.719158 0
0 0.387701 0.0495766
0 0.427619 0.000213626
0 0.511284 0
0.298787 0.635935 0
0.665553 0.724849 0
0.895766 0.769146 0
0.995514 0.784344 0
1 0.807752 0
1 0.816068 0
0 0.414115 0.0990768
0 0.465568 0.0787518
0 0.550729 0.00271611
0.313405 0.669093 1.5259e-05
0.670115 0.755871 0
0.899519 0.801846 0
0.999756 0.820737 0
1 0.848035 0
1 0.855177 0
0 0.451194 0.173556
0 0.516304 0.168307
0 0.600549 0.149874
0.34992 0.706508 0.0693523
0.676951 0.78381 0
0.896147 0.827161 0
0.999023 0.845136 0
1 0.872755 0
1 0.878096 0
0.00479133 0.0227817 0.079469
0.0259098 0.0264897 0.0828107
0.0702373 0.033341 0.0881208
0.186069 0.0394446 0.0918593
0.364416 0 0.0845808
0.512428 0 0.0675669
0.59263 0 0.0413825
0.630762 0 0.0359808
0.646647 0 0.0480659
0 0.0339971 0.0895857
0.01355 0.0388495 0.0929274
0.0775616 0.051133 0.0988632
0.212543 0.0603647 0.102159
0.411658 0.00857557 0.0953231
0.565942 0 0.0753796
0.643946 0 0.0567025
0.679011 0 0.0560769
0.694301 0 0.0669718
0 0.0714122 0.109804
0 0.0785534 0.113756
0.0803845 0.100206 0.120653
0.248676 0.121828 0.122713
0.47396 0.121584 0.112703
0.643931 0.0854047 0.0953536
0.723491 0.0381933 0.0840772
0.758938 0.0474861 0.0845808
0.775296 0.0862745 0.0939498
0 0.153628 0.135439
0 0.166903 0.139361
0.000686656 0.212802 0.145388
0.286168 0.258701 0.141619
0.550454 0.285237 0.121309
0.736461 0.285939 0.0910353
0.818112 0.280949 0.066453
0.852338 0.294942 0.0586709
0.868147 0.317342 0.0719158
0 0.273365 0.155795
0 0.296178 0.158755
0 0.361868 0.157931
0.293492 0.454719 0.138003
0.617182 0.51191 0.0655985
0.825422 0.52961 0.00047303
0.913985 0.530022 0
0.947204 0.542657 0
0.959945 0.56144 0
0 0.36733 0.168231
0 0.399863 0.168643
0 0.481041 0.15964
0.270237 0.607507 0.111376
0.64892 0.689036 0
0.879347 0.724041 3.0518e-05
0.976532 0.732158 0
1 0.745205 0
1 0.760479 0
0 0.40766 0.190112
0 0.447913 0.191211
0 0.533944 0.18262
0.250538 0.67129 0.138476
0.654658 0.76376 0.0142519
0.894194 0.807874 0
0.997024 0.822797 3.0518e-05
1 0.846937 3.0518e-05
1 0.855283 0
0 0.434638 0.241932
0 0.485939 0.247181
0 0.571496 0.245548
0.25481 0.704219 0.223362
0.652979 0.795377 0.168551
0.89221 0.843992 0.0865187
0.998077 0.861616 0.0567483
1 0.88716 0.0557565
1 0.893507 0.0704662
0 0.470298 0.314839
0 0.535332 0.326696
0 0.619684 0.332113
0.294636 0.736294 0.325475
0.656504 0.817014 0.305562
0.883909 0.863096 0.28159
0.99115 0.881193 0.266972
1 0.903975 0.267567
1 0.910765 0.278767
0 0 0.173785
0 0 0.18027
0.0686503 0.000137331 0.195178
0.191165 0.00108339 0.210178
0.371542 0 0.217395
0.521737 0 0.217609
0.602213 0 0.215976
0.64033 0 0.220905
0.655741 0 0.227939
0 0.0081178 0.193042
0 0.0241855 0.199954
0.0744945 0.0394598 0.216052
0.217411 0.0492714 0.232197
0.420279 0 0.240497
0.576394 0 0.239246
0.654795 0 0.238148
0.689525 0 0.243442
0.704952 0 0.252323
0 0.0726482 0.227253
0 0.0796368 0.236179
0.0523232 0.109346 0.254307
0.249561 0.129442 0.272007
0.482567 0.128099 0.279896
0.655421 0.0930343 0.278538
0.735348 0.0467689 0.277745
0.770428 0.0564431 0.283177
0.786252 0.101534 0.292912
0 0.16759 0.271199
0 0.180255 0.281239
0.000106813 0.22649 0.301396
0.273411 0.282536 0.318883
0.553109 0.308522 0.324605
0.743526 0.309346 0.321111
0.826093 0.303548 0.318212
0.860151 0.318395 0.323064
0.875181 0.341726 0.331914
0 0.295323 0.31191
0 0.318379 0.322911
0 0.384649 0.341192
0.250965 0.48983 0.355947
0.608026 0.546838 0.355825
0.823697 0.565408 0.346731
0.914763 0.566339 0.342351
0.948013 0.579187 0.345342
0.959762 0.598077 0.352773
0 0.393011 0.339315
0 0.425711 0.350164
0 0.507134 0.366812
0.155047 0.647913 0.376242
0.628275 0.731319 0.368826
0.868513 0.76849 0.354559
0.969451 0.777371 0.347555
0.999954 0.786206 0.349065
1 0.800198 0.357534
0 0.433097 0.366979
0 0.473426 0.37966
0 0.55967 0.396277
0.094789 0.710231 0.405463
0.627085 0.805356 0.397696
0.878553 0.852186 0.382071
0.985977 0.867384 0.373114
1 0.884718 0.375143
1 0.892378 0.382391
0 0.458259 0.416281
0 0.509453 0.434104
0 0.594995 0.451728
0.0966964 0.739971 0.463951
0.622812 0.832914 0.463127
0.873213 0.881682 0.451698
0.983993 0.899214 0.444251
1 0.916503 0.444526
1 0.921279 0.45095
0 0.490547 0.475181
0 0.555688 0.498009
0 0.640208 0.516167
0.191348 0.768826 0.530083
0.627939 0.849073 0.53463
0.865431 0.894957 0.530343
0.976394 0.912856 0.525231
1 0.927794 0.525979
1 0.934203 0.531853
0 0 0.286687
0 0 0.295964
0.012604 0 0.318151
0.185168 0 0.343938
0.374365 0 0.361669
0.527031 0 0.369665
0.608133 0 0.372305
0.646494 0 0.37911
0.661967 0 0.387015
0 0 0.314717
0 0 0.32488
0.0524605 3.0518e-05 0.349752
0.21854 4.57771e-05 0.378164
0.424567 0 0.39733
0.583154 0 0.403937
0.661921 0 0.406775
0.697169 0 0.414221
0.713054 0 0.424262
0 0.0591897 0.364202
0 0.0676738 0.376608
0.000579843 0.106447 0.404669
0.249897 0.127947 0.436545
0.48986 0.123598 0.456733
0.664958 0.0766003 0.462898
0.744656 0.0381323 0.464927
0.779904 0.0524453 0.47248
0.796078 0.0970626 0.48394
0 0.175219 0.425483
0 0.188678 0.439979
0 0.235554 0.471397
0.25539 0.301717 0.505501
0.552636 0.327245 0.52604
0.746807 0.327489 0.531258
0.831296 0.32166 0.531853
0.864942 0.336919 0.537652
0.87985 0.36202 0.547982
0 0.312062 0.481209
0 0.335317 0.497841
0 0.402136 0.529397
0.172641 0.520241 0.563821
0.593301 0.576379 0.583062
0.816602 0.594354 0.586267
0.910521 0.594888 0.586007
0.944198 0.607767 0.590082
0.955718 0.626719 0.597284
0 0.413886 0.517418
0 0.446632 0.535164
0 0.527794 0.565667
0.0340124 0.676631 0.597803
0.600855 0.765316 0.61503
0.852186 0.802441 0.617411
0.95671 0.810956 0.616129
0.991577 0.817792 0.618112
0.999283 0.826596 0.623331
0 0.453544 0.543694
0 0.494133 0.563348
0 0.580697 0.593927
0 0.735592 0.62472
0.59469 0.839002 0.642084
0.858595 0.88603 0.643778
0.969879 0.901411 0.641886
1 0.910246 0.643732
1 0.917815 0.647822
0 0.476295 0.582238
0 0.527581 0.60737
0 0.613382 0.636164
0 0.763607 0.666804
0.591577 0.863447 0.686091
0.853407 0.912001 0.689235
0.96791 0.9299 0.68806
1 0.939513 0.688701
1 0.943908 0.691585
0 0.506447 0.625559
0 0.571801 0.654932
0 0.656413 0.681453
0.0760052 0.791638 0.709514
0.601144 0.875303 0.728878
0.847852 0.921035 0.734554
0.962234 0.939284 0.734737
0.999954 0.947173 0.734157
1 0.951949 0.736431
0 0 0.383932
0 0 0.394781
0 0 0.422263
0.172076 0 0.456825
0.372915 0 0.483787
0.529046 0 0.497124
0.61207 0 0.503105
0.651026 0 0.51136
0.666896 0 0.51928
0 0 0.420294
0 0 0.432425
0 0 0.463615
0.208255 0 0.5019
0.424536 0 0.530221
0.587366 0 0.543175
0.667811 0 0.548455
0.703761 0 0.556725
0.720348 0 0.567452
0 0.0183566 0.479622
0 0.0271 0.49427
0 0.0881208 0.528923
0.247974 0.116915 0.571221
0.493858 0.106188 0.601495
0.671153 0.0440223 0.614176
0.751354 0 0.618006
0.788052 0.0312047 0.626642
0.804898 0.0658885 0.637964
0 0.174685 0.551888
0 0.188342 0.569421
0 0.235264 0.607569
0.235752 0.309804 0.65333
0.548486 0.334722 0.685695
0.747555 0.334157 0.697688
0.834485 0.328252 0.700526
0.868818 0.343328 0.706813
0.883619 0.369833 0.716579
0 0.319677 0.617517
0 0.342794 0.636851
0 0.409293 0.676493
0.0811322 0.533272 0.724315
0.577569 0.591211 0.757549
0.808774 0.609155 0.768933
0.906386 0.609506 0.771298
0.941207 0.621622 0.775311
0.952804 0.641184 0.781476
0 0.425086 0.657908
0 0.45771 0.67924
0 0.538201 0.718181
0 0.686946 0.764858
0.57435 0.784726 0.798199
0.837278 0.822095 0.810208
0.946212 0.830427 0.811963
0.983032 0.837598 0.814298
0.992126 0.846036 0.817426
0 0.465965 0.679606
0 0.506401 0.703807
0 0.59202 0.741878
0 0.746242 0.787198
0.564355 0.859876 0.819837
0.841352 0.907439 0.832639
0.957366 0.923049 0.83505
0.996399 0.928542 0.836301
1 0.934401 0.838361
0 0.487114 0.705013
0 0.537881 0.733593
0 0.62295 0.76936
0 0.772305 0.81239
0.562844 0.881758 0.844999
0.836912 0.931319 0.858045
0.956222 0.949935 0.861326
0.997742 0.955962 0.862119
1 0.960647 0.863447
0 0.515801 0.733776
0 0.580606 0.76701
0 0.664714 0.799023
0 0.802304 0.836835
0.576913 0.891066 0.866133
0.833234 0.937209 0.879591
0.95198 0.956176 0.883391
0.995758 0.962631 0.884016
1 0.966506 0.884932
0 0 0.445624
0 0 0.457496
0 0 0.48777
0.164385 0 0.528161
0.375219 0 0.560937
0.535439 0 0.57847
0.619699 0 0.586938
0.658976 0 0.595789
0.674952 0 0.603372
0 0 0.489174
0 0 0.502983
0 0 0.53698
0.204822 0 0.581399
0.429969 0 0.616281
0.596948 0 0.633127
0.678264 0 0.64004
0.715312 0 0.649226
0.732433 0 0.659739
0 0 0.550088
0 0.00859083 0.56614
0 0.0786603 0.604074
0.246128 0.116945 0.652171
0.498329 0.10486 0.689372
0.677897 0.0426795 0.706157
0.760266 0 0.712261
0.797147 0.02916 0.721096
0.81471 0.0691844 0.732509
0 0.174731 0.624384
0 0.188693 0.643275
0 0.236378 0.684565
0.221714 0.315755 0.73695
0.545129 0.340398 0.776791
0.74786 0.33994 0.79382
0.837476 0.333364 0.798657
0.87248 0.347616 0.804929
0.887297 0.375967 0.814252
0 0.322164 0.692439
0 0.345129 0.713237
0 0.411078 0.7561
0.0560311 0.53637 0.81117
0.566323 0.596201 0.852796
0.803204 0.614572 0.870359
0.903532 0.613962 0.874723
0.939666 0.62565 0.878843
0.951476 0.645472 0.884123
0 0.429419 0.734051
0 0.461952 0.756924
0 0.541146 0.7991
0 0.688472 0.853697
0.55642 0.791165 0.89604
0.827131 0.829023 0.914549
0.939849 0.837293 0.91928
0.978531 0.844114 0.921523
0.987488 0.852186 0.922759
0 0.471473 0.752102
0 0.511879 0.777478
0 0.596323 0.818677
0 0.748669 0.87129
0.544259 0.867903 0.91281
0.829831 0.916167 0.932082
0.949966 0.931991 0.937957
0.990936 0.937789 0.939559
0.999969 0.941024 0.940352
0 0.491798 0.767163
0 0.542245 0.797086
0 0.626383 0.835584
0.000106813 0.773922 0.884504
0.54284 0.888716 0.924285
0.825956 0.939284 0.943542
0.94934 0.958358 0.94992
0.992645 0.964767 0.951354
1 0.967056 0.951659
0 0.520302 0.787106
0 0.58436 0.821225
0 0.66717 0.855406
0 0.803479 0.897856
0.560403 0.896895 0.932769
0.82327 0.943969 0.950912
0.945449 0.96347 0.957458
0.991531 0.970199 0.959426
1 0.972686 0.959731
0 0 0.487724
0 0 0.501045
0 0 0.533654
0.179248 0 0.577188
0.398474 0 0.61323
0.56173 0 0.632197
0.64564 0 0.641184
0.684077 0 0.650034
0.700572 0 0.658442
0 0 0.535805
0 0 0.551751
0 3.0518e-05 0.587732
0.225086 9.15541e-05 0.635203
0.455161 0 0.673045
0.624613 0 0.691539
0.706538 0 0.699123
0.744427 0 0.708507
0.762661 0 0.718929
0 0.0343023 0.590509
0 0.0547036 0.608331
3.0518e-05 0.111055 0.647288
0.244266 0.157092 0.697993
0.507454 0.156588 0.738293
0.692973 0.124773 0.757336
0.779461 0.0851759 0.764431
0.815732 0.111818 0.773022
0.831357 0.157717 0.783368
0 0.189288 0.658015
0 0.204273 0.678096
0 0.253422 0.72018
0.209293 0.338308 0.774716
0.545052 0.36527 0.817441
0.751659 0.365866 0.836728
0.843946 0.359762 0.842664
0.880171 0.37351 0.849256
0.894713 0.399863 0.857618
0 0.327901 0.721279
0 0.35201 0.74316
0 0.417807 0.786557
0.0190585 0.543587 0.843412
0.559609 0.604547 0.888121
0.799908 0.623316 0.908278
0.902678 0.622583 0.914168
0.940398 0.63415 0.918639
0.952377 0.652399 0.922942
0 0.43212 0.761578
0 0.465736 0.785473
0 0.544152 0.828077
0 0.688991 0.884398
0.546853 0.792966 0.929549
0.820691 0.830747 0.951232
0.935882 0.838895 0.957519
0.97673 0.845777 0.960571
0.987076 0.855116 0.962264
0 0.474205 0.777554
0 0.515679 0.803937
0 0.599054 0.845502
0 0.748775 0.899855
0.533593 0.869123 0.94464
0.822522 0.917708 0.966613
0.9458 0.933944 0.974365
0.988281 0.939712 0.976516
0.998566 0.942977 0.97705
0 0.49453 0.788891
0 0.545449 0.819547
0 0.628534 0.858152
4.57771e-05 0.77409 0.908598
0.532418 0.890227 0.95108
0.818631 0.940978 0.972839
0.944945 0.960662 0.980819
0.99028 0.967086 0.982895
1 0.968811 0.982895
0 0.523888 0.80647
0 0.587289 0.840406
0 0.668482 0.874815
0 0.802304 0.918273
0.548837 0.897551 0.955108
0.815885 0.945434 0.975448
0.94107 0.965347 0.983474
0.989181 0.972366 0.985977
1 0.974456 0.98613
0 0 0.535683
0 0 0.55256
0 0 0.588617
0.226825 0 0.634958
0.450538 0 0.673014
0.617975 0 0.693156
0.701167 0 0.701488
0.740185 0 0.711727
0.75996 0 0.722713
0 1.5259e-05 0.579721
0 0 0.599039
0 0.0872969 0.636835
0.246479 0.124727 0.686122
0.494881 0.116991 0.726131
0.676219 0.0543069 0.746044
0.760571 0 0.753658
0.799954 0.0106355 0.763516
0.817166 0.0965286 0.774304
0 0.112612 0.623789
0 0.128222 0.644358
0 0.173892 0.684672
0.238468 0.23328 0.736248
0.52221 0.247333 0.778134
0.715038 0.236011 0.798062
0.80473 0.224247 0.805371
0.841978 0.238117 0.813672
0.857755 0.269337 0.823407
0 0.220218 0.679759
0 0.24004 0.702235
0 0.292226 0.744289
0.187243 0.385382 0.798642
0.548012 0.418082 0.842161
0.761059 0.423651 0.862684
0.856733 0.418448 0.869062
0.894255 0.431998 0.875349
0.9084 0.457435 0.882734
0 0.342107 0.7337
0 0.369467 0.757488
0 0.436988 0.800626
0.0118105 0.562951 0.856855
0.555276 0.62623 0.901381
0.799298 0.647532 0.922805
0.905165 0.647334 0.929229
0.944076 0.657053 0.933272
0.956008 0.674647 0.937194
0 0.436759 0.769955
0 0.473625 0.795605
0 0.552026 0.837934
0 0.694224 0.893294
0.542443 0.797375 0.938552
0.815976 0.835004 0.96054
0.933883 0.844251 0.968032
0.975845 0.850172 0.970886
0.98706 0.859251 0.972778
0 0.477348 0.785153
0 0.521584 0.81323
0 0.604089 0.85391
0 0.75111 0.907439
0.528862 0.869307 0.952392
0.817151 0.91754 0.975052
0.942626 0.934142 0.983215
0.987106 0.939742 0.98584
0.997086 0.942412 0.985504
0 0.497948 0.795682
0 0.551003 0.827222
0 0.632975 0.865278
4.57771e-05 0.775662 0.915007
0.526741 0.889906 0.957366
0.813123 0.940688 0.979782
0.941802 0.9608 0.988724
0.988632 0.967453 0.991058
0.9991 0.968063 0.990219
0 0.529213 0.813703
0 0.592325 0.847288
0 0.672053 0.880827
0 0.802762 0.923659
0.54258 0.897093 0.960494
0.810193 0.944976 0.981414
0.937224 0.965331 0.989899
0.986984 0.972183 0.992447
1 0.974273 0.993072
