3DLUTS/Emulsions/KODAK PREFEREE_7.cube
TITLE "Generated by Resolve"
LUT_3D_SIZE 5
0.0162051 0.0191806 0.0267338
0.0679332 0.0322881 0.0287633
0.344167 0 0
0.566461 0 0
0.620203 0 0
0 0.0621195 0.041001
0.0867781 0.0859693 0.0413977
0.450568 0.101457 0
0.691417 0 0
0.744335 0.0252842 0
0 0.242481 0.0349126
0.000106813 0.324804 0
0.599084 0.453651 0
0.88397 0.470481 0
0.931182 0.499321 0
0 0.372396 0
0 0.492439 0
0.655482 0.700633 0
0.981552 0.759228 0
1 0.784314 0
0 0.434073 0.0272068
0 0.578561 0
0.681346 0.750546 0
0.995483 0.812329 0
1 0.845167 0
0.00479133 0.0227817 0.079469
0.0702373 0.033341 0.0881208
0.364416 0 0.0845808
0.59263 0 0.0413825
0.646647 0 0.0480659
0 0.0714122 0.109804
0.0803845 0.100206 0.120653
0.47396 0.121584 0.112703
0.723491 0.0381933 0.0840772
0.775296 0.0862745 0.0939498
0 0.273365 0.155795
0 0.361868 0.157931
0.617182 0.51191 0.0655985
0.913985 0.530022 0
0.959945 0.56144 0
0 0.40766 0.190112
0 0.533944 0.18262
0.654658 0.76376 0.0142519
0.997024 0.822797 3.0518e-05
1 0.855283 0
0 0.470298 0.314839
0 0.619684 0.332113
0.656504 0.817014 0.305562
0.99115 0.881193 0.266972
1 0.910765 0.278767
0 0 0.286687
0.012604 0 0.318151
0.374365 0 0.361669
0.608133 0 0.372305
0.661967 0 0.387015
0 0.0591897 0.364202
0.000579843 0.106447 0.404669
0.48986 0.123598 0.456733
0.744656 0.0381323 0.464927
0.796078 0.0970626 0.48394
0 0.312062 0.481209
0 0.402136 0.529397
0.593301 0.576379 0.583062
0.910521 0.594888 0.586007
0.955718 0.626719 0.597284
0 0.453544 0.543694
0 0.580697 0.593927
0.59469 0.839002 0.642084
0.969879 0.901411 0.641886
1 0.917815 0.647822
0 0.506447 0.625559
0 0.656413 0.681453
0.601144 0.875303 0.728878
0.962234 0.939284 0.734737
1 0.951949 0.736431
0 0 0.445624
0 0 0.48777
0.375219 0 0.560937
0.619699 0 0.586938
0.674952 0 0.603372
0 0 0.550088
0 0.0786603 0.604074
0.498329 0.10486 0.689372
0.760266 0 0.712261
0.81471 0.0691844 0.732509
0 0.322164 0.692439
0 0.411078 0.7561
0.566323 0.596201 0.852796
0.903532 0.613962 0.874723
0.951476 0.645472 0.884123
0 0.471473 0.752102
0 0.596323 0.818677
0.544259 0.867903 0.91281
0.949966 0.931991 0.937957
0.999969 0.941024 0.940352
0 0.520302 0.787106
0 0.66717 0.855406
0.560403 0.896895 0.932769
0.945449 0.96347 0.957458
1 0.972686 0.959731
0 0 0.535683
0 0 0.588617
0.450538 0 0.673014
0.701167 0 0.701488
0.75996 0 0.722713
0 0.112612 0.623789
0 0.173892 0.684672
0.52221 0.247333 0.778134
0.80473 0.224247 0.805371
0.857755 0.269337 0.823407
0 0.342107 0.7337
0 0.436988 0.800626
0.555276 0.62623 0.901381
0.905165 0.647334 0.929229
0.956008 0.674647 0.937194
0 0.477348 0.785153
0 0.604089 0.85391
0.528862 0.869307 0.952392
0.942626 0.934142 0.983215
0.997086 0.942412 0.985504
0 0.529213 0.813703
0 0.672053 0.880827
0.54258 0.897093 0.960494
0.937224 0.965331 0.989899
1 0.974273 0.993072
