3DLUTS/From_Arri_3d-lut_generator/AlexaV3_K1S1_Video2LogC_none_EE_iridas_3d/AlexaV3_K1S1_Video2LogC_EE_iridas3d.cube
# Alexa conversion LUT, video2logc. Full in/full out.
# created by alexalutconv (2.09)
LUT_3D_SIZE 5
DOMAIN_MIN 0.000000 0.000000 0.000000
DOMAIN_MAX 0.903226 0.903226 0.903226
0.000000 0.000000 0.000000
0.296232 0.000000 0.000000
0.417797 0.000000 0.000000
0.537268 0.000000 0.000000
0.682187 0.000000 0.000000
0.000000 0.296232 0.000000
0.296232 0.296232 0.000000
0.417797 0.296232 0.000000
0.537268 0.296232 0.000000
0.682187 0.296232 0.000000
0.000000 0.417797 0.000000
0.296232 0.417797 0.000000
0.417797 0.417797 0.000000
0.537268 0.417797 0.000000
0.682187 0.417797 0.000000
0.000000 0.537268 0.000000
0.296232 0.537268 0.000000
0.417797 0.537268 0.000000
0.537268 0.537268 0.000000
0.682187 0.537268 0.000000
0.000000 0.682187 0.000000
0.296232 0.682187 0.000000
0.417797 0.682187 0.000000
0.537268 0.682187 0.000000
0.682187 0.682187 0.000000
0.000000 0.000000 0.296232
0.296232 0.000000 0.296232
0.417797 0.000000 0.296232
0.537268 0.000000 0.296232
0.682187 0.000000 0.296232
0.000000 0.296232 0.296232
0.296232 0.296232 0.296232
0.417797 0.296232 0.296232
0.537268 0.296232 0.296232
0.682187 0.296232 0.296232
0.000000 0.417797 0.296232
0.296232 0.417797 0.296232
0.417797 0.417797 0.296232
0.537268 0.417797 0.296232
0.682187 0.417797 0.296232
0.000000 0.537268 0.296232
0.296232 0.537268 0.296232
0.417797 0.537268 0.296232
0.537268 0.537268 0.296232
0.682187 0.537268 0.296232
0.000000 0.682187 0.296232
0.296232 0.682187 0.296232
0.417797 0.682187 0.296232
0.537268 0.682187 0.296232
0.682187 0.682187 0.296232
0.000000 0.000000 0.417797
0.296232 0.000000 0.417797
0.417797 0.000000 0.417797
0.537268 0.000000 0.417797
0.682187 0.000000 0.417797
0.000000 0.296232 0.417797
0.296232 0.296232 0.417797
0.417797 0.296232 0.417797
0.537268 0.296232 0.417797
0.682187 0.296232 0.417797
0.000000 0.417797 0.417797
0.296232 0.417797 0.417797
0.417797 0.417797 0.417797
0.537268 0.417797 0.417797
0.682187 0.417797 0.417797
0.000000 0.537268 0.417797
0.296232 0.537268 0.417797
0.417797 0.537268 0.417797
0.537268 0.537268 0.417797
0.682187 0.537268 0.417797
0.000000 0.682187 0.417797
0.296232 0.682187 0.417797
0.417797 0.682187 0.417797
0.537268 0.682187 0.417797
0.682187 0.682187 0.417797
0.000000 0.000000 0.537268
0.296232 0.000000 0.537268
0.417797 0.000000 0.537268
0.537268 0.000000 0.537268
0.682187 0.000000 0.537268
0.000000 0.296232 0.537268
0.296232 0.296232 0.537268
0.417797 0.296232 0.537268
0.537268 0.296232 0.537268
0.682187 0.296232 0.537268
0.000000 0.417797 0.537268
0.296232 0.417797 0.537268
0.417797 0.417797 0.537268
0.537268 0.417797 0.537268
0.682187 0.417797 0.537268
0.000000 0.537268 0.537268
0.296232 0.537268 0.537268
0.417797 0.537268 0.537268
0.537268 0.537268 0.537268
0.682187 0.537268 0.537268
0.000000 0.682187 0.537268
0.296232 0.682187 0.537268
0.417797 0.682187 0.537268
0.537268 0.682187 0.537268
0.682187 0.682187 0.537268
0.000000 0.000000 0.682187
0.296232 0.000000 0.682187
0.417797 0.000000 0.682187
0.537268 0.000000 0.682187
0.682187 0.000000 0.682187
0.000000 0.296232 0.682187
0.296232 0.296232 0.682187
0.417797 0.296232 0.682187
0.537268 0.296232 0.682187
0.682187 0.296232 0.682187
0.000000 0.417797 0.682187
0.296232 0.417797 0.682187
0.417797 0.417797 0.682187
0.537268 0.417797 0.682187
0.682187 0.417797 0.682187
0.000000 0.537268 0.682187
0.296232 0.537268 0.682187
0.417797 0.537268 0.682187
0.537268 0.537268 0.682187
0.682187 0.537268 0.682187
0.000000 0.682187 0.682187
0.296232 0.682187 0.682187
0.417797 0.682187 0.682187
0.537268 0.682187 0.682187
0.682187 0.682187 0.682187
