3DLUTS/From_Arri_3d-lut_generator/AlexaV3_K1S1_Video2LogC_none_EE_iridas_3d/AlexaV3_K1S1_Video2LogC_EE_iridas3d.cube
# Alexa conversion LUT, video2logc. Full in/full out.
# created by alexalutconv (2.09)
LUT_3D_SIZE 8
DOMAIN_MIN 0.000000 0.000000 0.000000
DOMAIN_MAX 0.903226 0.903226 0.903226
0.000000 0.000000 0.000000
0.217226 0.000000 0.000000
0.315592 0.000000 0.000000
0.384318 0.000000 0.000000
0.451418 0.000000 0.000000
0.519788 0.000000 0.000000
0.591162 0.000000 0.000000
0.682187 0.000000 0.000000
0.000000 0.217226 0.000000
0.217226 0.217226 0.000000
0.315592 0.217226 0.000000
0.384318 0.217226 0.000000
0.451418 0.217226 0.000000
0.519788 0.217226 0.000000
0.591162 0.217226 0.000000
0.682187 0.217226 0.000000
0.000000 0.315592 0.000000
0.217226 0.315592 0.000000
0.315592 0.315592 0.000000
0.384318 0.315592 0.000000
0.451418 0.315592 0.000000
0.519788 0.315592 0.000000
0.591162 0.315592 0.000000
0.682187 0.315592 0.000000
0.000000 0.384318 0.000000
0.217226 0.384318 0.000000
0.315592 0.384318 0.000000
0.384318 0.384318 0.000000
0.451418 0.384318 0.000000
0.519788 0.384318 0.000000
0.591162 0.384318 0.000000
0.682187 0.384318 0.000000
0.000000 0.451418 0.000000
0.217226 0.451418 0.000000
0.315592 0.451418 0.000000
0.384318 0.451418 0.000000
0.451418 0.451418 0.000000
0.519788 0.451418 0.000000
0.591162 0.451418 0.000000
0.682187 0.451418 0.000000
0.000000 0.519788 0.000000
0.217226 0.519788 0.000000
0.315592 0.519788 0.000000
0.384318 0.519788 0.000000
0.451418 0.519788 0.000000
0.519788 0.519788 0.000000
0.591162 0.519788 0.000000
0.682187 0.519788 0.000000
0.000000 0.591162 0.000000
0.217226 0.591162 0.000000
0.315592 0.591162 0.000000
0.384318 0.591162 0.000000
0.451418 0.591162 0.000000
0.519788 0.591162 0.000000
0.591162 0.591162 0.000000
0.682187 0.591162 0.000000
0.000000 0.682187 0.000000
0.217226 0.682187 0.000000
0.315592 0.682187 0.000000
0.384318 0.682187 0.000000
0.451418 0.682187 0.000000
0.519788 0.682187 0.000000
0.591162 0.682187 0.000000
0.682187 0.682187 0.000000
0.000000 0.000000 0.217226
0.217226 0.000000 0.217226
0.315592 0.000000 0.217226
0.384318 0.000000 0.217226
0.451418 0.000000 0.217226
0.519788 0.000000 0.217226
0.591162 0.000000 0.217226
0.682187 0.000000 0.217226
0.000000 0.217226 0.217226
0.217226 0.217226 0.217226
0.315592 0.217226 0.217226
0.384318 0.217226 0.217226
0.451418 0.217226 0.217226
0.519788 0.217226 0.217226
0.591162 0.217226 0.217226
0.682187 0.217226 0.217226
0.000000 0.315592 0.217226
0.217226 0.315592 0.217226
0.315592 0.315592 0.217226
0.384318 0.315592 0.217226
0.451418 0.315592 0.217226
0.519788 0.315592 0.217226
0.591162 0.315592 0.217226
0.682187 0.315592 0.217226
0.000000 0.384318 0.217226
0.217226 0.384318 0.217226
0.315592 0.384318 0.217226
0.384318 0.384318 0.217226
0.451418 0.384318 0.217226
0.519788 0.384318 0.217226
0.591162 0.384318 0.217226
0.682187 0.384318 0.217226
0.000000 0.451418 0.217226
0.217226 0.451418 0.217226
0.315592 0.451418 0.217226
0.384318 0.451418 0.217226
0.451418 0.451418 0.217226
0.519788 0.451418 0.217226
0.591162 0.451418 0.217226
0.682187 0.451418 0.217226
0.000000 0.519788 0.217226
0.217226 0.519788 0.217226
0.315592 0.519788 0.217226
0.384318 0.519788 0.217226
0.451418 0.519788 0.217226
0.519788 0.519788 0.217226
0.591162 0.519788 0.217226
0.682187 0.519788 0.217226
0.000000 0.591162 0.217226
0.217226 0.591162 0.217226
0.315592 0.591162 0.217226
0.384318 0.591162 0.217226
0.451418 0.591162 0.217226
0.519788 0.591162 0.217226
0.591162 0.591162 0.217226
0.682187 0.591162 0.217226
0.000000 0.682187 0.217226
0.217226 0.682187 0.217226
0.315592 0.682187 0.217226
0.384318 0.682187 0.217226
0.451418 0.682187 0.217226
0.519788 0.682187 0.217226
0.591162 0.682187 0.217226
0.682187 0.682187 0.217226
0.000000 0.000000 0.315592
0.217226 0.000000 0.315592
0.315592 0.000000 0.315592
0.384318 0.000000 0.315592
0.451418 0.000000 0.315592
0.519788 0.000000 0.315592
0.591162 0.000000 0.315592
0.682187 0.000000 0.315592
0.000000 0.217226 0.315592
0.217226 0.217226 0.315592
0.315592 0.217226 0.315592
0.384318 0.217226 0.315592
0.451418 0.217226 0.315592
0.519788 0.217226 0.315592
0.591162 0.217226 0.315592
0.682187 0.217226 0.315592
0.000000 0.315592 0.315592
0.217226 0.315592 0.315592
0.315592 0.315592 0.315592
0.384318 0.315592 0.315592
0.451418 0.315592 0.315592
0.519788 0.315592 0.315592
0.591162 0.315592 0.315592
0.682187 0.315592 0.315592
0.000000 0.384318 0.315592
0.217226 0.384318 0.315592
0.315592 0.384318 0.315592
0.384318 0.384318 0.315592
0.451418 0.384318 0.315592
0.519788 0.384318 0.315592
0.591162 0.384318 0.315592
0.682187 0.384318 0.315592
0.000000 0.451418 0.315592
0.217226 0.451418 0.315592
0.315592 0.451418 0.315592
0.384318 0.451418 0.315592
0.451418 0.451418 0.315592
0.519788 0.451418 0.315592
0.591162 0.451418 0.315592
0.682187 0.451418 0.315592
0.000000 0.519788 0.315592
0.217226 0.519788 0.315592
0.315592 0.519788 0.315592
0.384318 0.519788 0.315592
0.451418 0.519788 0.315592
0.519788 0.519788 0.315592
0.591162 0.519788 0.315592
0.682187 0.519788 0.315592
0.000000 0.591162 0.315592
0.217226 0.591162 0.315592
0.315592 0.591162 0.315592
0.384318 0.591162 0.315592
0.451418 0.591162 0.315592
0.519788 0.591162 0.315592
0.591162 0.591162 0.315592
0.682187 0.591162 0.315592
0.000000 0.682187 0.315592
0.217226 0.682187 0.315592
0.315592 0.682187 0.315592
0.384318 0.682187 0.315592
0.451418 0.682187 0.315592
0.519788 0.682187 0.315592
0.591162 0.682187 0.315592
0.682187 0.682187 0.315592
0.000000 0.000000 0.384318
0.217226 0.000000 0.384318
0.315592 0.000000 0.384318
0.384318 0.000000 0.384318
0.451418 0.000000 0.384318
0.519788 0.000000 0.384318
0.591162 0.000000 0.384318
0.682187 0.000000 0.384318
0.000000 0.217226 0.384318
0.217226 0.217226 0.384318
0.315592 0.217226 0.384318
0.384318 0.217226 0.384318
0.451418 0.217226 0.384318
0.519788 0.217226 0.384318
0.591162 0.217226 0.384318
0.682187 0.217226 0.384318
0.000000 0.315592 0.384318
0.217226 0.315592 0.384318
0.315592 0.315592 0.384318
0.384318 0.315592 0.384318
0.451418 0.315592 0.384318
0.519788 0.315592 0.384318
0.591162 0.315592 0.384318
0.682187 0.315592 0.384318
0.000000 0.384318 0.384318
0.217226 0.384318 0.384318
0.315592 0.384318 0.384318
0.384318 0.384318 0.384318
0.451418 0.384318 0.384318
0.519788 0.384318 0.384318
0.591162 0.384318 0.384318
0.682187 0.384318 0.384318
0.000000 0.451418 0.384318
0.217226 0.451418 0.384318
0.315592 0.451418 0.384318
0.384318 0.451418 0.384318
0.451418 0.451418 0.384318
0.519788 0.451418 0.384318
0.591162 0.451418 0.384318
0.682187 0.451418 0.384318
0.000000 0.519788 0.384318
0.217226 0.519788 0.384318
0.315592 0.519788 0.384318
0.384318 0.519788 0.384318
0.451418 0.519788 0.384318
0.519788 0.519788 0.384318
0.591162 0.519788 0.384318
0.682187 0.519788 0.384318
0.000000 0.591162 0.384318
0.217226 0.591162 0.384318
0.315592 0.591162 0.384318
0.384318 0.591162 0.384318
0.451418 0.591162 0.384318
0.519788 0.591162 0.384318
0.591162 0.591162 0.384318
0.682187 0.591162 0.384318
0.000000 0.682187 0.384318
0.217226 0.682187 0.384318
0.315592 0.682187 0.384318
0.384318 0.682187 0.384318
0.451418 0.682187 0.384318
0.519788 0.682187 0.384318
0.591162 0.682187 0.384318
0.682187 0.682187 0.384318
0.000000 0.000000 0.451418
0.217226 0.000000 0.451418
0.315592 0.000000 0.451418
0.384318 0.000000 0.451418
0.451418 0.000000 0.451418
0.519788 0.000000 0.451418
0.591162 0.000000 0.451418
0.682187 0.000000 0.451418
0.000000 0.217226 0.451418
0.217226 0.217226 0.451418
0.315592 0.217226 0.451418
0.384318 0.217226 0.451418
0.451418 0.217226 0.451418
0.519788 0.217226 0.451418
0.591162 0.217226 0.451418
0.682187 0.217226 0.451418
0.000000 0.315592 0.451418
0.217226 0.315592 0.451418
0.315592 0.315592 0.451418
0.384318 0.315592 0.451418
0.451418 0.315592 0.451418
0.519788 0.315592 0.451418
0.591162 0.315592 0.451418
0.682187 0.315592 0.451418
0.000000 0.384318 0.451418
0.217226 0.384318 0.451418
0.315592 0.384318 0.451418
0.384318 0.384318 0.451418
0.451418 0.384318 0.451418
0.519788 0.384318 0.451418
0.591162 0.384318 0.451418
0.682187 0.384318 0.451418
0.000000 0.451418 0.451418
0.217226 0.451418 0.451418
0.315592 0.451418 0.451418
0.384318 0.451418 0.451418
0.451418 0.451418 0.451418
0.519788 0.451418 0.451418
0.591162 0.451418 0.451418
0.682187 0.451418 0.451418
0.000000 0.519788 0.451418
0.217226 0.519788 0.451418
0.315592 0.519788 0.451418
0.384318 0.519788 0.451418
0.451418 0.519788 0.451418
0.519788 0.519788 0.451418
0.591162 0.519788 0.451418
0.682187 0.519788 0.451418
0.000000 0.591162 0.451418
0.217226 0.591162 0.451418
0.315592 0.591162 0.451418
0.384318 0.591162 0.451418
0.451418 0.591162 0.451418
0.519788 0.591162 0.451418
0.591162 0.591162 0.451418
0.682187 0.591162 0.451418
0.000000 0.682187 0.451418
0.217226 0.682187 0.451418
0.315592 0.682187 0.451418
0.384318 0.682187 0.451418
0.451418 0.682187 0.451418
0.519788 0.682187 0.451418
0.591162 0.682187 0.451418
0.682187 0.682187 0.451418
0.000000 0.000000 0.519788
0.217226 0.000000 0.519788
0.315592 0.000000 0.519788
0.384318 0.000000 0.519788
0.451418 0.000000 0.519788
0.519788 0.000000 0.519788
0.591162 0.000000 0.519788
0.682187 0.000000 0.519788
0.000000 0.217226 0.519788
0.217226 0.217226 0.519788
0.315592 0.217226 0.519788
0.384318 0.217226 0.519788
0.451418 0.217226 0.519788
0.519788 0.217226 0.519788
0.591162 0.217226 0.519788
0.682187 0.217226 0.519788
0.000000 0.315592 0.519788
0.217226 0.315592 0.519788
0.315592 0.315592 0.519788
0.384318 0.315592 0.519788
0.451418 0.315592 0.519788
0.519788 0.315592 0.519788
0.591162 0.315592 0.519788
0.682187 0.315592 0.519788
0.000000 0.384318 0.519788
0.217226 0.384318 0.519788
0.315592 0.384318 0.519788
0.384318 0.384318 0.519788
0.451418 0.384318 0.519788
0.519788 0.384318 0.519788
0.591162 0.384318 0.519788
0.682187 0.384318 0.519788
0.000000 0.451418 0.519788
0.217226 0.451418 0.519788
0.315592 0.451418 0.519788
0.384318 0.451418 0.519788
0.451418 0.451418 0.519788
0.519788 0.451418 0.519788
0.591162 0.451418 0.519788
0.682187 0.451418 0.519788
0.000000 0.519788 0.519788
0.217226 0.519788 0.519788
0.315592 0.519788 0.519788
0.384318 0.519788 0.519788
0.451418 0.519788 0.519788
0.519788 0.519788 0.519788
0.591162 0.519788 0.519788
0.682187 0.519788 0.519788
0.000000 0.591162 0.519788
0.217226 0.591162 0.519788
0.315592 0.591162 0.519788
0.384318 0.591162 0.519788
0.451418 0.591162 0.519788
0.519788 0.591162 0.519788
0.591162 0.591162 0.519788
0.682187 0.591162 0.519788
0.000000 0.682187 0.519788
0.217226 0.682187 0.519788
0.315592 0.682187 0.519788
0.384318 0.682187 0.519788
0.451418 0.682187 0.519788
0.519788 0.682187 0.519788
0.591162 0.682187 0.519788
0.682187 0.682187 0.519788
0.000000 0.000000 0.591162
0.217226 0.000000 0.591162
0.315592 0.000000 0.591162
0.384318 0.000000 0.591162
0.451418 0.000000 0.591162
0.519788 0.000000 0.591162
0.591162 0.000000 0.591162
0.682187 0.000000 0.591162
0.000000 0.217226 0.591162
0.217226 0.217226 0.591162
0.315592 0.217226 0.591162
0.384318 0.217226 0.591162
0.451418 0.217226 0.591162
0.519788 0.217226 0.591162
0.591162 0.217226 0.591162
0.682187 0.217226 0.591162
0.000000 0.315592 0.591162
0.217226 0.315592 0.591162
0.315592 0.315592 0.591162
0.384318 0.315592 0.591162
0.451418 0.315592 0.591162
0.519788 0.315592 0.591162
0.591162 0.315592 0.591162
0.682187 0.315592 0.591162
0.000000 0.384318 0.591162
0.217226 0.384318 0.591162
0.315592 0.384318 0.591162
0.384318 0.384318 0.591162
0.451418 0.384318 0.591162
0.519788 0.384318 0.591162
0.591162 0.384318 0.591162
0.682187 0.384318 0.591162
0.000000 0.451418 0.591162
0.217226 0.451418 0.591162
0.315592 0.451418 0.591162
0.384318 0.451418 0.591162
0.451418 0.451418 0.591162
0.519788 0.451418 0.591162
0.591162 0.451418 0.591162
0.682187 0.451418 0.591162
0.000000 0.519788 0.591162
0.217226 0.519788 0.591162
0.315592 0.519788 0.591162
0.384318 0.519788 0.591162
0.451418 0.519788 0.591162
0.519788 0.519788 0.591162
0.591162 0.519788 0.591162
0.682187 0.519788 0.591162
0.000000 0.591162 0.591162
0.217226 0.591162 0.591162
0.315592 0.591162 0.591162
0.384318 0.591162 0.591162
0.451418 0.591162 0.591162
0.519788 0.591162 0.591162
0.591162 0.591162 0.591162
0.682187 0.591162 0.591162
0.000000 0.682187 0.591162
0.217226 0.682187 0.591162
0.315592 0.682187 0.591162
0.384318 0.682187 0.591162
0.451418 0.682187 0.591162
0.519788 0.682187 0.591162
0.591162 0.682187 0.591162
0.682187 0.682187 0.591162
0.000000 0.000000 0.682187
0.217226 0.000000 0.682187
0.315592 0.000000 0.682187
0.384318 0.000000 0.682187
0.451418 0.000000 0.682187
0.519788 0.000000 0.682187
0.591162 0.000000 0.682187
0.682187 0.000000 0.682187
0.000000 0.217226 0.682187
0.217226 0.217226 0.682187
0.315592 0.217226 0.682187
0.384318 0.217226 0.682187
0.451418 0.217226 0.682187
0.519788 0.217226 0.682187
0.591162 0.217226 0.682187
0.682187 0.217226 0.682187
0.000000 0.315592 0.682187
0.217226 0.315592 0.682187
0.315592 0.315592 0.682187
0.384318 0.315592 0.682187
0.451418 0.315592 0.682187
0.519788 0.315592 0.682187
0.591162 0.315592 0.682187
0.682187 0.315592 0.682187
0.000000 0.384318 0.682187
0.217226 0.384318 0.682187
0.315592 0.384318 0.682187
0.384318 0.384318 0.682187
0.451418 0.384318 0.682187
0.519788 0.384318 0.682187
0.591162 0.384318 0.682187
0.682187 0.384318 0.682187
0.000000 0.451418 0.682187
0.217226 0.451418 0.682187
0.315592 0.451418 0.682187
0.384318 0.451418 0.682187
0.451418 0.451418 0.682187
0.519788 0.451418 0.682187
0.591162 0.451418 0.682187
0.682187 0.451418 0.682187
0.000000 0.519788 0.682187
0.217226 0.519788 0.682187
0.315592 0.519788 0.682187
0.384318 0.519788 0.682187
0.451418 0.519788 0.682187
0.519788 0.519788 0.682187
0.591162 0.519788 0.682187
0.682187 0.519788 0.682187
0.000000 0.591162 0.682187
0.217226 0.591162 0.682187
0.315592 0.591162 0.682187
0.384318 0.591162 0.682187
0.451418 0.591162 0.682187
0.519788 0.591162 0.682187
0.591162 0.591162 0.682187
0.682187 0.591162 0.682187
0.000000 0.682187 0.682187
0.217226 0.682187 0.682187
0.315592 0.682187 0.682187
0.384318 0.682187 0.682187
0.451418 0.682187 0.682187
0.519788 0.682187 0.682187
0.591162 0.682187 0.682187
0.682187 0.682187 0.682187
