3DLUTS/From_Arri_3d-lut_generator/AlexaV3_K1S1_Video2LogC_none_EE_iridas_3d/AlexaV3_K1S1_Video2LogC_EE_iridas3d.cube
# Alexa conversion LUT, video2logc. Full in/full out.
# created by alexalutconv (2.09)
LUT_3D_SIZE 32
0.000000 0.000000 0.000000
0.077648 0.000000 0.000000
0.135643 0.000000 0.000000
0.180568 0.000000 0.000000
0.217226 0.000000 0.000000
0.248332 0.000000 0.000000
0.274546 0.000000 0.000000
0.296232 0.000000 0.000000
0.315592 0.000000 0.000000
0.333617 0.000000 0.000000
0.350851 0.000000 0.000000
0.367657 0.000000 0.000000
0.384318 0.000000 0.000000
0.401045 0.000000 0.000000
0.417797 0.000000 0.000000
0.434581 0.000000 0.000000
0.451418 0.000000 0.000000
0.468332 0.000000 0.000000
0.485349 0.000000 0.000000
0.502491 0.000000 0.000000
0.519788 0.000000 0.000000
0.537268 0.000000 0.000000
0.554966 0.000000 0.000000
0.572916 0.000000 0.000000
0.591162 0.000000 0.000000
0.609789 0.000000 0.000000
0.630182 0.000000 0.000000
0.653774 0.000000 0.000000
0.682187 0.000000 0.000000
0.718978 0.000000 0.000000
0.775596 0.000000 0.000000
1.000000 0.000000 0.000000
0.000000 0.077648 0.000000
0.077648 0.077648 0.000000
0.135643 0.077648 0.000000
0.180568 0.077648 0.000000
0.217226 0.077648 0.000000
0.248332 0.077648 0.000000
0.274546 0.077648 0.000000
0.296232 0.077648 0.000000
0.315592 0.077648 0.000000
0.333617 0.077648 0.000000
0.350851 0.077648 0.000000
0.367657 0.077648 0.000000
0.384318 0.077648 0.000000
0.401045 0.077648 0.000000
0.417797 0.077648 0.000000
0.434581 0.077648 0.000000
0.451418 0.077648 0.000000
0.468332 0.077648 0.000000
0.485349 0.077648 0.000000
0.502491 0.077648 0.000000
0.519788 0.077648 0.000000
0.537268 0.077648 0.000000
0.554966 0.077648 0.000000
0.572916 0.077648 0.000000
0.591162 0.077648 0.000000
0.609789 0.077648 0.000000
0.630182 0.077648 0.000000
0.653774 0.077648 0.000000
0.682187 0.077648 0.000000
0.718978 0.077648 0.000000
0.775596 0.077648 0.000000
1.000000 0.077648 0.000000
0.000000 0.135643 0.000000
0.077648 0.135643 0.000000
0.135643 0.135643 0.000000
0.180568 0.135643 0.000000
0.217226 0.135643 0.000000
0.248332 0.135643 0.000000
0.274546 0.135643 0.000000
0.296232 0.135643 0.000000
0.315592 0.135643 0.000000
0.333617 0.135643 0.000000
0.350851 0.135643 0.000000
0.367657 0.135643 0.000000
0.384318 0.135643 0.000000
0.401045 0.135643 0.000000
0.417797 0.135643 0.000000
0.434581 0.135643 0.000000
0.451418 0.135643 0.000000
0.468332 0.135643 0.000000
0.485349 0.135643 0.000000
0.502491 0.135643 0.000000
0.519788 0.135643 0.000000
0.537268 0.135643 0.000000
0.554966 0.135643 0.000000
0.572916 0.135643 0.000000
0.591162 0.135643 0.000000
0.609789 0.135643 0.000000
0.630182 0.135643 0.000000
0.653774 0.135643 0.000000
0.682187 0.135643 0.000000
0.718978 0.135643 0.000000
0.775596 0.135643 0.000000
1.000000 0.135643 0.000000
0.000000 0.180568 0.000000
0.077648 0.180568 0.000000
0.135643 0.180568 0.000000
0.180568 0.180568 0.000000
0.217226 0.180568 0.000000
0.248332 0.180568 0.000000
0.274546 0.180568 0.000000
0.296232 0.180568 0.000000
0.315592 0.180568 0.000000
0.333617 0.180568 0.000000
0.350851 0.180568 0.000000
0.367657 0.180568 0.000000
0.384318 0.180568 0.000000
0.401045 0.180568 0.000000
0.417797 0.180568 0.000000
0.434581 0.180568 0.000000
0.451418 0.180568 0.000000
0.468332 0.180568 0.000000
0.485349 0.180568 0.000000
0.502491 0.180568 0.000000
0.519788 0.180568 0.000000
0.537268 0.180568 0.000000
0.554966 0.180568 0.000000
0.572916 0.180568 0.000000
0.591162 0.180568 0.000000
0.609789 0.180568 0.000000
0.630182 0.180568 0.000000
0.653774 0.180568 0.000000
0.682187 0.180568 0.000000
0.718978 0.180568 0.000000
0.775596 0.180568 0.000000
1.000000 0.180568 0.000000
0.000000 0.217226 0.000000
0.077648 0.217226 0.000000
0.135643 0.217226 0.000000
0.180568 0.217226 0.000000
0.217226 0.217226 0.000000
0.248332 0.217226 0.000000
0.274546 0.217226 0.000000
0.296232 0.217226 0.000000
0.315592 0.217226 0.000000
0.333617 0.217226 0.000000
0.350851 0.217226 0.000000
0.367657 0.217226 0.000000
0.384318 0.217226 0.000000
0.401045 0.217226 0.000000
0.417797 0.217226 0.000000
0.434581 0.217226 0.000000
0.451418 0.217226 0.000000
0.468332 0.217226 0.000000
0.485349 0.217226 0.000000
0.502491 0.217226 0.000000
0.519788 0.217226 0.000000
0.537268 0.217226 0.000000
0.554966 0.217226 0.000000
0.572916 0.217226 0.000000
0.591162 0.217226 0.000000
0.609789 0.217226 0.000000
0.630182 0.217226 0.000000
0.653774 0.217226 0.000000
0.682187 0.217226 0.000000
0.718978 0.217226 0.000000
0.775596 0.217226 0.000000
1.000000 0.217226 0.000000
0.000000 0.248332 0.000000
0.077648 0.248332 0.000000
0.135643 0.248332 0.000000
0.180568 0.248332 0.000000
0.217226 0.248332 0.000000
0.248332 0.248332 0.000000
0.274546 0.248332 0.000000
0.296232 0.248332 0.000000
0.315592 0.248332 0.000000
0.333617 0.248332 0.000000
0.350851 0.248332 0.000000
0.367657 0.248332 0.000000
0.384318 0.248332 0.000000
0.401045 0.248332 0.000000
0.417797 0.248332 0.000000
0.434581 0.248332 0.000000
0.451418 0.248332 0.000000
0.468332 0.248332 0.000000
0.485349 0.248332 0.000000
0.502491 0.248332 0.000000
0.519788 0.248332 0.000000
0.537268 0.248332 0.000000
0.554966 0.248332 0.000000
0.572916 0.248332 0.000000
0.591162 0.248332 0.000000
0.609789 0.248332 0.000000
0.630182 0.248332 0.000000
0.653774 0.248332 0.000000
0.682187 0.248332 0.000000
0.718978 0.248332 0.000000
0.775596 0.248332 0.000000
1.000000 0.248332 0.000000
0.000000 0.274546 0.000000
0.077648 0.274546 0.000000
0.135643 0.274546 0.000000
0.180568 0.274546 0.000000
0.217226 0.274546 0.000000
0.248332 0.274546 0.000000
0.274546 0.274546 0.000000
0.296232 0.274546 0.000000
0.315592 0.274546 0.000000
0.333617 0.274546 0.000000
0.350851 0.274546 0.000000
0.367657 0.274546 0.000000
0.384318 0.274546 0.000000
0.401045 0.274546 0.000000
0.417797 0.274546 0.000000
0.434581 0.274546 0.000000
0.451418 0.274546 0.000000
0.468332 0.274546 0.000000
0.485349 0.274546 0.000000
0.502491 0.274546 0.000000
0.519788 0.274546 0.000000
0.537268 0.274546 0.000000
0.554966 0.274546 0.000000
0.572916 0.274546 0.000000
0.591162 0.274546 0.000000
0.609789 0.274546 0.000000
0.630182 0.274546 0.000000
0.653774 0.274546 0.000000
0.682187 0.274546 0.000000
0.718978 0.274546 0.000000
0.775596 0.274546 0.000000
1.000000 0.274546 0.000000
0.000000 0.296232 0.000000
0.077648 0.296232 0.000000
0.135643 0.296232 0.000000
0.180568 0.296232 0.000000
0.217226 0.296232 0.000000
0.248332 0.296232 0.000000
0.274546 0.296232 0.000000
0.296232 0.296232 0.000000
0.315592 0.296232 0.000000
0.333617 0.296232 0.000000
0.350851 0.296232 0.000000
0.367657 0.296232 0.000000
0.384318 0.296232 0.000000
0.401045 0.296232 0.000000
0.417797 0.296232 0.000000
0.434581 0.296232 0.000000
0.451418 0.296232 0.000000
0.468332 0.296232 0.000000
0.485349 0.296232 0.000000
0.502491 0.296232 0.000000
0.519788 0.296232 0.000000
0.537268 0.296232 0.000000
0.554966 0.296232 0.000000
0.572916 0.296232 0.000000
0.591162 0.296232 0.000000
0.609789 0.296232 0.000000
0.630182 0.296232 0.000000
0.653774 0.296232 0.000000
0.682187 0.296232 0.000000
0.718978 0.296232 0.000000
0.775596 0.296232 0.000000
1.000000 0.296232 0.000000
0.000000 0.315592 0.000000
0.077648 0.315592 0.000000
0.135643 0.315592 0.000000
0.180568 0.315592 0.000000
0.217226 0.315592 0.000000
0.248332 0.315592 0.000000
0.274546 0.315592 0.000000
0.296232 0.315592 0.000000
0.315592 0.315592 0.000000
0.333617 0.315592 0.000000
0.350851 0.315592 0.000000
0.367657 0.315592 0.000000
0.384318 0.315592 0.000000
0.401045 0.315592 0.000000
0.417797 0.315592 0.000000
0.434581 0.315592 0.000000
0.451418 0.315592 0.000000
0.468332 0.315592 0.000000
0.485349 0.315592 0.000000
0.502491 0.315592 0.000000
0.519788 0.315592 0.000000
0.537268 0.315592 0.000000
0.554966 0.315592 0.000000
0.572916 0.315592 0.000000
0.591162 0.315592 0.000000
0.609789 0.315592 0.000000
0.630182 0.315592 0.000000
0.653774 0.315592 0.000000
0.682187 0.315592 0.000000
0.718978 0.315592 0.000000
0.775596 0.315592 0.000000
1.000000 0.315592 0.000000
0.000000 0.333617 0.000000
0.077648 0.333617 0.000000
0.135643 0.333617 0.000000
0.180568 0.333617 0.000000
0.217226 0.333617 0.000000
0.248332 0.333617 0.000000
0.274546 0.333617 0.000000
0.296232 0.333617 0.000000
0.315592 0.333617 0.000000
0.333617 0.333617 0.000000
0.350851 0.333617 0.000000
0.367657 0.333617 0.000000
0.384318 0.333617 0.000000
0.401045 0.333617 0.000000
0.417797 0.333617 0.000000
0.434581 0.333617 0.000000
0.451418 0.333617 0.000000
0.468332 0.333617 0.000000
0.485349 0.333617 0.000000
0.502491 0.333617 0.000000
0.519788 0.333617 0.000000
0.537268 0.333617 0.000000
0.554966 0.333617 0.000000
0.572916 0.333617 0.000000
0.591162 0.333617 0.000000
0.609789 0.333617 0.000000
0.630182 0.333617 0.000000
0.653774 0.333617 0.000000
0.682187 0.333617 0.000000
0.718978 0.333617 0.000000
0.775596 0.333617 0.000000
1.000000 0.333617 0.000000
0.000000 0.350851 0.000000
0.077648 0.350851 0.000000
0.135643 0.350851 0.000000
0.180568 0.350851 0.000000
0.217226 0.350851 0.000000
0.248332 0.350851 0.000000
0.274546 0.350851 0.000000
0.296232 0.350851 0.000000
0.315592 0.350851 0.000000
0.333617 0.350851 0.000000
0.350851 0.350851 0.000000
0.367657 0.350851 0.000000
0.384318 0.350851 0.000000
0.401045 0.350851 0.000000
0.417797 0.350851 0.000000
0.434581 0.350851 0.000000
0.451418 0.350851 0.000000
0.468332 0.350851 0.000000
0.485349 0.350851 0.000000
0.502491 0.350851 0.000000
0.519788 0.350851 0.000000
0.537268 0.350851 0.000000
0.554966 0.350851 0.000000
0.572916 0.350851 0.000000
0.591162 0.350851 0.000000
0.609789 0.350851 0.000000
0.630182 0.350851 0.000000
0.653774 0.350851 0.000000
0.682187 0.350851 0.000000
0.718978 0.350851 0.000000
0.775596 0.350851 0.000000
1.000000 0.350851 0.000000
0.000000 0.367657 0.000000
0.077648 0.367657 0.000000
0.135643 0.367657 0.000000
0.180568 0.367657 0.000000
0.217226 0.367657 0.000000
0.248332 0.367657 0.000000
0.274546 0.367657 0.000000
0.296232 0.367657 0.000000
0.315592 0.367657 0.000000
0.333617 0.367657 0.000000
0.350851 0.367657 0.000000
0.367657 0.367657 0.000000
0.384318 0.367657 0.000000
0.401045 0.367657 0.000000
0.417797 0.367657 0.000000
0.434581 0.367657 0.000000
0.451418 0.367657 0.000000
0.468332 0.367657 0.000000
0.485349 0.367657 0.000000
0.502491 0.367657 0.000000
0.519788 0.367657 0.000000
0.537268 0.367657 0.000000
0.554966 0.367657 0.000000
0.572916 0.367657 0.000000
0.591162 0.367657 0.000000
0.609789 0.367657 0.000000
0.630182 0.367657 0.000000
0.653774 0.367657 0.000000
0.682187 0.367657 0.000000
0.718978 0.367657 0.000000
0.775596 0.367657 0.000000
1.000000 0.367657 0.000000
0.000000 0.384318 0.000000
0.077648 0.384318 0.000000
0.135643 0.384318 0.000000
0.180568 0.384318 0.000000
0.217226 0.384318 0.000000
0.248332 0.384318 0.000000
0.274546 0.384318 0.000000
0.296232 0.384318 0.000000
0.315592 0.384318 0.000000
0.333617 0.384318 0.000000
0.350851 0.384318 0.000000
0.367657 0.384318 0.000000
0.384318 0.384318 0.000000
0.401045 0.384318 0.000000
0.417797 0.384318 0.000000
0.434581 0.384318 0.000000
0.451418 0.384318 0.000000
0.468332 0.384318 0.000000
0.485349 0.384318 0.000000
0.502491 0.384318 0.000000
0.519788 0.384318 0.000000
0.537268 0.384318 0.000000
0.554966 0.384318 0.000000
0.572916 0.384318 0.000000
0.591162 0.384318 0.000000
0.609789 0.384318 0.000000
0.630182 0.384318 0.000000
0.653774 0.384318 0.000000
0.682187 0.384318 0.000000
0.718978 0.384318 0.000000
0.775596 0.384318 0.000000
1.000000 0.384318 0.000000
0.000000 0.401045 0.000000
0.077648 0.401045 0.000000
0.135643 0.401045 0.000000
0.180568 0.401045 0.000000
0.217226 0.401045 0.000000
0.248332 0.401045 0.000000
0.274546 0.401045 0.000000
0.296232 0.401045 0.000000
0.315592 0.401045 0.000000
0.333617 0.401045 0.000000
0.350851 0.401045 0.000000
0.367657 0.401045 0.000000
0.384318 0.401045 0.000000
0.401045 0.401045 0.000000
0.417797 0.401045 0.000000
0.434581 0.401045 0.000000
0.451418 0.401045 0.000000
0.468332 0.401045 0.000000
0.485349 0.401045 0.000000
0.502491 0.401045 0.000000
0.519788 0.401045 0.000000
0.537268 0.401045 0.000000
0.554966 0.401045 0.000000
0.572916 0.401045 0.000000
0.591162 0.401045 0.000000
0.609789 0.401045 0.000000
0.630182 0.401045 0.000000
0.653774 0.401045 0.000000
0.682187 0.401045 0.000000
0.718978 0.401045 0.000000
0.775596 0.401045 0.000000
1.000000 0.401045 0.000000
0.000000 0.417797 0.000000
0.077648 0.417797 0.000000
0.135643 0.417797 0.000000
0.180568 0.417797 0.000000
0.217226 0.417797 0.000000
0.248332 0.417797 0.000000
0.274546 0.417797 0.000000
0.296232 0.417797 0.000000
0.315592 0.417797 0.000000
0.333617 0.417797 0.000000
0.350851 0.417797 0.000000
0.367657 0.417797 0.000000
0.384318 0.417797 0.000000
0.401045 0.417797 0.000000
0.417797 0.417797 0.000000
0.434581 0.417797 0.000000
0.451418 0.417797 0.000000
0.468332 0.417797 0.000000
0.485349 0.417797 0.000000
0.502491 0.417797 0.000000
0.519788 0.417797 0.000000
0.537268 0.417797 0.000000
0.554966 0.417797 0.000000
0.572916 0.417797 0.000000
0.591162 0.417797 0.000000
0.609789 0.417797 0.000000
0.630182 0.417797 0.000000
0.653774 0.417797 0.000000
0.682187 0.417797 0.000000
0.718978 0.417797 0.000000
0.775596 0.417797 0.000000
1.000000 0.417797 0.000000
0.000000 0.434581 0.000000
0.077648 0.434581 0.000000
0.135643 0.434581 0.000000
0.180568 0.434581 0.000000
0.217226 0.434581 0.000000
0.248332 0.434581 0.000000
0.274546 0.434581 0.000000
0.296232 0.434581 0.000000
0.315592 0.434581 0.000000
0.333617 0.434581 0.000000
0.350851 0.434581 0.000000
0.367657 0.434581 0.000000
0.384318 0.434581 0.000000
0.401045 0.434581 0.000000
0.417797 0.434581 0.000000
0.434581 0.434581 0.000000
0.451418 0.434581 0.000000
0.468332 0.434581 0.000000
0.485349 0.434581 0.000000
0.502491 0.434581 0.000000
0.519788 0.434581 0.000000
0.537268 0.434581 0.000000
0.554966 0.434581 0.000000
0.572916 0.434581 0.000000
0.591162 0.434581 0.000000
0.609789 0.434581 0.000000
0.630182 0.434581 0.000000
0.653774 0.434581 0.000000
0.682187 0.434581 0.000000
0.718978 0.434581 0.000000
0.775596 0.434581 0.000000
1.000000 0.434581 0.000000
0.000000 0.451418 0.000000
0.077648 0.451418 0.000000
0.135643 0.451418 0.000000
0.180568 0.451418 0.000000
0.217226 0.451418 0.000000
0.248332 0.451418 0.000000
0.274546 0.451418 0.000000
0.296232 0.451418 0.000000
0.315592 0.451418 0.000000
0.333617 0.451418 0.000000
0.350851 0.451418 0.000000
0.367657 0.451418 0.000000
0.384318 0.451418 0.000000
0.401045 0.451418 0.000000
0.417797 0.451418 0.000000
0.434581 0.451418 0.000000
0.451418 0.451418 0.000000
0.468332 0.451418 0.000000
0.485349 0.451418 0.000000
0.502491 0.451418 0.000000
0.519788 0.451418 0.000000
0.537268 0.451418 0.000000
0.554966 0.451418 0.000000
0.572916 0.451418 0.000000
0.591162 0.451418 0.000000
0.609789 0.451418 0.000000
0.630182 0.451418 0.000000
0.653774 0.451418 0.000000
0.682187 0.451418 0.000000
0.718978 0.451418 0.000000
0.775596 0.451418 0.000000
1.000000 0.451418 0.000000
0.000000 0.468332 0.000000
0.077648 0.468332 0.000000
0.135643 0.468332 0.000000
0.180568 0.468332 0.000000
0.217226 0.468332 0.000000
0.248332 0.468332 0.000000
0.274546 0.468332 0.000000
0.296232 0.468332 0.000000
0.315592 0.468332 0.000000
0.333617 0.468332 0.000000
0.350851 0.468332 0.000000
0.367657 0.468332 0.000000
0.384318 0.468332 0.000000
0.401045 0.468332 0.000000
0.417797 0.468332 0.000000
0.434581 0.468332 0.000000
0.451418 0.468332 0.000000
0.468332 0.468332 0.000000
0.485349 0.468332 0.000000
0.502491 0.468332 0.000000
0.519788 0.468332 0.000000
0.537268 0.468332 0.000000
0.554966 0.468332 0.000000
0.572916 0.468332 0.000000
0.591162 0.468332 0.000000
0.609789 0.468332 0.000000
0.630182 0.468332 0.000000
0.653774 0.468332 0.000000
0.682187 0.468332 0.000000
0.718978 0.468332 0.000000
0.775596 0.468332 0.000000
1.000000 0.468332 0.000000
0.000000 0.485349 0.000000
0.077648 0.485349 0.000000
0.135643 0.485349 0.000000
0.180568 0.485349 0.000000
0.217226 0.485349 0.000000
0.248332 0.485349 0.000000
0.274546 0.485349 0.000000
0.296232 0.485349 0.000000
0.315592 0.485349 0.000000
0.333617 0.485349 0.000000
0.350851 0.485349 0.000000
0.367657 0.485349 0.000000
0.384318 0.485349 0.000000
0.401045 0.485349 0.000000
0.417797 0.485349 0.000000
0.434581 0.485349 0.000000
0.451418 0.485349 0.000000
0.468332 0.485349 0.000000
0.485349 0.485349 0.000000
0.502491 0.485349 0.000000
0.519788 0.485349 0.000000
0.537268 0.485349 0.000000
0.554966 0.485349 0.000000
0.572916 0.485349 0.000000
0.591162 0.485349 0.000000
0.609789 0.485349 0.000000
0.630182 0.485349 0.000000
0.653774 0.485349 0.000000
0.682187 0.485349 0.000000
0.718978 0.485349 0.000000
0.775596 0.485349 0.000000
1.000000 0.485349 0.000000
0.000000 0.502491 0.000000
0.077648 0.502491 0.000000
0.135643 0.502491 0.000000
0.180568 0.502491 0.000000
0.217226 0.502491 0.000000
0.248332 0.502491 0.000000
0.274546 0.502491 0.000000
0.296232 0.502491 0.000000
0.315592 0.502491 0.000000
0.333617 0.502491 0.000000
0.350851 0.502491 0.000000
0.367657 0.502491 0.000000
0.384318 0.502491 0.000000
0.401045 0.502491 0.000000
0.417797 0.502491 0.000000
0.434581 0.502491 0.000000
0.451418 0.502491 0.000000
0.468332 0.502491 0.000000
0.485349 0.502491 0.000000
0.502491 0.502491 0.000000
0.519788 0.502491 0.000000
0.537268 0.502491 0.000000
0.554966 0.502491 0.000000
0.572916 0.502491 0.000000
0.591162 0.502491 0.000000
0.609789 0.502491 0.000000
0.630182 0.502491 0.000000
0.653774 0.502491 0.000000
0.682187 0.502491 0.000000
0.718978 0.502491 0.000000
0.775596 0.502491 0.000000
1.000000 0.502491 0.000000
0.000000 0.519788 0.000000
0.077648 0.519788 0.000000
0.135643 0.519788 0.000000
0.180568 0.519788 0.000000
0.217226 0.519788 0.000000
0.248332 0.519788 0.000000
0.274546 0.519788 0.000000
0.296232 0.519788 0.000000
0.315592 0.519788 0.000000
0.333617 0.519788 0.000000
0.350851 0.519788 0.000000
0.367657 0.519788 0.000000
0.384318 0.519788 0.000000
0.401045 0.519788 0.000000
0.417797 0.519788 0.000000
0.434581 0.519788 0.000000
0.451418 0.519788 0.000000
0.468332 0.519788 0.000000
0.485349 0.519788 0.000000
0.502491 0.519788 0.000000
0.519788 0.519788 0.000000
0.537268 0.519788 0.000000
0.554966 0.519788 0.000000
0.572916 0.519788 0.000000
0.591162 0.519788 0.000000
0.609789 0.519788 0.000000
0.630182 0.519788 0.000000
0.653774 0.519788 0.000000
0.682187 0.519788 0.000000
0.718978 0.519788 0.000000
0.775596 0.519788 0.000000
1.000000 0.519788 0.000000
0.000000 0.537268 0.000000
0.077648 0.537268 0.000000
0.135643 0.537268 0.000000
0.180568 0.537268 0.000000
0.217226 0.537268 0.000000
0.248332 0.537268 0.000000
0.274546 0.537268 0.000000
0.296232 0.537268 0.000000
0.315592 0.537268 0.000000
0.333617 0.537268 0.000000
0.350851 0.537268 0.000000
0.367657 0.537268 0.000000
0.384318 0.537268 0.000000
0.401045 0.537268 0.000000
0.417797 0.537268 0.000000
0.434581 0.537268 0.000000
0.451418 0.537268 0.000000
0.468332 0.537268 0.000000
0.485349 0.537268 0.000000
0.502491 0.537268 0.000000
0.519788 0.537268 0.000000
0.537268 0.537268 0.000000
0.554966 0.537268 0.000000
0.572916 0.537268 0.000000
0.591162 0.537268 0.000000
0.609789 0.537268 0.000000
0.630182 0.537268 0.000000
0.653774 0.537268 0.000000
0.682187 0.537268 0.000000
0.718978 0.537268 0.000000
0.775596 0.537268 0.000000
1.000000 0.537268 0.000000
0.000000 0.554966 0.000000
0.077648 0.554966 0.000000
0.135643 0.554966 0.000000
0.180568 0.554966 0.000000
0.217226 0.554966 0.000000
0.248332 0.554966 0.000000
0.274546 0.554966 0.000000
0.296232 0.554966 0.000000
0.315592 0.554966 0.000000
0.333617 0.554966 0.000000
0.350851 0.554966 0.000000
0.367657 0.554966 0.000000
0.384318 0.554966 0.000000
0.401045 0.554966 0.000000
0.417797 0.554966 0.000000
0.434581 0.554966 0.000000
0.451418 0.554966 0.000000
0.468332 0.554966 0.000000
0.485349 0.554966 0.000000
0.502491 0.554966 0.000000
0.519788 0.554966 0.000000
0.537268 0.554966 0.000000
0.554966 0.554966 0.000000
0.572916 0.554966 0.000000
0.591162 0.554966 0.000000
0.609789 0.554966 0.000000
0.630182 0.554966 0.000000
0.653774 0.554966 0.000000
0.682187 0.554966 0.000000
0.718978 0.554966 0.000000
0.775596 0.554966 0.000000
1.000000 0.554966 0.000000
0.000000 0.572916 0.000000
0.077648 0.572916 0.000000
0.135643 0.572916 0.000000
0.180568 0.572916 0.000000
0.217226 0.572916 0.000000
0.248332 0.572916 0.000000
0.274546 0.572916 0.000000
0.296232 0.572916 0.000000
0.315592 0.572916 0.000000
0.333617 0.572916 0.000000
0.350851 0.572916 0.000000
0.367657 0.572916 0.000000
0.384318 0.572916 0.000000
0.401045 0.572916 0.000000
0.417797 0.572916 0.000000
0.434581 0.572916 0.000000
0.451418 0.572916 0.000000
0.468332 0.572916 0.000000
0.485349 0.572916 0.000000
0.502491 0.572916 0.000000
0.519788 0.572916 0.000000
0.537268 0.572916 0.000000
0.554966 0.572916 0.000000
0.572916 0.572916 0.000000
0.591162 0.572916 0.000000
0.609789 0.572916 0.000000
0.630182 0.572916 0.000000
0.653774 0.572916 0.000000
0.682187 0.572916 0.000000
0.718978 0.572916 0.000000
0.775596 0.572916 0.000000
1.000000 0.572916 0.000000
0.000000 0.591162 0.000000
0.077648 0.591162 0.000000
0.135643 0.591162 0.000000
0.180568 0.591162 0.000000
0.217226 0.591162 0.000000
0.248332 0.591162 0.000000
0.274546 0.591162 0.000000
0.296232 0.591162 0.000000
0.315592 0.591162 0.000000
0.333617 0.591162 0.000000
0.350851 0.591162 0.000000
0.367657 0.591162 0.000000
0.384318 0.591162 0.000000
0.401045 0.591162 0.000000
0.417797 0.591162 0.000000
0.434581 0.591162 0.000000
0.451418 0.591162 0.000000
0.468332 0.591162 0.000000
0.485349 0.591162 0.000000
0.502491 0.591162 0.000000
0.519788 0.591162 0.000000
0.537268 0.591162 0.000000
0.554966 0.591162 0.000000
0.572916 0.591162 0.000000
0.591162 0.591162 0.000000
0.609789 0.591162 0.000000
0.630182 0.591162 0.000000
0.653774 0.591162 0.000000
0.682187 0.591162 0.000000
0.718978 0.591162 0.000000
0.775596 0.591162 0.000000
1.000000 0.591162 0.000000
0.000000 0.609789 0.000000
0.077648 0.609789 0.000000
0.135643 0.609789 0.000000
0.180568 0.609789 0.000000
0.217226 0.609789 0.000000
0.248332 0.609789 0.000000
0.274546 0.609789 0.000000
0.296232 0.609789 0.000000
0.315592 0.609789 0.000000
0.333617 0.609789 0.000000
0.350851 0.609789 0.000000
0.367657 0.609789 0.000000
0.384318 0.609789 0.000000
0.401045 0.609789 0.000000
0.417797 0.609789 0.000000
0.434581 0.609789 0.000000
0.451418 0.609789 0.000000
0.468332 0.609789 0.000000
0.485349 0.609789 0.000000
0.502491 0.609789 0.000000
0.519788 0.609789 0.000000
0.537268 0.609789 0.000000
0.554966 0.609789 0.000000
0.572916 0.609789 0.000000
0.591162 0.609789 0.000000
0.609789 0.609789 0.000000
0.630182 0.609789 0.000000
0.653774 0.609789 0.000000
0.682187 0.609789 0.000000
0.718978 0.609789 0.000000
0.775596 0.609789 0.000000
1.000000 0.609789 0.000000
0.000000 0.630182 0.000000
0.077648 0.630182 0.000000
0.135643 0.630182 0.000000
0.180568 0.630182 0.000000
0.217226 0.630182 0.000000
0.248332 0.630182 0.000000
0.274546 0.630182 0.000000
0.296232 0.630182 0.000000
0.315592 0.630182 0.000000
0.333617 0.630182 0.000000
0.350851 0.630182 0.000000
0.367657 0.630182 0.000000
0.384318 0.630182 0.000000
0.401045 0.630182 0.000000
0.417797 0.630182 0.000000
0.434581 0.630182 0.000000
0.451418 0.630182 0.000000
0.468332 0.630182 0.000000
0.485349 0.630182 0.000000
0.502491 0.630182 0.000000
0.519788 0.630182 0.000000
0.537268 0.630182 0.000000
0.554966 0.630182 0.000000
0.572916 0.630182 0.000000
0.591162 0.630182 0.000000
0.609789 0.630182 0.000000
0.630182 0.630182 0.000000
0.653774 0.630182 0.000000
0.682187 0.630182 0.000000
0.718978 0.630182 0.000000
0.775596 0.630182 0.000000
1.000000 0.630182 0.000000
0.000000 0.653774 0.000000
0.077648 0.653774 0.000000
0.135643 0.653774 0.000000
0.180568 0.653774 0.000000
0.217226 0.653774 0.000000
0.248332 0.653774 0.000000
0.274546 0.653774 0.000000
0.296232 0.653774 0.000000
0.315592 0.653774 0.000000
0.333617 0.653774 0.000000
0.350851 0.653774 0.000000
0.367657 0.653774 0.000000
0.384318 0.653774 0.000000
0.401045 0.653774 0.000000
0.417797 0.653774 0.000000
0.434581 0.653774 0.000000
0.451418 0.653774 0.000000
0.468332 0.653774 0.000000
0.485349 0.653774 0.000000
0.502491 0.653774 0.000000
0.519788 0.653774 0.000000
