3DLUTS/GC_VENOM_LUTS/Additional_Formats/3DL/GC_Venom_V-LOG-To_Rec709.3dl
# Converted by Briz LUT Converter
0 64 128 192 256 320 384 448 512 576 640 704 768 832 896 960 1023
0 0 0
0 0 0
0 0 0
0 0 0
0 0 0
0 0 0
0 0 0
0 0 0
0 0 0
0 0 0
0 0 0
0 0 0
0 0 0
0 0 0
0 0 0
0 0 0
0 0 0
0 0 0
0 0 0
0 0 0
0 0 0
0 0 0
0 0 0
0 0 0
0 0 0
0 0 0
0 0 0
0 0 0
0 0 0
0 0 0
0 0 0
0 0 0
0 0 0
0 0 0
0 0 0
0 0 0
0 0 0
0 0 0
0 0 0
0 0 0
0 0 0
0 0 0
0 0 0
0 0 0
0 0 0
0 0 0
0 0 0
0 0 0
0 0 0
0 0 0
0 0 0
0 0 0
0 0 0
0 0 0
0 0 0
0 0 0
0 9 18
0 25 85
0 39 191
0 49 346
0 56 541
0 59 773
0 59 1043
0 59 1336
0 59 1650
0 56 1996
0 51 2370
0 44 2770
0 221 0
0 244 0
0 264 16
0 283 140
0 298 298
0 301 568
0 299 902
0 293 1284
0 283 1712
0 271 2179
0 257 2679
0 242 3201
0 233 3681
0 228 4095
0 221 4095
0 211 4095
0 201 4095
0 687 0
0 704 0
0 719 0
0 735 0
0 749 260
0 744 744
0 733 1312
0 718 1940
0 703 2618
0 685 3332
0 667 4060
0 648 4095
0 640 4095
0 641 4095
0 638 4095
0 633 4095
0 629 4095
0 1310 0
0 1326 0
0 1339 0
0 1350 0
0 1355 0
0 1338 620
0 1313 1313
0 1286 2033
0 1258 2767
0 1230 3498
0 1204 4095
0 1181 4095
0 1171 4095
0 1170 4095
0 1166 4095
0 1163 4095
0 1159 4095
0 1885 0
0 1888 0
0 1891 0
0 1893 0
0 1894 0
0 1875 410
0 1852 1104
0 1826 1826
0 1799 2561
0 1773 3293
0 1749 4011
0 1727 4095
0 1718 4095
0 1718 4095
0 1715 4095
0 1713 4095
0 1711 4095
0 2434 0
0 2438 0
0 2441 0
0 2445 0
0 2447 0
0 2429 202
0 2407 898
0 2382 1621
0 2357 2357
0 2332 3091
0 2308 3809
0 2287 4095
0 2279 4095
0 2280 4095
0 2278 4095
0 2276 4095
0 2275 4095
0 2992 0
0 2997 0
0 3001 0
0 3006 0
0 3008 0
0 2992 6
0 2970 702
0 2947 1426
0 2923 2163
0 2898 2898
0 2874 3616
0 2854 4095
0 2846 4095
0 2847 4095
0 2846 4095
0 2845 4095
0 2844 4095
0 3553 0
0 3558 0
0 3563 0
0 3568 0
0 3571 0
0 3556 0
0 3535 525
0 3512 1249
0 3487 1986
0 3463 2721
0 3439 3439
0 3419 4095
0 3412 4095
0 3413 4095
0 3412 4095
0 3411 4095
0 3410 4095
0 4095 0
0 4095 0
0 4095 0
0 4095 0
0 4095 0
0 4095 0
0 4091 373
0 4067 1097
0 4043 1833
0 4018 2568
0 3995 3286
0 3974 3974
0 3966 4095
0 3968 4095
0 3967 4095
0 3965 4095
0 3964 4095
0 4095 0
0 4095 0
0 4095 0
0 4095 0
0 4095 0
0 4095 0
0 4095 337
0 4095 1061
0 4095 1797
0 4095 2531
0 4095 3249
0 4095 3936
0 4095 4095
0 4095 4095
0 4095 4095
0 4095 4095
0 4095 4095
0 4095 0
0 4095 0
0 4095 0
0 4095 0
0 4095 0
0 4095 0
0 4095 373
0 4095 1096
0 4095 1831
0 4095 2565
0 4095 3283
0 4095 3969
0 4095 4095
0 4095 4095
0 4095 4095
0 4095 4095
0 4095 4095
0 4095 0
0 4095 0
0 4095 0
0 4095 0
0 4095 0
0 4095 0
0 4095 378
0 4095 1108
0 4095 1853
0 4095 2588
0 4095 3292
0 4095 3944
0 4095 4095
0 4095 4095
0 4095 4095
0 4095 4095
0 4095 4095
0 4095 0
0 4095 0
0 4095 0
0 4095 0
0 4095 0
0 4095 642
0 4095 1319
0 4095 1964
0 4095 2548
12 4095 3072
295 4095 3527
577 4095 3903
865 4095 4095
1156 4095 4095
1446 4095 4095
1738 4095 4095
2035 4095 4095
925 4095 925
1273 4095 1429
1601 4095 1875
1912 4095 2271
2218 4095 2635
2497 4095 2996
2760 4095 3309
2998 4095 3560
3227 4095 3759
3451 4095 3909
3668 4095 4012
3869 4095 4071
4051 4095 4095
4066 4095 4095
4082 4095 4095
4095 4095 4095
4095 4095 4095
0 0 0
0 0 0
0 0 0
0 0 0
0 0 0
0 0 0
0 0 0
0 0 0
0 0 0
0 0 0
0 0 0
0 0 0
0 0 0
0 0 0
0 0 0
0 0 0
0 0 0
0 0 0
0 0 0
0 0 0
0 0 0
0 0 0
0 0 0
0 0 0
0 0 0
0 0 0
0 0 0
0 0 0
0 0 0
0 0 0
0 0 0
0 0 0
0 0 0
0 0 0
0 0 0
0 0 0
0 0 0
0 0 0
0 0 0
0 0 0
0 0 0
0 0 0
0 0 0
0 0 0
0 0 0
0 0 0
0 0 0
0 0 0
1 3 36
0 5 256
0 4 516
0 0 0
2 2 2
2 21 12
0 41 41
0 60 97
0 73 202
0 81 353
0 85 546
0 84 782
0 81 1058
0 75 1372
0 67 1720
0 59 2071
0 53 2429
0 44 2825
0 33 3247
0 20 3703
0 296 0
0 312 0
0 326 0
0 338 148
0 347 347
0 343 684
0 333 1091
0 320 1550
0 303 2053
0 283 2595
0 263 3173
0 243 3778
0 230 4095
0 221 4095
0 210 4095
0 199 4095
0 188 4095
0 749 0
0 764 0
0 777 0
0 788 0
0 798 247
0 791 791
0 777 1424
0 758 2110
0 736 2835
0 713 3579
0 690 4095
0 668 4095
0 658 4095
0 656 4095
0 651 4095
0 647 4095
0 642 4095
0 1359 0
0 1365 0
0 1369 0
0 1370 0
0 1370 3
0 1351 632
0 1326 1326
0 1299 2047
0 1273 2782
0 1246 3514
0 1220 4095
0 1197 4095
0 1187 4095
0 1186 4095
0 1183 4095
0 1180 4095
0 1177 4095
0 1901 0
0 1903 0
0 1906 0
0 1909 0
0 1910 0
0 1892 426
0 1869 1121
0 1845 1845
0 1818 2580
0 1792 3313
0 1768 4030
0 1746 4095
0 1737 4095
0 1737 4095
0 1735 4095
0 1733 4095
0 1732 4095
0 2452 0
0 2456 0
0 2460 0
0 2464 0
0 2466 0
0 2449 222
0 2428 919
0 2404 1642
0 2378 2378
0 2353 3112
0 2329 3830
0 2308 4095
0 2301 4095
0 2302 4095
0 2300 4095
0 2300 4095
0 2298 4095
0 3013 0
0 3018 0
0 3023 0
0 3028 0
0 3031 0
0 3015 29
0 2994 726
0 2970 1449
0 2945 2186
0 2920 2920
0 2897 3639
0 2876 4095
0 2869 4095
0 2871 4095
0 2870 4095
0 2869 4095
0 2868 4095
0 3576 0
0 3581 0
0 3587 0
0 3593 0
0 3596 0
0 3580 0
0 3558 548
0 3535 1272
0 3510 2009
0 3486 2744
0 3462 3462
0 3442 4095
0 3436 4095
0 3437 4095
0 3436 4095
0 3434 4095
0 3433 4095
0 4095 0
0 4095 0
0 4095 0
0 4095 0
0 4095 0
0 4095 0
0 4095 396
0 4090 1119
0 4065 1856
0 4041 2591
0 4018 3310
0 3997 3997
0 3990 4095
0 3991 4095
0 3989 4095
0 3987 4095
0 3985 4095
0 4095 0
0 4095 0
0 4095 0
0 4095 0
0 4095 0
0 4095 0
0 4095 359
0 4095 1082
0 4095 1819
0 4095 2553
0 4095 3270
0 4095 3957
0 4095 4095
0 4095 4095
0 4095 4095
0 4095 4095
0 4095 4095
0 4095 0
0 4095 0
0 4095 0
0 4095 0
0 4095 0
0 4095 0
0 4095 393
0 4095 1116
0 4095 1851
0 4095 2584
0 4095 3300
0 4095 3986
0 4095 4095
0 4095 4095
0 4095 4095
0 4095 4095
0 4095 4095
0 4095 0
0 4095 0
0 4095 0
0 4095 0
0 4095 0
0 4095 0
0 4095 489
0 4095 1231
0 4095 1967
0 4095 2676
0 4095 3338
0 4095 3933
0 4095 4095
0 4095 4095
0 4095 4095
0 4095 4095
0 4095 4095
0 4095 0
0 4095 0
0 4095 0
0 4095 176
0 4095 705
202 4095 1308
465 4095 1892
735 4095 2432
1000 4095 2910
1248 4095 3318
1486 4095 3658
1731 4095 3932
2000 4095 4095
2286 4095 4095
2547 4095 4095
2804 4095 4095
3059 4095 4095
2136 4095 2023
2431 4095 2431
2731 4095 2809
3014 4095 3137
3274 4095 3418
3496 4095 3657
3701 4095 3847
3887 4095 3986
4053 4095 4078
4066 4095 4095
4079 4095 4095
4093 4095 4095
4095 4095 4095
4095 4095 4095
4095 4095 4095
4095 4095 4095
4095 4095 4095
0 0 0
0 0 0
0 0 0
0 0 0
0 0 0
0 0 0
0 0 0
0 0 0
0 0 0
0 0 0
0 0 0
0 0 0
0 0 0
0 0 0
0 0 0
0 0 0
0 0 0
0 0 0
0 0 0
0 0 0
0 0 0
0 0 0
0 0 0
0 0 0
0 0 0
0 0 0
0 0 0
0 0 0
0 0 0
0 0 0
0 0 0
0 0 0
0 0 0
0 0 0
0 0 0
0 0 0
0 0 0
0 0 0
0 0 0
0 0 0
0 0 0
0 0 0
0 0 0
0 0 0
0 0 0
5 5 120
7 7 317
4 4 554
0 0 822
0 0 1121
0 0 1453
24 50 0
29 70 0
32 87 32
33 101 101
30 113 200
21 115 376
8 114 604
0 108 878
0 99 1196
0 87 1553
0 72 1949
0 56 2370
0 42 2777
0 30 3180
0 16 3621
0 0 4087
0 0 4095
0 350 0
0 360 0
0 368 0
0 375 139
0 379 379
0 368 780
0 352 1256
0 332 1790
0 310 2377
0 286 2999
0 259 3647
0 234 4095
0 219 4095
0 210 4095
0 198 4095
0 186 4095
0 174 4095
0 800 0
0 811 0
0 823 0
0 834 0
0 841 236
0 828 828
0 808 1504
0 785 2224
0 759 2966
0 732 3710
0 705 4095
0 681 4095
0 671 4095
0 669 4095
0 665 4095
0 661 4095
0 658 4095
0 1378 0
0 1380 0
0 1382 0
0 1383 0
0 1383 17
0 1366 648
0 1342 1342
0 1316 2063
0 1288 2797
0 1261 3530
0 1236 4095
0 1213 4095
0 1204 4095
0 1203 4095
0 1202 4095
0 1199 4095
0 1196 4095
0 1917 0
0 1920 0
0 1923 0
0 1926 0
0 1929 0
0 1911 445
0 1888 1141
0 1863 1863
0 1837 2599
0 1811 3332
0 1787 4050
0 1765 4095
0 1757 4095
0 1759 4095
0 1757 4095
0 1755 4095
0 1753 4095
0 2472 0
0 2476 0
0 2481 0
0 2485 0
0 2488 0
0 2471 244
0 2449 940
0 2425 1663
0 2400 2400
0 2375 3134
0 2351 3852
0 2331 4095
0 2324 4095
0 2325 4095
0 2323 4095
0 2322 4095
0 2321 4095
0 3036 0
0 3041 0
0 3046 0
0 3051 0
0 3054 0
0 3038 51
0 3016 748
0 2993 1472
0 2968 2209
0 2943 2943
0 2921 3663
0 2901 4095
0 2893 4095
0 2895 4095
0 2893 4095
0 2892 4095
0 2891 4095
0 3600 0
0 3605 0
0 3610 0
0 3616 0
0 3619 0
0 3603 0
0 3582 571
0 3558 1296
0 3534 2033
0 3510 2768
0 3487 3487
0 3466 4095
0 3459 4095
0 3460 4095
0 3458 4095
0 3457 4095
0 3456 4095
0 4095 0
0 4095 0
0 4095 0
0 4095 0
0 4095 0
0 4095 0
0 4095 419
0 4095 1143
0 4089 1879
0 4064 2614
0 4040 3332
0 4019 4019
0 4011 4095
0 4012 4095
0 4010 4095
0 4009 4095
0 4007 4095
0 4095 0
0 4095 0
0 4095 0
0 4095 0
0 4095 0
0 4095 0
0 4095 380
0 4095 1103
0 4095 1839
0 4095 2573
0 4095 3290
0 4095 3976
0 4095 4095
0 4095 4095
0 4095 4095
0 4095 4095
0 4095 4095
0 4095 0
0 4095 0
0 4095 0
0 4095 0
0 4095 0
0 4095 0
0 4095 411
0 4095 1133
0 4095 1868
0 4095 2600
0 4095 3317
0 4095 4002
0 4095 4095
0 4095 4095
0 4095 4095
0 4095 4095
0 4095 4095
0 4095 0
0 4095 0
0 4095 0
0 4095 0
0 4095 0
0 4095 23
0 4095 750
0 4095 1472
0 4095 2170
0 4095 2823
0 4095 3413
0 4095 3926
0 4095 4095
238 4095 4095
509 4095 4095
779 4095 4095
1035 4095 4095
0 4095 0
262 4095 18
545 4095 545
836 4095 1043
1135 4095 1523
1402 4095 2038
1645 4095 2505
1870 4095 2912
2095 4095 3266
2327 4095 3565
2556 4095 3803
2773 4095 3980
3005 4095 4084
3248 4095 4095
3480 4095 4095
3702 4095 4095
3902 4095 4095
3176 4095 3065
3423 4095 3382
3653 4095 3653
3864 4095 3878
4055 4095 4060
4070 4095 4079
4083 4095 4095
4095 4095 4095
4095 4095 4095
4095 4095 4095
4095 4095 4095
4095 4095 4095
4095 4095 4095
4095 4095 4095
4095 4095 4095
4095 4095 4095
4095 4095 4095
0 0 0
0 0 0
0 0 0
0 0 0
0 0 0
0 0 0
0 0 0
0 0 0
0 0 0
0 0 0
0 0 0
0 0 0
0 0 0
0 0 0
0 0 0
0 0 0
0 0 0
0 0 0
0 0 0
0 0 0
0 0 0
0 0 0
0 0 0
0 0 0
0 0 0
0 0 0
0 0 0
0 0 0
0 0 0
0 0 0
0 0 0
0 0 0
0 0 0
