3DLUTS/GC_VENOM_LUTS/Additional_Formats/3DL/GC_Venom_V-LOG-To_Rec709.3dl
# Converted by Briz LUT Converter
0 128 256 384 512 640 768 896 1023
0 0 0
0 0 0
0 0 0
0 0 0
0 0 0
0 0 0
0 0 0
0 0 0
0 0 0
0 0 0
0 0 0
0 0 0
0 0 0
0 0 0
0 0 0
0 0 0
0 0 0
0 0 0
0 221 0
0 264 16
0 298 298
0 299 902
0 283 1712
0 257 2679
0 233 3681
0 221 4095
0 201 4095
0 1310 0
0 1339 0
0 1355 0
0 1313 1313
0 1258 2767
0 1204 4095
0 1171 4095
0 1166 4095
0 1159 4095
0 2434 0
0 2441 0
0 2447 0
0 2407 898
0 2357 2357
0 2308 3809
0 2279 4095
0 2278 4095
0 2275 4095
0 3553 0
0 3563 0
0 3571 0
0 3535 525
0 3487 1986
0 3439 3439
0 3412 4095
0 3412 4095
0 3410 4095
0 4095 0
0 4095 0
0 4095 0
0 4095 337
0 4095 1797
0 4095 3249
0 4095 4095
0 4095 4095
0 4095 4095
0 4095 0
0 4095 0
0 4095 0
0 4095 378
0 4095 1853
0 4095 3292
0 4095 4095
0 4095 4095
0 4095 4095
925 4095 925
1601 4095 1875
2218 4095 2635
2760 4095 3309
3227 4095 3759
3668 4095 4012
4051 4095 4095
4082 4095 4095
4095 4095 4095
0 0 0
0 0 0
0 0 0
0 0 0
0 0 0
0 0 0
0 0 0
0 0 0
0 0 0
0 0 0
0 0 0
0 0 0
0 0 0
0 0 0
0 0 0
7 7 317
0 0 822
0 0 1453
0 350 0
0 368 0
0 379 379
0 352 1256
0 310 2377
0 259 3647
0 219 4095
0 198 4095
0 174 4095
0 1378 0
0 1382 0
0 1383 17
0 1342 1342
0 1288 2797
0 1236 4095
0 1204 4095
0 1202 4095
0 1196 4095
0 2472 0
0 2481 0
0 2488 0
0 2449 940
0 2400 2400
0 2351 3852
0 2324 4095
0 2323 4095
0 2321 4095
0 3600 0
0 3610 0
0 3619 0
0 3582 571
0 3534 2033
0 3487 3487
0 3459 4095
0 3458 4095
0 3456 4095
0 4095 0
0 4095 0
0 4095 0
0 4095 380
0 4095 1839
0 4095 3290
0 4095 4095
0 4095 4095
0 4095 4095
0 4095 0
0 4095 0
0 4095 0
0 4095 750
0 4095 2170
0 4095 3413
0 4095 4095
509 4095 4095
1035 4095 4095
3176 4095 3065
3653 4095 3653
4055 4095 4060
4083 4095 4095
4095 4095 4095
4095 4095 4095
4095 4095 4095
4095 4095 4095
4095 4095 4095
0 0 0
0 0 0
0 0 0
0 0 0
0 0 0
0 0 0
0 0 0
0 0 0
0 0 0
0 0 0
0 0 0
53 17 53
105 21 250
140 9 617
161 0 1143
177 0 1791
194 0 2513
201 0 3348
401 401 0
404 404 0
400 400 400
357 357 1539
300 300 2927
238 238 4095
194 194 4095
181 181 4095
171 171 4095
34 1400 0
39 1406 0
43 1409 43
1 1368 1368
0 1317 2826
0 1266 4095
0 1235 4095
0 1233 4095
0 1228 4095
0 2508 0
0 2517 0
0 2525 0
0 2487 978
0 2439 2439
0 2391 3892
0 2363 4095
0 2364 4095
0 2361 4095
0 3640 0
0 3652 0
0 3660 0
0 3622 612
0 3574 2073
0 3527 3527
0 3498 4095
0 3498 4095
0 3494 4095
0 4095 0
0 4095 0
0 4095 0
0 4095 413
0 4095 1872
0 4095 3322
0 4095 4095
0 4095 4095
0 4095 4095
0 4095 0
13 4095 0
448 4095 448
849 4095 1701
1260 4095 2796
1667 4095 3630
2073 4095 4095
2530 4095 4095
2952 4095 4095
4095 4095 4095
4095 4095 4095
4095 4095 4095
4095 4095 4095
4095 4095 4095
4095 4095 4095
4095 4095 4095
4095 4095 4095
4095 4095 4095
0 0 0
0 0 0
0 0 0
0 0 0
0 0 0
0 0 0
0 0 0
0 0 0
0 0 0
335 14 0
481 2 2
612 0 214
702 0 702
771 0 1389
826 0 2228
889 0 3134
963 0 4017
1037 0 4095
1510 302 0
1568 294 0
1610 284 284
1589 233 1589
1541 174 3050
1487 120 4095
1452 86 4095
1448 81 4095
1440 74 4095
1305 1305 0
1313 1313 0
1318 1318 0
1278 1278 1278
1227 1227 2736
1178 1178 4095
1149 1149 4095
1147 1147 4095
1144 1144 4095
915 2424 0
925 2434 0
933 2442 0
896 2405 896
848 2357 2357
801 2310 3811
773 2282 4095
773 2282 4095
772 2281 4095
549 3559 0
559 3569 0
568 3578 0
530 3540 530
481 3491 1990
432 3442 3442
404 3414 4095
403 3413 4095
398 3408 4095
351 4095 0
359 4095 0
363 4095 0
322 4095 322
269 4095 1778
240 4095 3230
284 4095 4095
420 4095 4095
614 4095 4095
1785 4095 63
2166 4095 1116
2544 4095 2016
2848 4095 2848
3140 4095 3480
3415 4095 3884
3705 4095 4076
3990 4095 4095
4089 4095 4095
4095 4095 4095
4095 4095 4095
4095 4095 4095
4095 4095 4095
4095 4095 4095
4095 4095 4095
4095 4095 4095
4095 4095 4095
4095 4095 4095
0 0 0
0 0 0
0 0 0
0 0 0
0 0 0
0 0 0
0 0 0
109 0 222
308 0 726
1344 0 0
1542 0 0
1725 0 213
1856 0 977
1962 0 1962
2073 0 3117
2191 0 4095
2340 0 4095
2477 0 4095
3004 139 0
3016 140 0
3017 141 141
2974 99 1465
2921 45 2921
2868 0 4095
2835 0 4095
2831 0 4095
2826 0 4095
2693 1184 0
2702 1193 0
2709 1199 0
2670 1161 1161
2620 1111 2620
2571 1062 4072
2543 1034 4095
2543 1034 4095
2540 1031 4095
2312 2312 0
2323 2323 0
2331 2331 0
2294 2294 785
2246 2246 2246
2199 2199 3700
2171 2171 4095
2171 2171 4095
2168 2168 4095
1946 3447 0
1956 3457 0
1963 3464 0
1925 3426 416
1875 3376 1875
1826 3327 3327
1795 3297 4095
1793 3294 4095
1788 3289 4095
1738 4095 0
1746 4095 0
1775 4095 0
1790 4095 349
1828 4095 1828
1906 4095 3183
2049 4095 4095
2239 4095 4095
2447 4095 4095
3391 4095 2248
3622 4095 3003
3834 4095 3573
4003 4095 3957
4091 4095 4091
4095 4095 4095
4095 4095 4095
4095 4095 4095
4095 4095 4095
4095 4095 4095
4095 4095 4095
4095 4095 4095
4095 4095 4095
4095 4095 4095
4095 4095 4095
4095 4095 4095
4095 4095 4095
4095 4095 4095
0 0 0
0 0 0
0 0 0
121 0 50
382 0 265
646 0 646
918 0 1165
1217 0 1790
1500 0 2529
2834 0 0
3078 0 0
3325 0 82
3497 0 1106
3654 0 2382
3802 0 3802
3934 0 4095
4049 0 4095
4095 0 4095
4095 8 0
4095 12 0
4095 15 15
4095 0 1340
4095 0 2797
4095 0 4095
4095 0 4095
4095 0 4095
4095 0 4095
4079 1069 0
4088 1078 0
4095 1085 0
4058 1048 1048
4009 999 2508
3961 951 3961
3933 923 4095
3934 923 4095
3931 921 4095
3703 2202 0
3715 2214 0
3723 2222 0
3686 2185 676
3637 2136 2136
3589 2088 3589
3562 2061 4095
3562 2061 4095
3558 2057 4095
3335 3335 0
3344 3344 0
3350 3350 0
3310 3310 300
3260 3260 1759
3210 3210 3210
3178 3178 4095
3174 3174 4095
3167 3167 4095
3142 4095 0
3178 4095 0
3228 4095 0
3257 4095 1044
3291 4095 2313
3342 4047 3342
3420 4014 4014
3519 4004 4095
3622 4003 4095
4091 4095 4054
4095 4095 4091
4095 4095 4095
4095 4095 4095
4095 4095 4095
4095 4095 4095
4095 4095 4095
4095 4095 4095
4095 4095 4095
4095 4095 4095
4095 4095 4095
4095 4095 4095
4095 4095 4095
4095 4095 4095
4095 4095 4095
4095 4095 4095
4095 4095 4095
4095 4095 4095
368 0 0
795 0 0
1219 0 79
1557 0 434
1871 0 982
2160 0 1684
2464 0 2464
2807 0 3262
3134 0 4095
4095 0 0
4095 0 0
4095 0 0
4095 0 1166
4095 0 2617
4095 0 4086
4095 0 4095
4095 0 4095
4095 0 4095
4095 0 0
4095 0 0
4095 0 0
4095 0 1273
4095 0 2731
4095 0 4095
4095 0 4095
4095 0 4095
4095 0 4095
4095 1010 0
4095 1019 0
4095 1027 0
4095 990 990
4095 942 2451
4095 894 3905
4095 867 4095
4095 867 4095
4095 865 4095
4095 2146 0
4095 2157 0
4095 2165 0
4095 2128 619
4095 2079 2079
4095 2031 3532
4095 2002 4095
4095 2002 4095
4095 1998 4095
4095 3272 0
4095 3281 0
4095 3286 0
4095 3245 235
4095 3193 1692
4095 3142 3142
4095 3111 4095
4095 3113 4095
4095 3124 4095
4095 4095 0
4095 4095 195
4080 4080 1220
4043 4043 2272
4015 4015 3093
4004 4004 3681
4011 4011 4011
4036 4036 4095
4069 4069 4095
4095 4095 4095
4095 4095 4095
4095 4095 4095
4095 4095 4095
4095 4095 4095
4095 4095 4095
4095 4095 4095
4095 4095 4095
4095 4095 4095
4095 4095 4095
4095 4095 4095
4095 4095 4095
4095 4095 4095
4095 4095 4095
4095 4095 4095
4095 4095 4095
4095 4095 4095
4095 4095 4095
2090 0 0
2546 0 0
2967 0 76
3296 0 721
3606 0 1581
3905 0 2595
4095 0 3646
4095 0 4095
4095 0 4095
4095 0 0
4095 0 0
4095 0 0
4095 0 1187
4095 0 2642
4095 0 4089
4095 0 4095
4095 0 4095
4095 0 4095
4095 0 0
4095 0 0
4095 0 0
4095 0 1285
4095 0 2744
4095 0 4095
4095 0 4095
4095 0 4095
4095 0 4095
4095 1026 0
4095 1038 0
4095 1046 0
4095 1009 1009
4095 960 2469
4095 914 3924
4095 886 4095
4095 886 4095
4095 883 4095
4095 2165 0
4095 2175 0
4095 2182 0
4095 2144 635
4095 2095 2095
4095 2046 3547
4095 2016 4095
4095 2014 4095
4095 2010 4095
4095 3282 0
4095 3289 0
4095 3294 0
4095 3254 272
4095 3210 1759
4095 3178 3178
4095 3182 4095
4095 3228 4095
4095 3282 4095
4095 4055 1366
4095 4048 2241
4095 4049 2967
4095 4052 3536
4095 4066 3904
4095 4093 4085
4095 4095 4095
4095 4095 4095
4095 4095 4095
4095 4095 4095
4095 4095 4095
4095 4095 4095
4095 4095 4095
4095 4095 4095
4095 4095 4095
4095 4095 4095
4095 4095 4095
4095 4095 4095
4095 4095 4095
4095 4095 4095
4095 4095 4095
4095 4095 4095
4095 4095 4095
4095 4095 4095
4095 4095 4095
4095 4095 4095
4095 4095 4095
4053 0 0
4095 0 0
4095 0 0
4095 0 911
4095 0 2071
4095 0 3387
4095 0 4095
4095 0 4095
4095 0 4095
4095 0 0
4095 0 0
4095 0 0
4095 0 1182
4095 0 2638
4095 0 4088
4095 0 4095
4095 0 4095
4095 0 4095
4095 0 0
4095 0 0
4095 0 0
4095 0 1293
4095 0 2753
4095 0 4095
4095 0 4095
4095 0 4095
4095 0 4095
4095 1038 0
4095 1049 0
4095 1058 0
4095 1021 1021
4095 973 2482
4095 925 3935
4095 898 4095
4095 898 4095
4095 895 4095
4095 2175 0
4095 2184 0
4095 2190 0
4095 2152 643
4095 2101 2101
4095 2052 3553
4095 2021 4095
4095 2017 4095
4095 2011 4095
4095 3285 0
4095 3300 0
4095 3322 0
4095 3316 791
4095 3319 2172
4095 3338 3338
4095 3387 4095
4095 3469 4095
4095 3546 4095
4095 4066 3489
4095 4089 3997
4095 4095 4086
4095 4095 4095
4095 4095 4095
4095 4095 4095
4095 4095 4095
4095 4095 4095
4095 4095 4095
4095 4095 4095
4095 4095 4095
4095 4095 4095
4095 4095 4095
4095 4095 4095
4095 4095 4095
4095 4095 4095
4095 4095 4095
4095 4095 4095
4095 4095 4095
4095 4095 4095
4095 4095 4095
4095 4095 4095
4095 4095 4095
4095 4095 4095
4095 4095 4095
4095 4095 4095
4095 4095 4095
