3DLUTS/GC_VENOM_LUTS/Additional_Formats/3DL/GC_Venom_V-LOG-To_Rec709.3dl
# Converted by Briz LUT Converter
0 256 512 768 1023
0 0 0
0 0 0
0 0 0
0 0 0
0 0 0
0 221 0
0 298 298
0 283 1712
0 233 3681
0 201 4095
0 2434 0
0 2447 0
0 2357 2357
0 2279 4095
0 2275 4095
0 4095 0
0 4095 0
0 4095 1797
0 4095 4095
0 4095 4095
925 4095 925
2218 4095 2635
3227 4095 3759
4051 4095 4095
4095 4095 4095
0 0 0
0 0 0
0 0 0
0 0 0
0 0 0
401 401 0
400 400 400
300 300 2927
194 194 4095
171 171 4095
0 2508 0
0 2525 0
0 2439 2439
0 2363 4095
0 2361 4095
0 4095 0
0 4095 0
0 4095 1872
0 4095 4095
0 4095 4095
4095 4095 4095
4095 4095 4095
4095 4095 4095
4095 4095 4095
4095 4095 4095
0 0 0
0 0 0
0 0 0
0 0 0
308 0 726
3004 139 0
3017 141 141
2921 45 2921
2835 0 4095
2826 0 4095
2312 2312 0
2331 2331 0
2246 2246 2246
2171 2171 4095
2168 2168 4095
1738 4095 0
1775 4095 0
1828 4095 1828
2049 4095 4095
2447 4095 4095
4095 4095 4095
4095 4095 4095
4095 4095 4095
4095 4095 4095
4095 4095 4095
368 0 0
1219 0 79
1871 0 982
2464 0 2464
3134 0 4095
4095 0 0
4095 0 0
4095 0 2731
4095 0 4095
4095 0 4095
4095 2146 0
4095 2165 0
4095 2079 2079
4095 2002 4095
4095 1998 4095
4095 4095 0
4080 4080 1220
4015 4015 3093
4011 4011 4011
4069 4069 4095
4095 4095 4095
4095 4095 4095
4095 4095 4095
4095 4095 4095
4095 4095 4095
4053 0 0
4095 0 0
4095 0 2071
4095 0 4095
4095 0 4095
4095 0 0
4095 0 0
4095 0 2753
4095 0 4095
4095 0 4095
4095 2175 0
4095 2190 0
4095 2101 2101
4095 2021 4095
4095 2011 4095
4095 4066 3489
4095 4095 4086
4095 4095 4095
4095 4095 4095
4095 4095 4095
4095 4095 4095
4095 4095 4095
4095 4095 4095
4095 4095 4095
4095 4095 4095
